P2
# Criado manualmente em Python
45 45
255
129 132 137 140 131 133 137 134 131 131 129 130 133 136 140 150 166 159 145 145 150 153 160 172 184 185 184 183 179 171 163 155 145 136 132 128 125 123 127 134 139 158 186 171 147
134 136 135 138 131 129 132 134 130 126 126 128 130 138 148 149 150 147 146 153 154 158 163 173 185 186 184 183 180 173 164 157 148 139 134 130 127 125 126 134 138 144 158 155 144
135 135 134 133 129 125 127 128 128 123 123 123 126 135 136 134 139 143 147 150 156 166 167 174 184 187 185 185 182 176 168 160 152 142 136 131 129 127 130 134 139 144 150 155 148
135 136 133 126 124 120 119 120 120 120 122 124 128 132 135 140 142 152 139 139 156 168 167 172 181 185 185 186 185 181 176 167 155 145 139 135 132 131 134 137 143 148 155 154 153
137 135 130 124 121 117 116 116 116 115 115 119 127 132 138 138 145 148 141 150 156 167 165 167 177 182 185 187 187 187 181 174 163 150 148 141 138 138 139 141 146 150 154 155 155
135 132 127 124 119 114 113 113 113 114 115 117 131 149 147 142 148 147 148 153 156 163 162 158 172 180 185 187 189 190 190 182 171 157 154 142 141 141 141 143 147 151 155 159 157
130 129 125 117 115 113 110 112 115 118 120 129 156 171 168 160 148 142 141 140 154 166 157 150 167 178 185 188 190 190 189 187 184 177 160 143 141 141 142 144 150 153 156 166 161
133 130 124 117 113 111 110 110 112 116 135 161 180 181 179 172 163 144 133 132 139 150 134 140 164 176 182 186 189 189 188 183 172 171 161 146 143 141 142 145 150 154 158 165 162
133 129 124 115 108 109 110 110 114 121 141 184 212 215 202 202 207 202 170 145 124 135 146 131 159 176 182 186 188 189 186 180 171 169 160 149 145 143 142 145 150 155 161 171 161
123 125 120 110 105 105 110 117 124 128 174 216 226 231 232 231 233 231 228 216 179 128 147 160 160 177 184 187 188 190 189 184 176 167 160 153 146 143 143 146 151 163 176 180 159
131 123 114 108 106 106 111 115 130 150 201 222 231 234 235 237 237 237 235 233 229 188 168 172 164 180 187 189 192 193 192 188 183 173 163 156 148 144 144 145 151 153 180 181 156
133 127 123 114 108 111 115 119 140 184 215 225 230 235 236 239 238 239 234 230 232 232 228 210 193 187 191 193 194 195 192 188 182 174 164 154 148 144 143 145 149 146 159 178 156
133 128 126 124 114 115 120 124 147 203 219 227 232 235 235 235 237 238 237 235 233 232 234 231 216 203 202 199 197 196 193 188 182 175 164 155 150 145 144 145 146 144 142 145 146
128 125 123 123 118 118 126 130 156 211 223 227 230 230 231 230 232 230 228 233 235 235 235 235 231 220 217 207 202 199 193 188 182 174 165 156 150 146 145 146 146 143 142 141 140
128 125 124 125 120 123 134 141 181 223 220 221 222 222 219 217 210 204 202 211 224 231 234 236 236 234 227 216 205 200 193 186 180 173 164 156 150 146 145 145 147 144 145 142 137
127 126 126 129 126 134 159 164 204 223 217 214 205 206 199 195 192 189 187 196 207 219 226 235 237 237 234 227 210 200 192 186 179 172 163 156 150 146 145 144 145 143 142 145 139
125 125 126 127 126 135 173 210 219 217 213 191 190 189 187 182 180 176 178 189 192 204 216 228 235 237 236 231 216 202 193 185 178 172 164 157 151 148 146 143 144 144 140 141 139
124 126 128 126 130 138 189 218 219 214 195 184 188 180 177 175 172 172 175 182 186 196 204 217 229 235 236 232 221 208 197 188 181 174 166 159 153 151 147 142 143 145 139 136 136
122 127 128 126 130 149 189 218 217 208 198 188 183 179 177 175 173 173 175 179 183 190 195 207 221 229 233 233 224 212 199 193 183 175 168 162 158 155 146 141 138 136 136 134 131
121 124 138 126 137 150 175 211 209 200 191 185 182 180 179 177 176 176 176 178 181 185 191 199 211 221 228 233 231 221 202 192 183 175 169 164 161 161 151 141 135 131 130 128 126
126 130 141 125 134 151 172 196 203 195 188 187 184 183 182 181 180 179 178 178 180 183 188 193 203 212 223 231 232 224 207 194 185 176 170 166 162 161 159 148 130 128 123 121 120
119 126 144 126 131 152 169 191 198 193 192 191 189 188 187 186 184 182 179 178 180 182 185 190 199 208 219 229 232 228 213 195 186 176 170 166 160 157 164 154 127 124 120 116 115
117 132 154 127 133 157 180 191 194 194 194 194 193 192 191 189 186 182 179 177 177 180 185 189 197 205 217 226 231 229 217 197 186 176 168 163 157 148 149 138 126 122 118 115 112
125 140 150 127 132 163 182 188 193 194 195 196 195 194 192 190 187 181 178 174 175 180 185 190 196 205 215 224 228 227 212 198 187 173 165 159 151 144 135 130 124 120 115 111 111
124 141 146 126 131 156 173 179 191 195 196 197 196 194 192 190 187 183 178 177 179 182 186 191 196 204 213 221 225 224 207 191 181 170 160 152 146 139 133 128 120 117 113 108 107
123 138 146 139 138 153 166 174 188 196 195 196 195 193 189 188 188 183 178 179 181 184 188 193 197 201 209 216 222 220 200 182 175 165 156 149 143 136 131 127 120 115 112 107 106
125 127 131 136 139 136 162 167 188 197 195 195 193 191 185 182 187 184 181 182 184 186 189 194 198 201 207 212 217 214 195 178 170 161 153 147 141 135 130 126 121 116 114 110 109
124 125 126 131 138 129 151 181 196 196 195 192 193 191 186 184 189 188 185 186 187 189 191 194 198 199 203 209 213 211 188 175 168 161 153 148 142 137 132 127 123 119 116 112 112
123 123 124 127 134 128 134 175 199 195 191 191 191 192 191 191 193 192 189 189 189 190 192 194 197 197 200 204 209 201 184 175 170 164 159 153 147 141 137 131 127 123 120 118 119
123 123 122 124 129 128 136 169 199 195 191 190 188 194 195 195 196 196 193 191 190 190 192 194 197 196 197 201 203 189 183 179 175 171 166 162 155 150 140 133 131 127 125 125 126
122 122 121 122 125 127 133 172 195 195 192 193 192 194 199 199 199 199 196 193 191 189 191 194 196 196 196 199 193 185 187 184 181 175 169 166 164 158 149 140 135 132 129 130 131
121 121 120 121 122 125 132 168 190 194 196 196 196 196 201 202 201 201 198 194 190 188 192 194 195 196 197 202 206 210 212 213 212 206 195 191 185 167 156 147 139 136 134 134 134
120 122 121 120 122 126 132 156 185 198 200 201 200 199 201 204 202 201 197 194 191 192 193 194 195 194 195 198 203 209 215 219 218 218 218 215 211 198 162 151 144 139 137 137 137
124 123 121 120 121 130 146 148 170 197 204 204 203 201 201 203 203 200 197 196 195 195 194 194 194 193 193 193 194 197 205 209 208 209 207 204 205 206 185 156 150 143 139 138 138
137 133 119 120 124 145 146 146 158 176 200 206 206 203 202 201 201 202 201 200 198 196 195 194 193 191 191 191 193 196 202 205 208 208 207 204 199 195 194 167 154 147 141 140 140
136 124 119 123 142 145 144 155 159 169 197 208 208 204 202 199 195 197 200 200 199 198 197 195 192 190 189 189 191 195 200 204 207 208 208 206 203 199 194 178 161 154 145 140 140
124 128 130 139 142 156 176 154 159 192 212 213 210 205 202 197 192 190 194 198 199 199 197 195 192 189 187 187 189 193 199 203 205 207 207 206 205 202 197 187 172 163 150 142 140
136 136 148 146 133 169 180 163 185 212 210 209 209 204 200 195 190 189 191 194 197 198 197 195 191 188 186 186 188 193 198 202 205 207 207 207 206 204 201 194 180 169 155 147 140
134 137 152 153 137 165 173 184 204 199 198 203 204 201 197 192 188 188 189 192 195 196 196 194 191 188 187 187 190 194 200 204 206 208 208 209 209 207 204 203 192 174 160 149 143
132 131 138 147 145 155 179 194 193 195 198 200 201 198 194 190 186 185 187 190 193 194 194 193 191 188 187 188 192 196 201 205 208 209 210 210 211 211 208 208 202 176 160 145 142
136 128 134 145 152 170 196 196 196 198 198 197 197 195 193 190 187 185 185 188 191 192 192 192 190 189 188 190 193 198 202 206 208 210 211 212 213 214 212 216 211 176 156 139 134
184 170 148 148 157 189 193 198 199 199 198 196 195 193 192 190 189 187 187 188 189 190 191 191 190 189 190 192 195 199 203 206 208 210 211 213 216 216 219 222 220 190 161 151 144
179 199 178 145 180 195 193 201 201 200 198 196 194 193 191 190 190 189 189 189 189 189 189 190 189 190 191 193 196 199 203 206 207 209 211 214 217 221 226 225 223 206 168 154 144
123 133 141 157 199 193 195 202 202 200 198 196 194 193 192 191 191 190 190 190 189 189 188 189 189 190 192 194 197 200 203 205 207 209 211 214 218 226 229 228 225 219 184 158 143
150 143 137 179 204 191 195 202 203 201 199 197 194 193 192 191 191 191 190 190 189 189 188 188 189 190 192 195 197 200 203 205 206 208 211 214 222 228 231 230 226 222 196 166 154
