P2
# Criado manualmente em Python
45 45
255
192 228 239 245 249 252 251 248 245 243 242 241 241 241 241 239 231 220 211 202 196 192 189 186 183 180 176 172 167 162 159 155 151 149 148 147 146 146 146 146 147 147 147 147 147
192 230 241 245 249 251 250 248 244 241 227 230 240 237 237 237 235 229 220 209 202 197 192 187 183 180 177 173 169 166 163 159 156 153 151 150 149 149 149 149 149 149 149 149 149
221 236 241 245 249 251 249 246 242 239 184 182 235 236 237 238 237 234 231 226 222 219 213 210 200 192 186 182 178 175 172 167 163 160 158 156 154 154 153 153 153 153 152 152 152
233 239 242 246 249 250 247 243 238 233 176 154 220 237 238 240 240 238 234 231 230 230 229 229 227 224 219 216 210 203 199 191 180 173 169 166 164 162 160 159 158 158 158 158 158
227 240 242 245 247 248 245 240 237 217 181 177 217 234 238 241 242 242 240 238 237 235 234 234 234 234 233 230 227 221 213 205 197 190 186 182 178 175 173 171 169 168 166 166 165
235 241 243 244 246 245 242 237 235 195 195 184 208 235 238 243 245 245 243 242 241 239 238 238 237 236 236 234 233 231 227 221 215 209 203 198 194 190 187 184 182 180 178 177 176
240 242 243 243 243 242 240 236 233 186 155 159 214 234 238 243 246 246 246 245 243 242 242 241 241 240 240 239 239 237 234 232 229 227 222 218 213 208 203 198 194 190 187 186 185
239 241 241 240 240 240 224 207 232 207 154 182 184 220 238 243 245 247 246 245 243 242 242 241 241 241 241 241 241 240 239 238 236 234 233 230 228 223 218 213 206 200 195 191 190
235 238 238 237 238 236 180 184 230 216 213 213 151 213 237 241 245 247 247 245 242 240 240 239 240 240 240 241 241 242 242 241 240 239 238 235 233 229 224 218 213 207 202 198 196
233 234 234 234 234 232 173 189 230 224 229 223 177 217 235 239 244 246 247 246 244 242 240 238 238 238 238 239 240 241 241 242 242 241 240 238 235 230 225 219 214 209 206 202 200
225 228 228 228 229 222 184 172 222 228 228 216 162 206 222 236 242 246 247 247 246 244 242 239 237 237 236 237 238 239 240 241 242 242 242 241 240 236 232 227 221 216 211 208 206
205 209 214 217 222 191 189 192 195 227 225 192 166 201 199 230 239 244 247 248 247 246 244 241 239 236 234 233 234 235 237 239 240 241 241 241 241 239 236 232 228 223 218 213 211
190 191 194 205 215 174 157 162 184 226 222 180 175 185 192 218 236 242 246 248 248 247 245 243 242 239 237 235 234 234 232 234 236 237 239 240 240 240 238 236 234 231 229 225 221
184 185 187 193 199 179 142 144 188 223 219 188 163 178 202 207 236 242 246 249 249 249 247 246 244 243 242 240 239 237 234 234 234 236 237 239 240 240 239 239 238 236 235 234 233
179 179 179 178 180 171 142 148 189 217 216 192 162 171 206 210 234 240 245 249 250 249 248 247 246 245 244 243 241 240 238 236 236 236 237 239 240 240 239 239 238 237 237 236 236
175 175 174 172 171 170 145 149 188 210 216 188 147 149 189 217 229 241 245 248 249 249 249 248 247 246 245 244 242 241 239 237 236 236 237 238 239 239 239 239 238 237 236 233 231
174 174 172 169 168 168 158 165 181 187 203 185 160 146 179 221 227 241 245 248 249 249 249 248 248 247 246 245 244 241 239 239 238 237 237 237 236 235 235 234 233 232 232 232 230
175 173 170 167 164 160 161 165 169 170 179 176 143 135 175 226 233 239 244 247 248 248 248 248 248 248 248 247 246 244 242 240 238 237 237 236 235 234 233 232 230 230 230 230 229
172 172 169 165 162 159 157 159 165 166 176 183 127 149 192 220 228 235 240 243 245 247 248 248 248 248 248 248 247 246 244 243 242 240 238 237 235 233 232 230 229 228 224 221 220
169 169 166 163 160 157 154 157 162 162 163 164 139 158 183 208 218 229 235 239 242 244 246 247 248 249 249 249 248 248 247 245 244 242 239 236 232 227 224 220 218 215 212 209 208
167 167 165 162 159 157 150 151 159 160 160 163 148 150 163 191 208 220 227 233 238 241 244 246 248 249 250 250 250 249 249 248 246 245 242 239 236 231 226 219 213 209 208 207 208
166 165 163 161 158 156 148 148 157 158 158 161 151 146 161 180 189 200 210 220 229 236 241 244 247 249 250 251 251 251 250 249 248 247 245 243 241 239 237 232 226 222 222 216 213
164 164 162 160 158 155 149 151 157 158 158 161 156 148 163 174 180 189 197 204 214 228 236 241 245 248 250 251 251 251 251 250 250 248 247 245 243 241 239 236 236 233 231 227 226
164 164 163 161 159 157 153 152 158 160 160 160 160 161 166 172 177 184 190 198 208 221 231 237 243 246 248 249 250 250 250 249 249 247 246 245 243 241 239 238 236 234 232 232 232
166 166 166 166 166 165 163 163 165 166 165 165 165 167 169 173 177 181 187 196 206 217 226 234 239 243 245 246 247 247 247 246 246 245 243 242 240 239 238 237 236 235 234 235 234
168 169 170 171 171 171 170 172 173 173 173 172 171 172 174 177 179 182 186 192 201 209 221 229 235 239 241 242 243 243 243 242 241 239 238 236 234 232 231 231 232 232 232 232 232
169 170 171 173 176 176 178 181 181 181 180 178 178 179 180 181 183 185 187 191 196 203 213 222 229 233 236 237 238 238 237 235 233 231 227 224 223 220 218 217 218 220 221 222 222
170 174 182 186 194 197 200 198 198 198 196 194 192 191 191 190 190 191 192 194 198 202 207 214 222 227 228 228 229 229 227 227 224 221 217 214 213 214 213 213 214 212 212 212 213
172 181 193 197 199 201 201 202 202 203 202 200 200 199 198 198 199 200 200 200 203 207 211 213 216 217 217 216 217 217 217 216 214 212 210 208 207 208 208 211 215 215 215 217 218
172 174 180 184 187 193 196 199 198 197 197 198 197 196 195 195 197 199 200 201 202 205 207 210 211 212 213 214 213 213 213 212 211 208 206 204 204 204 205 209 212 213 216 218 219
172 173 176 179 182 184 188 192 196 195 195 194 194 194 193 194 196 197 199 200 201 202 203 204 205 205 205 205 206 207 207 208 207 205 204 203 203 204 206 208 210 212 214 216 217
172 173 175 178 181 183 185 187 189 189 189 189 190 190 191 192 193 195 196 197 199 199 200 200 200 199 199 199 200 201 203 203 203 202 202 202 203 204 206 208 211 213 215 217 219
171 172 173 174 175 177 178 180 182 183 184 185 185 187 188 189 190 192 193 194 195 196 196 196 196 196 196 197 198 199 200 201 202 202 202 202 202 203 205 207 210 212 215 217 217
170 170 170 170 171 172 173 175 177 178 180 181 182 183 184 186 187 189 190 191 192 193 193 194 194 194 195 195 196 197 199 200 200 201 201 201 201 202 204 206 208 211 213 215 216
170 170 170 170 169 170 170 172 173 175 176 178 179 181 182 184 185 187 187 188 189 189 190 190 191 192 193 194 195 196 197 198 198 198 199 199 200 200 202 204 206 208 210 212 212
170 170 170 169 168 168 168 169 170 172 174 175 177 179 180 182 184 185 186 186 187 187 188 189 190 191 192 193 194 194 195 196 196 197 197 197 198 198 200 201 203 205 207 208 208
170 169 169 168 167 167 167 167 168 170 172 173 175 177 179 181 183 184 185 186 186 187 187 188 189 190 191 191 192 193 193 194 195 195 195 195 196 196 197 198 200 201 203 204 204
169 168 168 168 167 167 166 167 167 169 170 172 173 175 177 179 181 182 184 184 185 185 186 187 188 188 189 189 190 191 192 193 193 194 194 194 194 195 195 196 197 198 199 200 200
168 168 168 168 167 167 167 167 167 168 169 170 172 174 175 177 179 180 182 182 183 184 184 185 186 186 187 188 189 190 191 192 192 192 193 193 193 193 193 194 194 195 196 196 196
166 166 167 167 167 166 166 166 167 167 168 170 171 172 174 175 177 178 180 181 182 183 184 184 185 185 186 186 187 187 189 190 190 191 191 191 192 192 192 192 192 193 193 193 193
165 165 165 166 166 166 166 166 166 167 168 168 170 171 172 173 174 176 177 178 180 181 182 182 183 184 184 185 186 187 188 189 190 190 190 191 191 191 191 191 191 191 191 191 191
165 165 165 165 165 166 166 166 166 167 167 168 169 169 170 171 172 173 174 175 176 177 178 179 180 181 182 183 184 186 187 188 188 189 189 189 190 190 190 190 190 190 190 190 190
165 165 165 165 165 165 165 166 166 166 167 168 169 169 170 170 171 171 172 172 173 174 176 177 178 179 180 181 182 183 184 185 186 186 187 188 188 189 190 190 190 190 189 189 189
165 165 165 164 164 165 165 165 165 166 167 168 169 170 170 170 170 170 170 170 171 172 173 174 175 176 177 178 180 181 182 183 184 185 185 187 188 188 189 189 190 189 189 189 188
165 165 165 164 164 164 165 165 165 166 166 167 168 169 170 170 170 169 169 169 169 170 170 172 173 174 175 176 178 179 180 182 183 183 184 186 187 188 189 190 190 189 189 188 188
