P2
# Criado manualmente em Python
45 45
255
248 248 248 248 248 248 248 248 248 248 248 248 247 246 244 241 237 233 230 227 224 222 219 219 222 226 228 231 234 238 242 244 246 247 248 248 248 248 248 248 248 248 248 248 248
248 248 248 248 248 248 248 248 248 248 248 247 246 244 241 238 234 229 218 210 204 209 212 212 212 220 217 221 230 235 239 243 245 247 248 248 248 248 248 248 248 248 248 248 248
248 248 248 248 248 248 248 248 248 247 246 245 243 240 236 233 226 207 195 195 192 197 204 203 203 206 208 212 217 229 235 239 243 245 247 248 248 248 248 248 248 248 248 248 248
248 248 248 248 248 248 248 248 247 246 244 242 239 235 231 220 203 191 188 185 185 185 191 194 199 199 204 208 209 216 229 235 239 243 246 247 248 248 248 248 248 248 248 248 248
248 248 248 248 248 248 248 247 245 243 240 237 233 226 213 200 193 187 177 173 172 175 174 184 195 198 201 203 205 207 215 229 235 240 244 246 247 248 248 248 248 248 248 248 248
248 248 248 248 248 248 247 245 243 239 235 229 219 207 198 192 184 175 167 163 163 161 165 180 191 196 199 201 203 204 206 214 230 236 241 244 246 248 248 248 248 248 248 248 248
248 248 248 248 248 247 246 243 239 235 226 211 203 198 191 184 175 167 161 154 150 147 173 186 190 196 199 200 201 203 205 206 216 232 237 242 245 247 248 248 248 248 248 248 248
248 248 248 248 247 246 244 240 235 228 209 200 196 189 182 176 170 161 149 171 159 156 184 191 193 197 200 201 201 201 203 205 206 222 234 239 243 246 247 248 248 248 248 248 248
248 248 248 248 247 245 241 236 231 215 201 195 188 181 176 170 160 156 182 200 172 170 184 193 196 200 202 202 201 201 202 203 206 210 229 236 241 244 247 248 248 248 248 248 248
248 248 248 247 245 242 238 232 219 205 198 190 184 178 171 160 166 189 197 196 178 180 190 196 199 201 203 203 202 201 202 202 205 207 219 233 237 242 245 247 248 248 248 248 248
248 248 247 246 243 239 234 223 209 202 195 188 182 175 165 164 193 180 182 186 185 188 195 198 201 203 204 204 203 202 201 202 204 207 211 225 234 239 244 246 247 248 248 248 248
248 247 246 244 240 235 227 213 206 200 195 190 186 183 177 186 188 179 186 187 188 190 196 199 202 204 205 204 203 202 201 202 203 206 209 213 229 236 241 245 247 248 248 248 248
248 247 245 242 237 231 217 209 204 199 195 192 190 188 184 186 186 182 182 185 188 190 195 199 202 204 204 204 203 202 201 201 202 203 207 210 218 233 238 243 246 247 248 248 248
247 246 243 239 234 222 212 206 201 198 195 194 193 192 192 191 191 189 186 183 185 188 191 196 200 202 203 203 202 202 201 201 201 202 205 209 211 226 235 240 244 246 248 248 248
246 244 241 236 227 215 208 203 199 196 195 194 194 194 194 193 192 190 189 185 181 183 187 192 196 199 201 201 201 200 200 200 200 201 203 206 209 216 231 237 242 245 247 248 248
244 242 237 231 219 211 205 201 197 195 193 193 192 192 192 191 190 187 185 182 177 174 181 186 190 194 196 198 198 198 199 199 199 200 201 204 207 210 223 235 240 244 246 248 248
241 238 233 223 212 207 202 198 195 192 191 190 189 188 188 186 184 182 179 174 167 160 164 177 184 189 192 193 195 196 197 197 198 199 199 201 204 207 213 231 237 242 246 247 248
236 233 226 213 207 203 199 196 193 190 188 186 184 183 181 179 176 174 169 162 153 148 145 155 174 184 189 190 192 194 195 196 197 198 198 199 201 205 206 222 235 240 244 247 248
230 227 216 207 202 199 196 193 190 187 184 181 178 176 173 170 167 163 156 148 141 135 134 132 148 173 185 189 189 192 194 194 195 196 197 197 199 202 203 213 233 238 243 246 248
223 216 209 203 198 195 193 190 188 184 181 176 173 169 166 162 158 152 146 139 134 126 117 114 118 175 181 185 191 190 193 194 194 195 196 195 196 199 201 205 228 237 242 245 248
213 208 204 198 194 192 189 187 184 180 176 171 167 163 159 156 151 147 142 134 124 114 110 104 136 217 212 192 189 191 191 193 193 194 194 194 194 196 198 199 222 235 240 245 247
207 204 200 195 191 188 186 183 179 176 171 166 162 158 154 151 148 145 139 130 124 120 114 110 197 226 226 226 209 192 191 193 193 193 193 192 192 194 197 197 214 234 239 244 247
203 200 196 192 187 184 180 177 173 169 165 161 156 153 150 147 144 140 136 132 129 126 106 147 227 229 232 231 229 213 192 192 194 193 192 191 191 193 196 197 208 231 238 243 246
199 197 193 188 183 178 173 169 165 161 158 154 150 147 145 142 139 136 133 133 136 127 117 205 232 235 238 238 234 230 214 192 192 193 191 191 191 192 196 199 204 228 236 242 245
196 194 190 184 178 171 165 160 156 153 150 147 144 142 138 135 133 131 130 132 137 118 167 229 234 240 242 242 239 234 229 210 191 192 191 191 191 193 196 200 202 224 235 241 244
193 190 185 179 171 163 157 152 148 145 142 139 137 134 131 131 131 132 131 132 129 119 207 233 238 243 245 245 243 238 232 224 197 191 192 192 192 194 197 201 202 219 234 240 243
188 185 179 171 163 155 149 144 141 137 134 132 130 129 130 130 129 127 126 128 122 149 228 235 241 244 247 247 245 241 235 230 206 192 194 195 194 195 198 201 202 213 233 238 241
182 178 171 162 152 145 141 137 134 132 131 131 131 129 125 124 126 125 130 136 138 201 235 238 243 246 247 248 246 243 238 233 214 194 196 197 196 196 198 201 203 208 230 236 240
174 168 160 151 143 138 136 133 131 130 127 124 123 123 121 122 131 151 176 186 203 232 237 242 245 247 248 248 247 244 240 234 221 195 197 198 197 197 199 201 202 203 225 235 238
163 158 150 142 135 132 130 126 124 123 123 121 118 116 126 162 205 224 230 234 237 238 242 244 246 247 248 248 248 245 241 235 226 197 197 199 198 197 198 200 201 199 218 233 235
152 148 142 135 130 125 121 120 117 119 121 128 146 178 211 229 233 233 236 238 240 242 244 246 247 248 248 248 248 246 242 236 230 201 195 198 198 197 197 198 198 196 209 231 232
145 142 136 130 124 122 122 126 158 189 204 216 230 233 235 235 238 240 242 243 244 245 246 247 248 248 248 248 248 246 243 237 232 205 192 197 197 196 196 196 196 194 200 227 230
139 137 133 126 125 125 122 189 224 230 234 235 236 237 240 241 243 244 245 246 247 247 248 248 248 248 248 248 248 247 244 238 234 211 190 195 196 195 194 194 194 192 193 220 228
134 133 130 126 130 125 180 227 229 235 238 240 242 243 244 245 246 247 248 248 248 248 248 248 248 248 248 248 248 247 244 240 235 218 188 192 194 193 192 192 191 190 187 210 226
130 129 125 126 126 171 226 231 237 241 243 245 245 246 247 247 248 248 248 248 248 248 248 248 248 248 248 248 248 248 245 241 235 224 189 189 193 192 190 189 189 188 185 199 222
127 123 122 123 151 223 231 237 242 245 246 247 248 248 248 248 248 248 248 248 248 248 248 248 248 248 248 248 248 248 246 242 236 229 194 185 191 191 188 188 188 186 185 190 214
123 119 120 129 206 232 236 242 245 247 248 248 248 248 248 248 248 248 248 248 248 248 248 248 248 248 248 248 248 248 246 243 237 232 203 182 189 189 187 186 186 185 184 183 204
121 119 119 183 230 234 241 244 246 247 248 248 248 248 248 248 248 248 248 248 248 248 248 248 248 248 248 248 248 248 247 244 238 234 212 182 188 188 186 185 185 184 183 179 191
120 114 153 226 232 239 243 246 247 248 248 248 248 248 248 248 248 248 248 248 248 248 248 248 248 248 248 248 248 248 247 244 240 235 220 183 185 187 186 184 184 183 181 177 181
119 130 213 232 237 242 245 247 248 248 248 248 248 248 248 248 248 248 248 248 248 248 248 248 248 248 248 248 248 248 248 245 241 235 226 187 182 186 185 184 183 182 179 176 174
121 188 232 235 241 245 247 248 248 248 248 248 248 248 248 248 248 248 248 248 248 248 248 248 248 248 248 248 248 248 248 246 242 236 230 193 179 184 184 183 182 181 178 175 172
164 232 235 240 244 246 247 248 248 248 248 248 248 248 248 248 248 248 248 248 248 248 248 248 248 248 248 248 248 248 248 246 243 237 232 201 177 183 183 182 181 180 178 174 172
227 239 240 243 245 247 248 248 248 248 248 248 248 248 248 248 248 248 248 248 248 248 248 248 248 248 248 248 248 248 248 247 244 238 233 209 175 181 182 181 181 180 178 174 172
241 241 243 245 247 248 248 248 248 248 248 248 248 248 248 248 248 248 248 248 248 248 248 248 248 248 248 248 248 248 248 247 244 239 233 216 174 179 181 181 180 180 178 175 172
242 243 245 246 247 248 248 248 248 248 248 248 248 248 248 248 248 248 248 248 248 248 248 248 248 248 248 248 248 248 248 247 244 240 233 221 176 176 180 180 180 180 178 175 173
