P2
# Criado manualmente em Python
45 45
255
207 208 210 213 216 220 223 226 228 230 232 233 235 236 237 238 238 238 237 236 234 231 229 225 224 224 222 219 214 210 214 217 219 222 222 224 223 224 225 224 224 222 223 221 220
205 206 208 211 214 216 219 223 225 227 229 231 232 234 235 235 235 235 234 232 230 229 227 226 215 196 180 166 151 154 167 179 194 213 221 220 224 208 199 178 180 183 177 191 211
202 204 206 208 211 214 216 218 221 223 224 226 227 228 229 230 230 229 227 227 225 214 198 179 168 139 129 131 136 143 140 138 146 151 178 200 175 136 121 120 123 126 126 130 139
200 202 204 206 209 211 213 215 217 219 220 220 221 220 220 219 219 220 219 204 159 132 122 114 115 122 121 123 123 129 127 128 126 120 119 121 111 110 112 116 119 120 129 126 126
198 200 202 204 206 208 210 212 214 215 216 216 215 213 211 211 203 183 171 131 109 107 108 111 110 115 120 120 123 121 119 123 126 120 116 114 114 115 119 115 128 127 129 121 123
197 198 200 203 205 207 208 210 211 212 211 210 208 205 202 174 128 114 107 103 103 99 100 102 104 106 108 116 119 117 117 117 118 121 120 119 120 126 118 125 130 137 140 131 127
197 198 200 202 204 206 207 208 208 208 207 205 203 192 162 114 105 107 105 102 98 99 101 103 104 107 113 118 123 119 121 123 124 121 120 123 129 146 142 150 140 133 149 150 143
197 198 199 201 202 203 203 204 203 202 201 198 190 136 110 108 103 101 100 99 99 99 100 101 104 107 111 117 122 120 123 129 136 137 144 149 138 144 151 158 147 156 170 161 175
196 197 198 199 200 200 198 197 198 198 194 194 169 112 107 100 97 98 97 96 98 99 100 101 103 105 108 113 118 121 127 133 134 137 147 152 150 143 144 159 148 163 170 189 191
195 196 197 198 198 197 196 193 177 157 140 137 120 104 100 98 97 95 96 98 100 102 105 106 106 110 116 115 120 128 135 138 149 160 158 152 144 146 147 141 139 163 185 193 199
194 194 195 195 193 192 183 153 121 107 105 100 95 95 94 93 95 97 99 103 106 109 113 116 111 118 119 121 129 142 148 158 160 172 175 168 165 158 152 153 153 170 175 190 202
191 192 192 191 190 178 133 112 111 100 97 94 96 94 94 95 97 99 103 109 111 112 112 112 113 126 127 127 135 143 147 151 154 163 171 168 161 159 158 146 155 165 179 170 164
188 190 189 187 187 177 133 128 111 123 112 107 106 93 93 96 99 103 108 114 116 119 123 121 114 143 137 125 144 158 165 183 181 188 193 191 178 178 166 140 150 147 143 119 119
185 186 186 184 182 183 157 145 143 143 110 103 98 95 95 98 102 107 112 116 119 120 122 128 119 136 141 126 166 169 190 196 193 199 207 206 203 200 164 135 138 123 121 115 116
180 182 181 182 178 177 147 122 119 106 96 94 95 97 97 101 105 109 115 121 125 131 124 120 117 118 120 144 171 172 194 202 203 205 208 207 201 201 159 125 125 114 112 114 118
174 176 173 174 174 174 139 121 109 100 98 96 97 98 100 104 108 113 119 125 127 129 126 131 143 123 112 146 169 168 173 172 182 194 203 200 197 155 122 113 109 108 108 107 105
167 168 167 163 164 166 137 108 102 99 98 100 101 104 106 109 114 118 123 125 129 130 130 124 129 120 114 120 140 148 145 152 163 167 167 167 172 139 114 117 119 110 104 102 101
157 158 160 156 151 128 111 105 101 100 100 101 104 108 112 116 121 122 124 125 130 134 132 129 121 120 114 119 116 121 128 135 146 155 155 152 138 136 115 109 106 102 101 101 100
149 151 145 145 132 113 103 102 100 101 104 105 109 113 115 118 120 122 122 123 125 128 127 126 129 118 112 114 114 116 119 122 127 134 136 125 118 115 108 108 109 103 102 101 101
137 131 127 115 107 104 102 100 102 106 109 110 111 115 118 119 124 125 124 126 123 123 124 122 119 111 111 112 113 113 115 117 120 124 127 125 123 121 112 111 113 108 107 105 104
138 121 120 120 108 102 101 102 105 110 117 120 122 123 123 126 128 128 127 125 122 119 117 115 115 110 109 110 111 112 113 115 117 121 123 124 124 121 113 116 116 113 112 109 107
132 128 124 110 104 101 102 109 112 120 125 135 138 129 126 129 129 128 126 127 126 120 117 114 113 111 110 111 112 113 115 117 118 122 125 126 127 127 116 126 130 120 125 122 113
136 137 126 112 107 108 111 114 117 125 126 127 141 133 126 130 132 128 127 130 126 119 118 113 112 110 111 113 114 116 119 121 123 127 128 129 133 135 124 135 148 134 137 130 122
128 129 129 128 117 112 121 119 131 135 130 128 132 133 132 133 131 130 126 131 131 122 125 117 114 112 114 117 118 119 122 125 128 131 132 136 137 142 129 144 158 143 143 138 128
129 127 124 122 112 109 127 125 138 148 137 127 127 134 134 135 140 138 139 146 148 127 127 124 116 115 119 124 121 124 127 133 137 138 146 149 149 155 133 150 173 170 169 155 141
124 123 121 121 123 117 129 142 142 146 130 122 127 126 133 139 136 138 145 150 150 133 139 131 127 116 122 132 127 130 129 133 138 146 155 156 160 160 131 153 172 171 175 156 146
119 119 116 114 118 124 131 135 132 136 130 132 138 141 144 151 153 150 149 148 151 139 142 142 138 126 125 140 132 132 131 126 128 138 157 155 160 160 130 150 157 154 146 122 110
123 115 114 116 114 109 122 130 123 122 125 125 127 132 135 139 150 154 155 158 163 147 148 172 154 131 131 146 130 130 131 134 129 142 154 152 152 152 123 143 141 121 106 94 93
127 125 114 118 117 113 115 122 122 120 115 114 121 120 122 129 132 137 140 146 152 145 145 178 170 134 132 142 122 122 124 131 138 151 151 148 145 135 116 122 107 97 93 89 87
128 132 131 126 122 127 122 116 124 125 119 117 124 127 116 115 128 124 127 131 136 140 142 171 172 153 130 136 115 115 116 119 119 113 118 120 118 112 102 93 88 84 83 86 86
154 152 149 145 127 130 132 124 120 119 122 127 120 120 123 109 115 111 115 120 127 133 137 159 157 141 131 148 117 107 105 111 107 101 101 94 92 94 89 83 83 82 81 80 80
161 166 162 170 163 128 114 127 124 115 118 114 109 94 93 94 95 100 104 110 121 127 133 160 163 147 129 153 120 105 106 106 102 101 100 94 89 84 80 79 79 78 76 76 74
162 157 161 161 171 159 128 120 129 124 118 106 86 80 79 85 89 98 102 104 117 122 129 157 148 134 129 152 109 102 100 92 89 84 86 86 80 76 75 74 74 74 73 73 72
157 150 148 156 157 167 173 155 148 135 131 130 96 97 89 80 86 96 105 111 124 128 128 159 146 139 130 153 116 103 94 82 75 73 83 78 73 71 70 70 70 70 70 69 68
144 143 142 149 155 164 172 179 169 153 145 139 127 93 86 79 80 90 102 107 119 128 131 161 167 157 130 155 153 134 126 116 107 90 79 71 67 65 65 65 66 66 66 64 63
110 119 128 134 156 167 171 173 171 172 163 160 139 105 101 103 106 113 122 132 143 149 134 159 173 157 131 147 176 175 176 173 137 84 72 69 66 64 63 63 66 65 63 63 62
113 106 121 122 143 150 171 178 177 171 181 175 166 167 172 176 179 179 182 182 181 170 152 161 172 170 165 165 174 180 187 157 99 84 74 69 66 64 63 63 65 64 60 60 59
96 95 118 131 139 148 160 170 171 180 184 170 179 188 190 193 195 197 196 195 192 190 188 183 178 177 175 170 165 160 154 115 90 86 77 69 67 65 64 63 60 61 61 58 57
83 96 110 124 145 149 155 165 163 170 176 164 157 175 190 190 190 188 187 183 179 173 169 165 160 155 152 148 142 136 127 115 100 92 82 75 71 67 67 65 63 62 62 61 61
81 86 90 98 129 147 143 149 153 158 163 168 168 168 181 180 184 183 184 183 176 169 166 162 157 154 151 149 146 143 138 132 126 119 112 107 101 99 97 96 95 95 93 93 93
77 84 97 96 116 134 135 138 147 161 167 175 178 179 181 180 184 188 185 186 185 182 178 177 174 171 166 160 155 153 150 146 142 138 135 132 128 125 124 122 120 119 118 116 115
76 86 101 125 127 124 126 132 142 137 136 144 162 168 163 164 173 171 171 174 171 171 169 171 173 171 172 167 163 164 162 156 153 150 149 147 146 144 142 141 140 139 137 136 135
112 108 108 106 103 104 105 107 113 118 113 116 137 145 154 148 150 154 163 165 161 162 160 166 164 159 165 164 166 169 171 169 168 168 162 160 156 157 156 154 152 150 150 149 147
114 96 86 86 82 86 88 83 85 94 92 96 109 112 120 130 139 142 156 155 150 150 154 156 151 155 161 164 167 169 172 174 174 175 176 174 170 171 170 169 168 166 165 165 164
87 84 86 88 85 85 90 93 95 96 102 103 108 115 113 107 122 135 149 143 146 153 151 153 151 147 149 152 160 165 172 176 175 176 179 184 185 186 186 184 182 180 177 174 173
