P2
# Criado manualmente em Python
45 45
255
99 100 94 92 95 94 88 112 154 115 141 180 200 202 194 167 161 111 76 81 86 84 122 189 192 196 202 196 155 198 170 143 117 115 159 194 202 203 203 159 136 170 183 193 196
132 141 149 130 95 92 90 86 111 155 148 183 156 138 145 154 111 66 64 65 66 69 86 150 209 211 210 173 174 211 199 203 184 154 195 207 210 210 214 191 132 174 191 197 198
181 191 190 192 112 93 120 109 71 63 104 97 51 55 57 64 58 64 63 63 64 67 70 72 116 176 162 136 168 197 206 205 216 210 198 205 207 208 212 172 132 185 185 191 196
190 198 199 197 112 141 178 176 157 63 85 56 56 59 58 56 59 60 59 59 59 61 66 71 73 83 115 138 149 188 206 214 219 218 207 207 211 207 211 136 146 191 183 191 198
189 195 202 160 122 180 174 193 149 83 91 49 52 54 50 79 112 57 57 57 55 56 60 64 69 71 82 97 136 189 205 217 218 219 215 211 212 211 174 78 162 189 188 192 200
174 187 176 103 161 177 194 169 59 78 65 47 50 50 57 134 104 52 56 55 54 55 57 61 64 68 71 76 90 155 204 208 215 218 215 210 215 177 72 52 166 189 191 196 201
182 191 185 146 172 189 142 45 48 55 52 47 49 45 95 144 60 56 58 55 54 54 56 59 62 65 68 72 75 86 173 208 209 214 216 213 220 110 53 55 152 190 189 199 204
179 190 193 177 193 134 35 49 66 51 51 49 47 62 151 104 52 59 58 55 54 55 57 58 61 64 68 71 76 78 105 184 206 214 204 174 170 161 123 151 187 195 194 200 206
178 189 187 114 96 35 52 90 51 46 47 52 46 106 176 81 59 60 58 61 57 57 58 60 62 65 69 73 73 77 78 99 166 141 135 151 175 199 205 198 201 206 205 203 205
176 192 145 49 38 36 142 90 44 52 52 51 69 155 177 81 66 63 61 64 65 58 59 61 63 66 74 76 80 90 80 76 67 57 103 147 186 196 203 207 208 211 209 207 205
191 200 182 158 65 83 181 93 51 55 54 66 127 178 200 104 62 66 64 62 66 63 60 63 66 65 100 148 143 149 92 106 73 52 72 146 183 197 207 210 210 207 206 213 204
198 204 203 187 87 136 173 135 61 80 122 138 156 173 194 172 89 65 66 71 73 65 61 64 67 67 106 183 178 159 88 91 77 58 57 142 184 197 211 212 208 207 201 191 193
198 205 198 124 46 158 164 170 109 145 169 173 180 185 197 197 173 78 65 90 108 64 63 65 67 68 105 141 122 110 76 69 74 66 53 132 181 197 214 212 207 195 179 187 196
181 195 158 54 52 167 167 176 171 167 173 186 195 201 202 202 201 107 62 108 165 75 62 66 68 69 81 87 82 79 69 105 127 69 52 128 177 195 214 211 204 184 197 195 193
151 154 163 137 72 162 158 171 172 171 183 193 202 205 207 211 202 107 67 102 179 101 60 68 68 70 73 77 77 75 61 136 139 59 45 115 167 189 209 217 198 204 194 188 196
145 161 158 112 49 151 157 163 162 171 187 195 204 207 207 206 207 117 67 85 133 102 64 63 66 67 74 75 75 69 89 141 82 41 43 89 138 168 193 199 205 204 174 188 196
79 90 71 34 47 116 130 104 121 175 184 195 205 209 210 208 210 121 64 73 77 81 78 101 139 108 68 75 74 75 133 107 61 50 35 55 63 141 171 187 216 216 210 195 192
58 36 37 62 45 45 69 41 101 180 184 196 205 210 212 209 208 108 60 68 69 76 82 95 156 169 76 77 76 91 113 76 84 110 31 34 64 192 209 212 218 219 220 214 184
128 98 77 50 29 50 42 35 118 184 182 195 205 210 212 211 207 94 58 68 69 77 82 76 137 191 107 71 80 79 72 75 62 97 45 35 89 194 207 215 218 221 221 213 168
113 92 55 29 32 33 32 31 134 189 185 195 205 211 212 211 204 87 58 66 68 69 89 135 155 190 151 83 112 116 132 87 87 164 156 80 82 184 197 209 214 219 224 197 116
78 61 33 28 26 27 28 33 151 188 190 198 207 211 212 212 201 71 42 58 64 84 151 181 172 180 190 124 125 141 174 177 167 185 195 171 89 164 185 195 203 212 218 173 104
64 42 29 25 24 25 24 47 170 188 192 202 209 212 212 215 190 65 102 144 144 131 133 163 176 174 199 165 138 149 175 184 181 182 201 209 109 106 164 165 165 162 167 139 85
43 34 28 24 23 25 25 55 177 189 196 204 210 212 211 219 153 108 185 183 181 175 113 101 169 184 199 196 164 163 155 124 159 185 190 216 142 56 110 100 83 73 77 62 56
32 30 25 22 23 26 25 61 178 189 198 206 210 212 211 213 115 158 182 175 184 170 162 142 179 190 201 201 182 178 138 145 178 194 194 200 149 36 60 52 44 52 52 57 61
28 27 24 23 24 28 26 71 183 190 199 207 210 211 213 189 110 182 180 176 177 175 160 174 181 190 191 186 181 167 146 171 185 198 202 206 128 31 35 37 44 48 53 54 57
25 25 24 24 25 30 27 83 188 191 200 207 210 208 212 146 130 187 174 177 176 177 183 184 187 192 164 159 176 183 186 191 195 198 206 210 133 29 29 42 43 47 54 55 88
24 24 24 26 27 29 29 100 188 190 201 207 207 206 198 105 139 172 167 171 174 179 183 188 190 197 194 168 178 187 193 201 207 205 203 209 143 28 37 40 42 47 53 75 163
23 25 25 27 30 40 46 120 188 192 200 205 204 200 171 82 136 160 162 165 170 176 182 185 190 198 200 173 173 181 189 200 207 203 198 202 138 28 39 39 44 49 52 113 181
23 25 26 34 49 64 55 137 187 193 200 202 200 192 152 72 130 155 158 159 164 171 176 181 187 189 190 172 166 175 183 190 196 195 193 196 127 28 38 42 45 50 61 127 111
22 24 31 41 68 67 55 156 187 193 200 200 196 184 142 59 116 136 140 150 155 161 167 174 179 179 178 166 163 170 176 184 189 190 186 192 111 28 39 42 46 49 68 108 67
23 25 29 41 73 96 74 163 187 194 199 199 193 180 137 45 96 123 115 130 139 148 156 164 170 171 169 162 161 164 170 177 182 184 181 186 88 28 39 41 43 46 60 75 55
23 25 26 34 60 88 93 169 188 195 200 198 190 179 133 38 68 116 113 120 127 139 146 153 161 164 159 153 157 160 165 173 177 178 177 180 73 28 39 39 40 42 48 52 47
22 23 26 33 52 46 84 177 189 197 200 197 189 181 119 33 43 87 112 117 121 134 139 143 152 156 150 142 149 155 161 169 173 175 177 180 62 26 37 36 36 38 41 43 41
37 35 27 29 40 50 107 179 189 198 200 197 191 183 101 29 32 63 96 109 116 125 135 136 141 148 143 135 142 149 156 166 172 175 177 179 61 25 28 34 32 34 35 35 35
57 67 48 32 31 37 120 181 189 199 201 199 194 183 76 25 27 47 86 102 112 117 129 132 133 142 140 130 138 148 155 164 170 174 177 175 56 35 32 24 27 29 30 30 31
89 80 66 54 50 52 143 180 191 199 201 198 197 173 45 22 23 39 74 96 108 110 122 129 127 134 130 121 132 144 155 164 170 174 178 169 46 30 50 23 23 27 28 28 29
149 142 115 97 85 88 159 176 191 199 201 198 202 141 24 20 21 31 60 84 102 107 120 125 123 129 121 111 122 137 150 161 168 171 177 151 33 23 24 22 26 30 30 28 29
184 183 163 139 97 104 164 176 192 200 201 200 204 101 22 19 20 26 48 75 96 103 116 123 120 125 110 97 101 113 135 154 162 167 177 104 32 27 22 21 30 35 32 31 32
193 196 183 165 119 126 170 180 193 201 201 202 198 61 20 19 20 24 37 63 88 95 107 122 117 117 100 76 81 96 122 146 156 174 137 59 79 75 46 29 26 33 36 37 38
205 212 195 162 99 123 164 179 194 203 203 211 173 36 25 21 20 22 29 51 81 89 89 106 104 101 80 57 61 74 102 142 151 133 71 66 117 159 127 83 62 42 37 42 44
203 207 193 161 132 150 173 185 196 202 202 206 100 36 26 21 20 22 27 36 70 87 73 77 79 79 54 39 43 47 53 68 143 164 136 88 107 175 208 191 182 164 91 53 46
202 205 204 208 212 211 210 210 210 210 209 202 163 146 122 87 47 26 25 26 39 56 51 61 65 49 33 30 31 32 29 30 84 108 77 70 86 122 160 179 188 203 131 72 58
174 207 213 214 214 214 214 215 216 216 215 215 217 216 216 211 194 164 118 59 30 30 34 47 47 37 35 31 27 26 27 28 30 37 55 60 65 64 67 72 78 91 84 79 81
149 207 215 217 219 219 220 220 220 219 219 219 218 217 215 213 215 216 214 204 114 40 44 46 50 48 46 43 42 41 40 57 83 65 61 59 58 61 60 61 64 64 81 148 162
173 204 214 218 221 223 223 222 222 221 220 219 215 212 210 212 213 211 203 201 187 153 112 66 52 51 47 46 46 48 59 100 142 102 52 58 59 86 65 62 70 74 117 178 188
