P2
# Criado manualmente em Python
45 45
255
187 187 187 188 188 189 189 190 191 191 191 190 190 190 189 188 188 186 185 183 182 180 179 178 177 176 175 174 173 173 173 173 173 173 173 174 175 176 177 178 179 180 180 181 182
187 187 187 188 188 189 189 190 190 190 190 190 189 189 188 187 187 185 184 183 181 180 179 177 176 175 174 173 173 172 172 172 172 171 172 172 173 174 176 176 178 179 180 181 182
187 187 187 188 188 188 189 189 189 189 189 188 188 187 186 186 185 184 183 182 180 179 178 177 176 175 174 173 172 172 171 171 170 170 170 170 171 172 173 174 176 177 179 180 180
187 187 187 187 187 187 187 188 188 187 187 187 186 185 184 183 183 182 181 180 180 179 178 177 175 174 173 172 171 171 170 170 169 168 168 167 163 168 171 172 174 176 177 178 179
186 186 186 186 186 186 186 186 186 185 185 184 183 183 182 181 181 180 180 179 179 178 177 176 174 173 171 170 170 169 169 169 168 167 167 154 153 167 168 170 172 174 175 176 177
185 185 184 184 184 183 183 183 183 183 182 182 181 180 180 180 179 179 178 178 177 177 176 175 173 172 170 169 168 168 168 169 168 170 157 157 163 166 167 168 170 172 173 174 175
183 183 182 182 181 181 180 180 180 180 180 179 179 179 178 178 178 178 177 177 176 176 175 174 172 170 169 167 167 168 169 170 172 167 156 175 170 167 167 167 168 170 171 172 173
181 180 180 179 178 178 178 178 178 178 178 178 177 177 177 177 177 176 176 176 175 174 173 172 171 169 168 167 167 169 171 173 175 177 175 186 171 168 166 166 166 168 169 170 171
178 178 177 176 176 176 175 176 176 176 176 176 176 176 176 175 175 175 174 174 173 172 171 170 169 168 168 168 169 171 174 175 190 201 192 186 171 168 165 165 165 167 169 170 171
175 175 175 174 174 174 174 174 174 175 175 175 175 174 174 173 172 171 171 170 169 168 168 167 167 168 168 169 171 175 178 188 214 212 211 192 171 168 165 164 165 167 168 170 171
174 173 173 173 173 173 173 173 173 173 174 173 173 172 171 169 168 167 165 165 164 163 163 164 166 169 171 173 176 181 196 218 224 221 204 193 176 169 166 164 164 167 169 170 171
172 172 172 172 172 172 172 172 172 172 172 171 170 169 167 164 162 160 160 160 160 159 162 166 170 172 176 182 192 213 229 232 227 227 219 190 167 169 166 164 165 167 169 170 171
171 171 171 170 170 170 170 170 170 170 169 168 166 164 161 158 157 156 154 152 152 153 155 154 152 183 213 221 230 233 236 236 236 233 227 200 165 170 166 164 165 167 169 170 171
170 169 169 169 168 168 168 168 168 167 166 164 162 160 157 154 147 141 125 126 126 126 126 131 168 219 228 232 235 237 239 235 236 231 226 207 157 166 166 164 165 167 168 169 170
168 168 167 167 166 165 165 165 164 163 162 160 158 155 156 144 125 125 116 115 119 129 158 200 223 228 229 233 235 238 239 238 235 226 214 204 166 166 166 164 164 166 167 167 168
166 165 164 163 162 162 161 161 160 159 158 156 156 157 140 119 112 114 122 142 174 202 217 215 195 219 231 235 238 238 235 229 221 214 214 201 181 171 167 164 164 164 164 164 164
161 160 160 159 159 159 158 158 157 156 155 157 157 132 113 118 136 170 201 218 220 212 212 200 185 223 223 218 216 215 218 224 223 216 203 182 175 171 167 164 162 162 161 161 161
157 157 157 157 157 157 156 155 154 153 155 143 122 121 153 192 216 222 220 217 213 206 194 184 181 182 188 202 217 229 234 233 223 195 183 180 176 170 165 161 160 159 158 157 157
155 155 155 155 155 155 155 154 153 153 139 123 151 194 212 217 220 221 212 187 161 147 154 168 190 208 218 223 227 230 231 230 228 222 204 183 169 165 162 159 157 155 155 154 154
153 153 154 154 155 155 154 153 151 138 121 142 189 186 177 176 176 169 159 123 127 173 177 162 169 175 183 193 203 212 218 223 222 219 213 205 189 169 159 156 154 153 152 152 152
153 153 154 155 156 155 154 153 151 137 127 131 143 149 155 159 159 141 126 126 139 158 152 153 153 152 150 149 150 151 153 155 160 160 160 161 162 157 151 152 151 151 151 151 151
154 155 155 156 156 156 155 152 148 146 147 154 159 164 168 169 169 168 161 155 157 159 161 161 162 164 164 163 163 162 160 159 157 154 151 149 147 147 149 149 149 149 150 151 151
156 156 157 157 157 156 154 152 152 153 156 158 161 163 165 165 164 162 161 160 158 158 160 161 162 162 160 160 158 156 154 152 150 149 148 147 146 147 147 147 148 149 151 151 152
158 158 158 158 158 157 156 156 156 157 158 160 161 163 163 163 162 161 159 157 157 158 160 160 160 159 161 157 153 148 146 144 144 144 144 144 145 145 146 148 149 150 151 152 153
160 160 160 159 159 158 158 157 158 158 160 161 161 162 161 161 160 159 158 156 156 156 158 159 161 191 179 151 150 147 145 143 143 143 143 143 144 145 147 148 149 150 152 153 154
162 162 161 161 159 158 158 158 158 159 160 161 161 161 161 161 160 159 158 155 154 155 158 159 173 208 190 154 154 149 148 147 145 145 145 145 146 147 148 149 150 151 152 153 154
163 163 162 160 159 158 157 157 157 158 158 158 159 159 159 160 160 158 156 154 154 156 160 160 188 216 201 158 155 153 161 152 147 147 146 146 147 148 149 149 150 150 151 152 152
163 162 161 159 157 156 155 155 155 155 155 155 155 156 157 158 158 157 157 157 156 157 161 162 205 223 213 168 165 174 165 153 151 150 149 148 149 149 149 149 149 148 148 148 148
161 161 159 157 155 154 153 152 152 152 152 151 152 152 154 154 157 164 160 156 158 160 164 176 222 229 224 187 179 181 167 157 154 152 152 151 151 150 149 147 146 145 144 144 144
158 157 155 153 152 150 150 149 148 148 148 147 148 149 153 163 187 204 201 184 171 172 178 198 231 233 231 221 194 186 171 156 157 156 155 152 151 149 147 145 143 142 141 140 140
154 153 152 150 148 147 146 145 145 144 144 144 145 148 155 162 199 216 218 220 214 207 201 219 237 237 235 226 210 204 186 156 165 159 155 151 150 147 144 142 140 138 137 136 136
151 150 149 147 145 144 143 142 142 142 142 142 143 144 148 157 169 212 223 224 228 232 234 238 239 239 236 220 195 188 195 207 204 193 181 165 149 145 141 138 136 135 134 134 133
148 148 146 144 143 141 140 140 140 140 140 140 141 145 152 157 156 169 226 232 235 237 237 238 239 238 235 215 176 174 182 176 172 171 166 154 145 141 138 135 134 133 132 132 133
147 146 144 142 141 140 139 139 139 139 139 140 142 146 150 138 124 183 227 230 233 234 235 235 236 236 232 232 228 212 182 163 155 146 146 143 141 137 134 132 132 131 132 133 133
146 145 144 142 140 139 139 139 140 141 141 142 146 138 119 148 180 220 225 226 227 219 199 205 219 226 227 227 225 223 220 215 203 182 154 142 137 134 132 131 131 131 132 134 134
146 145 143 142 140 140 140 141 143 143 143 145 130 121 161 199 198 183 173 165 154 141 132 138 146 154 162 173 184 192 197 203 199 168 146 139 135 133 131 131 131 133 134 136 137
145 144 143 142 141 142 143 144 144 142 140 128 129 154 143 126 115 116 122 129 131 133 137 137 134 134 134 134 136 137 141 152 145 137 137 134 133 131 131 131 133 134 136 139 141
144 144 143 143 143 144 145 146 145 147 144 132 135 112 107 119 132 140 144 139 135 134 131 130 130 131 132 132 134 136 138 138 136 136 134 132 131 131 131 133 134 136 138 141 143
144 144 144 144 145 146 148 149 148 161 145 123 118 125 133 135 134 137 139 133 132 130 128 127 127 126 127 128 129 131 132 133 134 133 132 131 131 132 133 134 136 138 140 143 145
144 144 144 145 146 148 149 148 152 142 131 134 136 135 132 131 131 131 131 131 130 128 126 125 124 124 124 124 126 127 128 130 130 130 131 132 133 134 135 137 139 140 142 143 144
144 144 145 146 147 148 148 149 149 147 147 141 137 134 132 131 131 132 131 131 130 128 127 125 124 123 123 123 124 126 128 129 131 132 133 134 135 137 139 140 140 141 142 143 144
144 144 145 146 147 147 148 149 149 149 147 143 140 136 135 134 133 133 132 131 130 129 127 125 124 123 123 123 125 127 129 132 134 135 137 138 140 141 141 141 141 142 143 144 145
144 144 145 145 146 146 147 148 148 148 147 145 143 140 138 136 135 134 133 132 130 129 127 125 124 123 122 123 125 127 130 134 137 139 141 142 143 143 143 143 143 144 145 147 149
144 144 144 144 145 145 146 147 148 148 148 146 144 141 139 137 136 135 133 132 130 128 127 125 123 122 122 123 125 128 132 136 139 141 143 145 145 145 145 145 145 146 148 150 151
143 143 143 144 144 145 146 147 148 148 148 146 144 142 140 138 136 135 134 132 130 128 126 124 123 122 122 123 125 129 133 137 140 143 145 146 147 147 146 146 146 148 150 151 152
