P2
# Criado manualmente em Python
45 45
255
203 204 204 204 205 205 205 205 205 205 205 205 205 205 205 205 205 205 205 205 205 205 205 205 205 205 205 205 205 205 205 205 205 205 205 205 205 205 205 205 205 205 205 205 205
203 204 204 204 205 205 205 205 205 205 205 205 205 205 205 205 205 205 205 205 205 205 205 205 205 205 205 205 205 205 205 205 205 205 205 205 205 205 205 205 205 205 205 205 205
203 204 204 204 205 205 205 205 205 205 205 205 205 205 205 205 205 205 205 205 205 205 205 205 205 205 205 205 205 205 205 205 205 205 205 205 205 205 205 205 205 205 205 205 205
203 204 204 204 205 205 205 205 205 205 205 205 205 205 205 205 205 205 205 205 205 205 205 205 205 205 205 205 205 205 205 205 204 204 204 204 205 205 205 205 205 205 205 205 205
203 204 204 204 205 205 205 205 205 205 205 205 205 205 205 205 205 205 205 205 205 205 205 205 205 205 205 205 205 204 204 203 202 202 202 202 203 203 204 205 205 205 205 205 205
203 204 204 204 205 205 205 205 205 205 205 205 205 205 205 205 205 205 205 205 205 205 205 205 205 205 205 205 204 203 201 200 198 198 198 198 200 201 203 204 204 205 205 205 205
203 204 204 204 205 205 205 205 205 205 205 205 205 205 205 205 205 205 205 205 205 205 205 205 205 205 205 204 203 201 198 196 195 195 194 196 196 198 200 202 203 204 204 205 205
203 204 204 204 204 203 203 203 203 203 204 204 205 205 205 205 205 205 205 205 205 205 205 205 205 205 204 203 201 198 195 191 180 177 180 179 191 195 197 200 202 203 203 204 204
203 203 203 202 202 201 200 199 199 200 201 202 203 203 204 204 204 205 205 205 205 205 205 204 204 203 202 200 197 195 188 171 166 152 167 167 163 189 195 197 199 201 202 203 203
202 202 202 201 200 198 197 196 196 196 197 198 200 201 202 203 203 203 204 204 204 204 203 203 203 202 200 197 195 191 170 178 170 158 167 179 176 178 188 193 196 198 200 201 201
201 201 200 199 197 194 187 187 188 191 194 195 197 198 200 201 202 202 202 202 202 202 202 201 200 199 197 194 192 180 174 180 173 172 175 177 182 184 186 190 193 195 197 198 199
199 199 199 197 194 187 176 172 174 178 184 189 193 196 198 199 200 200 200 200 200 199 199 198 197 195 192 187 180 176 179 177 177 178 178 181 183 185 187 188 190 193 194 196 197
197 197 197 195 193 188 180 174 173 172 171 175 178 186 192 194 195 196 195 194 194 193 193 190 188 187 184 178 173 174 175 174 171 174 175 179 180 183 185 187 189 191 193 194 195
195 196 196 195 194 192 189 185 183 183 183 182 182 185 189 191 191 191 189 187 186 184 184 179 180 181 181 178 175 172 169 168 169 170 174 178 179 181 182 186 188 190 192 193 194
195 196 196 196 195 193 191 189 187 186 186 186 188 189 189 189 189 187 186 184 182 179 174 177 174 174 173 169 168 161 143 119 149 173 174 174 179 182 183 184 185 187 190 191 192
195 195 195 195 195 193 191 189 186 184 183 183 182 183 184 184 183 181 173 161 154 146 151 132 153 134 160 152 148 153 128 99 113 135 152 170 176 178 179 180 180 182 187 189 191
194 195 195 195 195 194 191 188 184 181 170 168 179 178 179 177 173 162 150 135 107 118 117 91 113 96 132 158 129 148 118 111 105 97 110 126 157 169 175 179 182 183 185 187 189
194 195 195 194 194 192 189 185 179 172 160 151 164 171 167 155 159 161 141 120 111 106 99 109 99 81 98 156 131 136 131 104 106 102 108 101 115 121 128 146 164 174 181 184 186
193 194 194 193 192 190 186 182 175 168 151 141 156 167 158 156 155 149 137 132 120 99 107 134 117 96 82 146 127 84 105 105 109 97 91 83 81 96 99 106 121 148 164 174 179
192 193 192 192 190 188 185 181 176 171 160 156 153 150 155 144 130 135 125 130 122 103 107 141 129 101 80 118 82 58 62 71 76 73 77 79 64 73 105 135 123 131 160 171 172
191 192 191 190 189 187 182 179 175 171 166 158 148 132 128 129 126 130 113 125 127 106 99 137 120 103 91 109 86 61 63 62 60 61 72 82 75 66 72 118 146 138 139 167 172
189 190 189 188 187 184 179 178 177 172 166 161 152 139 128 130 125 114 114 110 114 111 104 115 111 102 100 103 107 69 59 64 61 56 68 75 80 67 65 74 136 141 128 140 162
186 187 186 185 185 183 181 178 177 174 171 164 153 136 129 121 117 111 119 108 110 116 109 110 121 106 107 102 110 86 54 60 62 55 71 85 85 81 74 68 87 135 142 133 143
183 184 183 183 182 181 179 175 176 175 170 167 151 130 131 117 105 108 104 108 118 116 119 116 117 122 117 117 106 98 60 58 65 56 67 96 98 85 89 72 70 82 134 119 121
180 181 180 178 179 178 175 172 174 174 170 167 157 126 135 117 97 95 94 101 111 118 120 119 120 142 144 143 114 106 77 57 63 58 66 90 105 96 99 79 77 66 101 124 114
176 178 176 175 177 175 171 170 173 172 168 164 153 132 126 117 94 89 95 89 109 111 120 122 122 142 144 152 143 107 83 57 64 60 64 90 110 117 103 96 92 67 79 102 105
172 175 175 175 174 172 167 168 170 169 167 160 151 122 113 117 94 99 90 89 99 112 130 124 118 138 138 154 150 121 85 59 65 64 61 93 110 120 126 123 104 70 73 85 87
171 173 173 169 169 170 170 167 168 166 164 157 154 122 115 113 93 110 92 84 86 114 128 122 113 142 141 156 151 137 93 62 66 69 64 92 120 129 127 126 113 90 75 84 85
169 170 171 170 170 173 172 167 165 165 168 165 162 148 116 117 113 101 91 88 97 107 118 111 110 143 143 158 154 143 107 65 66 77 69 83 121 136 131 130 115 102 85 90 86
168 169 168 168 172 173 172 170 172 172 169 166 163 149 125 129 116 104 111 96 106 101 103 113 123 144 146 157 155 145 123 70 64 80 71 84 112 144 141 142 131 108 100 88 105
165 165 168 173 175 176 176 173 175 172 171 167 159 138 117 120 99 131 140 117 108 98 88 87 122 146 143 154 149 145 127 77 75 100 96 112 114 133 145 146 147 135 118 118 116
167 168 171 174 176 177 176 174 175 174 170 165 164 153 125 120 110 126 151 127 128 107 91 73 96 141 142 148 145 141 120 88 130 150 157 160 159 156 151 149 148 155 143 139 120
169 169 171 175 177 177 175 172 176 175 174 175 171 163 139 104 130 126 155 149 138 136 97 76 84 92 126 136 132 129 93 88 150 156 162 169 170 171 169 163 152 154 161 155 154
169 169 173 176 176 176 173 173 176 177 178 174 168 150 123 105 135 118 146 163 148 141 119 78 82 77 88 109 97 99 73 63 96 141 165 169 172 172 172 163 157 164 165 169 170
170 172 173 175 175 173 168 170 175 177 175 171 167 160 126 95 119 132 144 164 160 143 139 99 75 73 68 77 87 71 78 69 73 98 146 168 171 173 173 171 163 170 170 170 175
173 174 174 174 173 172 164 167 174 175 175 173 164 155 137 106 112 134 138 163 164 147 135 120 85 69 67 58 68 65 73 75 64 103 113 154 172 172 173 173 170 172 175 175 177
174 175 174 174 172 169 161 169 172 173 171 164 154 155 169 142 100 104 134 160 163 157 145 130 96 81 64 59 61 62 58 74 65 68 134 132 138 167 170 172 175 173 175 178 179
175 175 175 173 170 164 156 160 162 166 168 166 162 171 169 162 121 99 129 156 165 155 136 135 95 89 70 57 57 59 57 58 74 57 89 127 111 134 163 169 173 173 170 176 177
175 175 175 172 165 156 143 154 163 158 165 167 174 176 174 172 140 106 102 145 162 157 145 138 107 94 81 62 57 58 59 56 65 70 55 97 143 136 120 159 168 172 168 165 172
174 175 174 168 162 164 139 151 149 155 169 177 179 179 178 174 166 129 94 127 155 162 155 138 112 97 93 70 58 57 60 62 60 68 67 64 93 134 112 133 153 162 168 167 169
174 175 173 172 168 156 129 114 142 169 172 175 181 182 182 177 171 132 92 118 142 163 157 150 133 108 97 78 66 57 55 60 66 64 67 74 66 77 121 112 123 135 156 162 165
176 177 175 171 167 149 125 117 145 163 168 178 184 185 184 179 174 156 94 119 134 159 161 156 148 131 108 92 75 64 55 55 85 97 91 79 70 64 81 80 101 106 106 110 116
177 178 175 172 168 160 134 111 141 163 171 181 185 186 185 181 173 165 110 114 133 150 163 161 154 142 119 109 87 74 70 53 66 97 110 93 80 76 94 75 75 97 114 105 98
178 179 177 173 169 155 137 116 139 168 174 181 185 187 186 182 175 158 117 117 142 133 160 163 159 148 125 102 112 83 81 63 53 65 89 109 121 111 107 89 66 80 96 104 105
179 180 178 175 168 151 136 108 145 168 175 180 185 188 185 182 175 139 108 125 150 127 155 164 158 150 134 100 100 94 73 64 54 59 65 84 110 127 114 96 78 92 93 89 88
