P2
# Criado manualmente em Python
45 45
255
6 6 6 6 6 6 6 6 6 6 6 6 6 6 6 6 6 6 6 6 6 6 6 6 6 6 6 6 7 9 12 17 25 25 35 67 52 24 19 13 9 7 6 6 6
6 6 6 6 6 6 6 6 6 6 6 6 6 6 6 6 6 6 6 6 6 6 6 6 6 6 6 7 8 10 14 21 24 56 114 122 79 27 20 14 10 7 6 6 6
6 6 6 6 6 6 6 6 6 6 6 6 6 6 6 6 6 6 6 6 6 6 6 6 6 6 6 7 9 12 18 22 49 123 107 89 72 42 22 16 11 8 6 6 6
8 8 8 8 8 8 7 7 6 6 6 6 6 6 6 6 6 6 6 6 6 6 6 6 6 6 7 8 11 16 22 30 112 111 99 84 79 59 29 18 13 9 7 6 6
10 11 11 12 11 11 10 9 8 7 6 6 6 6 6 6 6 6 6 6 6 7 7 7 7 7 8 11 14 21 24 81 124 103 94 87 81 54 42 20 14 10 7 6 6
14 15 15 15 17 16 14 12 10 8 7 7 6 6 6 6 7 7 7 8 8 8 9 9 9 10 11 14 19 24 46 127 110 100 86 88 67 53 47 23 16 11 8 6 6
18 18 23 28 22 20 19 17 14 11 9 8 7 7 7 8 8 9 10 11 11 12 12 12 13 14 16 19 25 29 111 133 113 110 99 82 62 56 53 25 17 12 8 6 6
20 44 105 111 99 70 31 22 21 16 13 11 10 9 10 11 12 13 14 15 16 17 17 18 18 19 24 29 29 84 147 114 126 121 89 74 59 57 62 28 18 13 9 6 6
22 59 108 104 115 117 104 51 25 23 19 15 14 13 14 15 17 19 22 24 24 25 26 27 27 30 38 40 63 132 115 118 140 105 74 65 53 57 68 33 18 14 9 7 6
24 52 88 88 105 109 106 113 74 29 23 22 20 20 20 23 25 29 33 36 35 36 36 41 41 40 51 56 114 124 116 130 135 78 59 57 47 55 76 37 18 14 10 7 6
25 41 80 89 95 102 106 107 119 100 48 28 26 31 33 35 43 44 47 47 46 49 43 52 55 48 67 78 109 130 137 117 128 66 47 42 43 56 88 46 18 15 10 7 6
25 36 74 79 84 90 103 110 113 128 132 91 46 43 51 46 56 59 56 59 57 58 52 56 54 50 70 83 101 116 123 127 128 68 45 41 44 63 95 40 18 15 10 7 6
24 29 68 67 73 87 103 117 113 111 125 139 115 71 64 53 62 64 63 64 65 61 57 61 50 47 62 74 87 98 104 109 109 71 54 50 38 81 121 47 19 16 11 7 6
22 24 59 72 65 77 97 113 127 120 131 136 117 92 75 55 57 68 62 66 68 62 56 68 55 46 56 66 77 90 86 85 83 63 61 46 34 65 119 59 18 16 11 8 6
19 21 38 69 66 66 83 102 123 146 152 131 104 86 74 58 54 69 64 59 62 59 55 65 62 47 54 61 73 71 72 77 68 55 49 36 33 57 96 63 20 15 11 8 6
16 20 26 64 75 67 67 87 120 153 144 118 107 86 74 66 60 68 70 58 57 52 54 62 52 44 51 60 62 67 65 61 58 46 37 32 30 46 64 44 19 15 11 8 6
14 18 22 55 84 68 77 83 109 145 132 113 102 85 75 66 57 58 69 62 52 50 54 52 50 49 50 58 66 65 60 56 50 41 33 29 26 28 35 24 19 14 10 8 6
12 15 20 39 89 70 78 103 114 142 122 104 94 81 73 63 53 56 51 57 53 47 49 47 60 54 48 61 70 63 61 55 48 39 31 26 24 23 25 23 17 13 10 8 7
10 14 20 26 70 86 84 103 137 130 108 100 95 82 73 65 58 63 69 56 58 53 52 54 77 67 47 63 81 62 55 54 50 38 30 23 20 19 18 17 14 12 9 8 7
9 13 18 28 85 102 86 76 114 130 101 93 91 83 80 72 61 77 106 72 61 63 66 71 96 74 49 84 89 70 64 60 48 38 27 20 17 15 14 13 12 11 9 8 7
8 11 17 22 74 107 87 82 87 112 105 96 92 87 84 84 66 82 122 102 77 72 93 94 104 90 70 97 82 72 69 63 47 36 25 18 14 12 12 11 11 10 9 8 7
7 10 15 19 51 106 99 92 93 103 103 99 90 82 82 93 86 69 126 121 98 95 111 99 105 119 96 65 44 42 45 45 38 29 21 17 13 11 10 10 10 9 8 8 7
7 9 13 18 29 64 81 82 95 96 98 98 96 92 94 97 109 120 151 137 114 110 115 103 128 132 55 53 53 43 42 57 47 26 21 16 12 10 9 9 9 9 8 8 7
7 8 11 16 22 33 59 71 84 90 98 99 105 102 86 64 60 82 158 173 127 118 121 107 145 117 42 105 65 33 43 78 85 35 21 17 12 10 9 9 9 9 9 8 8
6 7 9 14 20 30 57 63 75 87 97 100 106 85 53 52 63 65 104 181 143 130 134 110 137 107 42 67 47 37 40 73 76 30 20 16 13 10 10 9 9 9 9 8 8
6 6 8 12 17 25 49 59 64 72 73 76 85 85 70 108 68 82 79 149 148 137 135 108 112 84 40 51 49 44 49 69 44 22 19 16 13 10 10 9 9 9 9 9 8
6 6 7 10 15 21 37 54 60 57 52 55 103 114 81 66 47 76 59 118 135 124 117 97 75 55 43 71 74 55 50 40 29 22 18 15 13 10 10 9 9 9 9 9 9
6 6 7 9 13 19 27 46 53 48 51 72 107 136 82 71 68 70 87 66 92 101 99 83 52 41 39 62 68 53 49 38 31 24 19 16 13 11 10 10 9 10 10 10 10
6 6 7 8 12 17 24 36 47 55 62 63 65 97 118 97 97 131 122 49 66 87 90 77 44 43 51 54 53 57 49 36 29 23 19 15 13 11 11 10 10 10 10 10 10
6 6 6 8 11 15 21 33 43 51 63 60 55 60 72 88 98 112 79 65 65 78 88 67 41 48 66 71 63 60 52 40 31 24 20 16 14 12 11 11 11 11 11 11 11
6 6 6 7 10 13 19 29 41 50 68 71 61 59 60 69 90 100 92 109 84 49 58 44 35 86 117 93 84 80 63 43 34 27 22 19 16 14 13 12 11 11 11 11 11
6 6 6 7 9 12 18 27 38 49 65 66 61 63 74 74 89 91 96 147 161 82 36 34 85 139 135 109 97 80 63 45 37 31 26 23 21 17 15 13 12 12 12 12 11
6 6 6 7 8 12 17 26 37 46 60 65 64 68 71 86 111 131 132 154 182 161 75 51 113 123 133 118 93 73 56 47 37 31 29 25 22 20 19 15 14 12 12 12 11
6 6 6 7 8 11 16 24 35 48 61 69 60 65 67 75 117 147 151 151 158 137 88 50 72 99 113 109 87 64 52 44 36 32 28 27 25 20 19 17 14 12 12 11 11
6 6 6 6 8 11 16 24 38 51 61 65 66 69 71 83 115 143 153 154 147 115 71 64 77 87 74 70 61 50 41 36 30 29 28 25 23 23 19 16 14 12 12 11 11
6 6 6 6 8 10 15 22 34 46 59 64 71 75 83 97 118 140 146 142 120 102 119 118 115 112 97 55 40 36 31 27 25 25 24 25 23 21 20 17 15 13 12 11 11
6 6 6 6 7 10 13 19 28 41 63 76 76 80 92 93 108 130 138 138 131 141 151 136 119 98 68 45 32 25 22 21 20 21 22 21 22 21 19 18 16 14 12 12 11
6 6 6 6 7 9 12 17 24 40 58 71 86 94 96 98 108 117 124 132 132 131 126 105 80 61 41 32 23 19 18 17 18 19 21 20 20 22 20 19 17 15 14 13 12
6 6 6 6 7 8 11 15 24 33 37 51 71 86 101 108 110 112 118 116 109 104 97 81 64 43 31 24 19 17 16 17 18 19 21 21 22 22 22 20 19 17 15 14 13
6 6 6 6 7 8 10 13 20 23 30 45 68 84 94 98 105 113 115 111 107 100 93 70 51 37 26 22 19 18 18 19 20 22 24 25 25 26 25 24 21 19 17 15 14
6 6 6 6 7 7 9 12 14 19 27 47 66 85 99 104 111 106 107 107 96 88 91 80 45 36 34 26 22 22 23 25 27 29 30 31 30 29 28 27 24 21 18 16 14
6 6 6 6 7 7 8 10 12 16 24 34 45 73 91 86 92 91 105 97 96 91 87 75 42 34 42 33 28 30 31 33 33 35 36 34 34 33 30 28 24 20 17 14 13
6 6 6 6 6 7 7 8 10 13 20 26 37 51 83 88 80 92 98 96 80 66 63 48 41 37 40 44 42 45 45 46 42 40 39 38 39 37 32 31 23 17 14 12 11
6 6 6 6 6 7 7 8 9 12 17 22 29 44 93 87 79 76 78 79 63 62 74 69 52 56 63 61 55 56 59 56 48 47 47 43 41 40 32 25 19 15 12 10 9
6 6 6 6 6 6 7 7 8 11 15 19 28 49 53 35 36 37 41 46 54 73 97 85 75 64 76 65 60 62 62 53 51 55 48 44 45 36 28 22 18 14 11 9 8
