P2
# Criado manualmente em Python
45 45
255
103 102 100 98 96 95 94 95 96 97 98 100 102 104 105 105 104 101 100 99 96 93 96 97 93 91 89 87 88 90 90 90 89 89 89 89 89 88 86 85 83 81 80 79 78
106 105 102 101 99 97 97 98 99 101 102 103 105 106 107 108 107 106 110 115 107 104 105 101 98 100 97 92 91 91 90 90 91 91 92 92 92 91 89 87 85 84 83 82 81
111 110 109 106 104 103 102 102 104 105 107 107 108 108 110 110 110 111 111 93 74 63 58 55 56 61 73 88 95 90 92 92 93 95 96 96 97 96 94 92 91 90 88 88 87
117 116 115 113 112 112 110 112 113 114 114 113 112 112 113 114 118 90 56 46 48 42 41 40 40 39 39 46 71 98 99 96 97 99 101 102 104 103 101 101 99 97 97 96 95
122 124 122 120 121 119 117 122 123 125 124 122 119 121 121 127 91 62 95 120 123 94 72 53 42 39 39 38 38 65 103 100 100 104 105 107 108 107 108 107 106 105 105 105 103
126 127 125 125 130 130 130 130 130 133 133 131 128 124 131 98 61 132 197 211 214 192 149 87 51 41 37 34 37 37 71 103 93 100 107 110 112 111 112 113 113 112 111 111 109
126 130 126 135 143 144 144 145 148 144 142 138 131 135 107 54 77 147 186 184 191 194 143 91 66 49 38 33 33 35 43 72 77 85 92 103 107 111 115 118 119 119 118 116 111
106 105 107 112 124 134 122 126 149 153 159 155 164 154 66 47 91 143 165 180 181 160 133 115 87 58 40 32 29 31 34 47 59 67 74 83 91 102 116 120 120 119 117 112 106
87 87 92 92 94 92 88 85 87 100 142 154 148 114 49 46 65 80 76 141 115 65 76 62 52 48 40 31 27 28 30 38 46 54 62 69 74 83 107 115 115 114 108 102 97
77 79 81 82 80 77 73 70 72 76 101 92 83 84 45 43 87 101 91 125 87 96 111 87 88 70 41 31 27 26 27 33 40 45 51 57 62 68 91 105 101 100 97 93 88
65 68 70 70 68 68 64 62 60 61 59 58 57 49 41 39 100 160 156 156 98 125 161 153 101 59 39 30 26 24 25 30 38 44 50 55 60 66 76 89 90 88 87 84 82
54 58 61 61 61 61 60 58 57 56 54 52 48 40 38 36 61 119 124 124 80 103 131 101 67 47 37 29 25 23 24 28 34 39 45 49 53 59 66 72 74 72 70 71 70
48 50 55 56 57 57 56 55 54 54 53 50 46 39 36 36 44 75 110 91 63 76 83 73 57 44 36 28 24 23 24 27 32 37 42 45 48 52 56 59 61 62 62 61 59
45 47 51 53 54 55 54 54 53 53 52 49 46 40 35 34 35 54 93 98 75 72 75 66 52 43 34 28 24 23 23 26 31 37 41 45 48 50 53 55 55 55 55 56 55
43 44 47 51 53 53 54 53 54 54 52 50 48 41 34 32 33 33 50 97 93 70 63 53 46 40 34 28 25 23 23 25 30 36 40 44 47 49 50 51 52 52 52 53 52
43 44 46 49 52 53 53 54 54 55 54 53 51 44 34 32 31 33 34 39 51 51 50 50 46 41 38 31 26 24 23 25 28 33 37 41 45 47 48 49 50 49 49 50 49
46 47 48 50 52 54 54 55 55 56 56 55 51 46 36 31 31 32 36 38 53 61 57 54 52 50 44 34 28 25 24 24 26 31 36 41 45 48 51 51 51 51 51 50 50
51 51 52 53 54 54 53 53 53 53 52 51 47 43 37 32 33 34 38 43 57 75 75 69 67 66 58 41 31 27 24 24 25 29 33 37 42 47 49 53 56 54 53 52 51
51 52 52 52 53 53 52 51 51 49 47 45 42 39 36 35 36 42 59 81 101 104 101 100 101 93 81 52 34 29 26 24 24 26 30 34 40 48 51 53 56 53 53 53 52
50 50 50 51 51 51 51 51 49 46 44 41 40 37 36 38 43 80 115 132 142 144 136 135 135 118 90 56 36 30 26 23 23 24 27 30 36 49 55 53 53 53 54 54 54
49 49 49 50 51 51 50 48 46 43 40 38 36 35 36 40 58 119 145 153 155 155 151 147 139 123 92 55 36 30 25 23 22 23 24 26 29 35 43 51 56 56 58 59 57
46 46 46 46 47 48 48 46 43 40 36 33 32 33 40 62 97 138 149 155 155 158 156 150 140 121 89 50 34 29 25 23 22 22 22 22 24 27 30 35 42 47 50 56 55
42 42 42 43 43 43 42 41 40 36 31 30 30 32 41 89 133 145 138 141 154 161 158 152 145 126 80 44 32 28 24 21 20 19 19 19 20 22 24 27 30 33 37 43 48
39 39 40 40 40 40 39 37 34 30 27 27 27 31 36 47 74 95 91 129 151 156 160 151 131 89 47 33 26 22 20 19 18 18 17 17 17 18 19 21 25 29 32 34 36
38 38 39 39 38 37 35 32 28 26 24 24 26 30 35 38 41 41 47 57 64 70 76 72 52 34 29 24 21 19 18 17 17 17 16 15 15 15 16 17 20 23 26 29 31
36 37 37 37 36 34 32 28 25 23 21 22 24 27 29 32 35 38 41 40 39 36 32 29 29 26 22 19 18 17 16 16 16 16 15 14 13 13 13 14 16 19 22 25 26
35 36 36 35 33 31 28 24 22 20 19 20 21 23 25 26 26 28 30 30 29 28 27 25 22 19 17 16 15 14 14 15 15 15 14 13 12 12 11 12 14 16 19 22 23
35 37 36 35 33 30 26 22 20 19 18 19 19 20 21 22 22 22 22 23 22 22 21 19 17 16 14 13 13 13 13 13 14 13 13 12 11 10 10 11 12 14 17 20 21
34 34 34 32 30 27 23 21 19 18 17 18 18 19 19 19 19 19 19 18 18 17 17 15 14 13 12 12 11 12 12 12 12 12 11 10 9 9 9 9 11 13 15 18 20
31 30 29 28 26 24 22 20 18 18 17 17 17 17 17 17 17 17 16 16 16 15 14 13 13 12 11 11 11 11 11 11 10 10 10 9 8 7 7 8 9 11 14 16 17
28 28 27 25 24 22 21 20 19 18 18 18 18 18 18 18 17 16 15 15 14 14 13 13 12 11 11 10 10 10 10 9 9 9 8 8 7 7 6 7 8 10 12 14 16
25 25 24 23 22 21 21 20 20 20 20 20 21 21 21 20 19 18 16 15 14 13 13 12 12 11 10 10 9 9 9 9 8 8 8 7 7 6 6 6 7 9 11 13 14
22 22 21 21 21 21 21 21 21 21 22 23 24 25 25 24 23 21 19 17 16 15 13 12 12 11 10 10 9 9 9 9 9 8 8 8 7 7 6 6 7 9 10 12 13
20 20 20 20 20 21 21 22 22 23 25 26 28 30 31 30 28 26 24 21 19 17 16 14 13 12 11 11 10 10 10 10 10 10 9 9 8 7 7 7 8 9 10 11 12
19 19 19 19 20 21 22 22 23 25 28 32 41 49 49 44 39 34 30 26 23 21 19 17 15 14 13 12 12 12 12 12 11 11 11 10 9 8 8 8 8 9 10 11 11
17 18 18 19 19 20 21 22 23 25 28 36 47 52 55 55 52 47 43 37 30 26 22 20 18 16 15 14 14 14 14 14 13 13 12 11 10 10 9 9 9 9 10 10 11
17 17 17 18 19 19 20 21 23 25 29 34 41 45 49 52 52 50 48 45 41 37 31 24 21 19 18 17 17 17 16 16 15 14 13 12 11 11 10 10 10 10 10 10 11
16 16 17 17 18 18 19 20 22 25 28 33 38 42 46 49 49 48 46 45 40 37 35 30 24 22 21 19 19 19 18 18 17 16 15 13 12 12 11 11 10 10 10 11 11
16 16 16 17 17 18 18 19 21 24 29 34 40 45 43 43 44 43 43 40 39 37 31 28 26 23 21 20 20 20 19 19 18 17 15 14 13 13 12 12 11 11 11 11 11
15 16 16 16 17 17 18 19 21 24 28 33 37 42 41 38 37 37 37 37 36 33 31 27 24 22 21 20 20 19 19 19 18 17 16 15 14 13 13 12 12 12 11 11 11
15 15 16 16 16 17 17 18 20 22 26 29 32 36 35 32 31 30 29 29 30 28 26 25 23 21 19 19 18 18 18 18 18 17 16 15 14 13 13 12 12 11 11 11 11
15 15 15 16 16 16 16 17 18 20 23 26 28 29 27 26 25 24 23 23 23 23 22 21 19 18 18 17 17 17 17 17 17 16 16 15 14 13 12 12 11 11 11 11 11
15 15 15 15 15 15 15 16 17 18 20 22 23 23 22 21 20 20 19 19 19 19 18 18 17 16 16 15 15 15 16 16 16 16 15 14 14 13 12 11 10 10 10 10 10
15 15 15 15 15 15 14 14 15 16 17 18 19 19 19 18 17 17 16 16 16 16 16 15 15 14 14 14 14 14 14 15 15 15 15 14 13 12 11 10 9 9 9 9 9
15 15 15 14 14 14 14 13 14 14 15 16 17 17 16 16 15 15 15 14 14 14 14 14 14 14 13 13 13 13 14 14 14 15 14 14 13 12 10 9 8 8 8 8 8
