P2
# Criado manualmente em Python
45 45
255
221 227 233 236 235 228 213 191 169 152 142 140 143 154 172 195 216 229 235 235 229 216 195 173 154 143 140 142 151 169 191 212 227 235 236 231 219 199 176 157 145 139 138 140 143
220 226 232 235 233 226 211 190 167 150 141 139 142 153 171 194 214 228 234 234 228 214 194 171 153 142 139 141 150 167 189 211 226 233 235 230 217 198 175 156 143 138 137 139 142
218 224 230 233 232 224 209 188 165 148 139 137 140 151 169 191 212 226 232 232 226 212 192 169 151 140 137 139 148 165 187 209 224 231 233 228 215 196 173 153 141 136 135 137 140
215 221 227 230 229 222 206 185 163 146 136 134 137 148 166 189 209 223 230 230 223 210 189 167 148 138 134 136 146 163 185 206 221 229 230 225 213 193 170 151 139 134 133 135 138
212 219 224 228 226 219 204 182 160 143 134 131 135 145 164 186 207 221 227 227 221 207 186 164 146 135 131 134 143 160 182 203 219 226 227 222 210 190 168 148 136 131 130 132 135
209 216 222 225 223 216 201 179 157 140 131 128 132 142 161 183 204 218 224 224 218 204 184 161 143 132 128 131 140 157 179 200 216 223 225 219 207 187 165 145 133 128 127 129 132
207 213 219 222 220 213 198 176 154 137 128 125 129 140 158 180 201 215 221 221 215 201 181 158 140 129 125 128 137 154 176 198 213 221 222 217 204 184 162 142 130 125 124 126 129
204 210 216 219 218 210 195 174 151 134 125 123 126 137 155 177 198 212 218 218 212 198 178 155 137 126 123 125 134 151 173 195 210 218 219 214 201 181 159 140 128 122 122 123 126
201 207 213 216 215 207 192 171 149 132 122 120 123 134 152 174 195 209 215 215 209 195 175 152 134 123 120 122 131 148 171 192 207 215 216 211 198 179 156 137 125 119 119 121 124
198 204 210 213 212 204 189 168 146 129 119 117 120 131 149 172 192 206 212 212 206 192 172 149 131 120 117 119 129 145 168 189 204 212 213 208 195 176 153 134 122 117 116 118 121
195 201 207 210 209 201 186 165 143 126 116 114 117 128 146 169 189 203 209 209 203 189 169 147 128 118 114 116 126 143 165 186 201 209 210 205 192 173 150 131 119 114 113 115 118
192 198 204 207 206 199 183 162 140 123 114 111 115 125 143 166 186 200 207 207 200 187 166 144 125 115 111 113 123 140 162 183 198 206 207 202 190 170 147 128 116 111 110 112 115
189 196 201 204 203 196 180 159 137 120 111 108 112 122 140 163 183 197 204 204 197 184 163 141 123 112 108 111 120 137 159 180 196 203 204 199 187 167 145 125 113 108 107 109 112
186 193 198 202 200 193 178 156 134 117 108 105 109 119 138 160 181 195 201 201 195 181 160 138 120 109 105 108 117 134 156 177 193 200 201 196 184 164 142 122 110 105 104 106 109
183 190 196 199 197 190 175 153 131 114 105 102 106 117 135 157 178 192 198 198 192 178 157 135 117 106 102 105 114 131 153 175 190 197 199 193 181 161 139 120 107 102 101 103 106
180 187 193 196 195 187 172 151 128 111 102 99 103 114 132 154 175 189 195 195 189 175 155 132 114 103 99 102 111 128 150 172 187 195 196 191 178 158 136 117 105 99 98 100 103
178 184 190 193 192 184 169 148 125 109 99 97 100 111 129 151 172 186 192 192 186 172 152 129 111 100 97 99 108 125 147 169 184 192 193 188 175 156 133 114 102 96 96 97 100
175 181 187 190 189 181 166 145 123 106 96 94 97 108 126 149 169 183 189 189 183 169 149 126 108 97 94 96 106 122 145 166 181 189 190 185 172 153 130 111 99 93 93 95 98
172 178 184 187 186 178 163 142 120 103 93 91 94 105 123 146 166 180 186 186 180 166 146 123 105 94 91 93 103 119 142 163 178 186 187 182 169 150 127 108 96 91 90 92 95
169 175 181 184 183 176 160 139 117 100 90 88 91 102 120 143 163 177 184 184 177 164 143 121 102 92 88 90 100 117 139 160 175 183 184 179 167 147 124 105 93 88 87 89 92
166 173 178 181 180 173 157 136 114 97 88 85 89 99 117 140 160 174 181 181 175 161 140 118 99 89 85 88 97 114 136 157 172 180 181 176 164 144 121 102 90 85 84 86 89
163 170 175 178 177 170 155 133 111 94 85 82 86 96 114 137 158 172 178 178 172 158 137 115 97 86 82 85 94 111 133 154 170 177 178 173 161 141 118 99 87 82 81 83 86
160 167 173 176 174 167 152 130 108 91 82 79 83 93 112 134 155 169 175 175 169 155 135 112 94 83 79 82 91 108 130 151 167 174 175 170 158 138 116 96 84 79 78 80 83
157 164 170 173 172 164 149 128 105 88 79 76 80 90 109 131 152 166 172 172 166 152 132 109 91 80 76 79 88 105 127 148 164 171 172 167 155 135 113 93 81 76 75 77 80
154 161 167 170 169 161 146 125 102 85 76 74 77 88 106 128 149 163 169 169 163 149 129 106 88 77 74 76 85 102 124 146 161 168 170 165 152 132 110 91 78 73 72 74 77
152 158 164 167 166 158 143 122 100 83 73 71 74 85 103 125 146 160 166 166 160 146 126 103 85 74 71 73 82 99 121 143 158 166 167 162 149 129 107 88 76 70 70 71 74
149 155 161 164 163 155 140 119 97 80 70 68 71 82 100 122 143 157 163 163 157 143 123 100 82 71 68 70 79 96 118 140 155 163 164 159 146 127 104 85 73 67 67 68 72
146 152 158 161 160 153 137 116 94 77 67 65 68 79 97 120 140 154 161 161 154 141 120 97 79 69 65 67 77 93 116 137 152 160 161 156 143 124 101 82 70 65 64 66 69
143 149 155 158 157 150 134 113 91 74 64 62 65 76 94 117 137 151 158 158 151 138 117 95 76 66 62 64 74 91 113 134 149 157 158 153 141 121 98 79 67 62 61 63 66
140 147 152 156 154 147 132 110 88 71 62 59 63 73 91 114 135 148 155 155 149 135 114 92 74 63 59 62 71 88 110 131 147 154 155 150 138 118 96 76 64 59 58 60 63
137 144 150 153 151 144 129 107 85 68 59 56 60 70 88 111 132 146 152 152 146 132 112 89 71 60 56 59 68 85 107 128 144 151 152 147 135 115 93 73 61 56 55 57 60
134 141 147 150 149 141 126 104 82 65 56 53 57 67 86 108 129 143 149 149 143 129 109 86 68 57 54 56 65 82 104 125 141 148 149 144 132 112 90 70 58 53 52 54 57
131 138 144 147 146 138 123 102 79 62 53 50 54 65 83 105 126 140 146 146 140 126 106 83 65 54 51 53 62 79 101 123 138 146 146 142 129 109 87 68 55 50 49 51 54
129 135 141 144 143 135 120 99 76 59 50 48 51 62 80 102 123 137 143 143 137 123 103 80 62 51 48 50 59 76 98 120 135 143 144 139 126 107 84 65 53 47 47 48 51
126 132 138 141 140 132 117 96 74 57 47 45 48 59 77 99 120 134 140 140 134 120 100 77 59 48 45 47 56 73 95 117 132 140 141 136 123 104 81 62 50 44 44 45 49
123 129 135 138 137 129 114 93 71 54 44 42 45 56 74 97 117 131 137 137 131 117 97 74 56 45 42 44 54 70 93 114 129 137 138 133 120 101 78 59 47 42 41 43 46
120 126 132 135 134 126 111 90 68 51 41 39 43 53 71 94 114 128 134 134 128 114 94 71 53 43 39 41 51 68 90 111 126 134 135 130 118 98 75 56 44 39 38 40 43
117 124 129 132 131 124 108 87 65 48 39 36 40 50 68 91 111 125 132 132 125 112 91 69 50 40 36 38 48 65 87 108 124 131 132 127 115 95 73 53 41 36 35 37 40
114 121 126 130 128 121 106 84 62 45 36 33 37 47 65 88 108 122 129 129 123 109 88 66 48 37 33 36 45 62 84 105 121 128 129 124 112 92 70 50 38 33 32 34 37
111 118 124 127 125 118 103 81 59 42 33 30 34 45 63 85 106 120 126 126 120 106 86 63 45 34 30 33 42 59 81 102 118 125 126 121 109 89 67 47 35 30 29 31 34
108 115 121 124 123 115 100 79 56 39 30 27 31 42 60 82 103 117 123 123 117 103 83 60 42 31 27 30 39 56 78 100 115 122 124 119 106 86 64 45 33 27 26 28 31
106 112 118 121 120 112 97 76 54 37 27 25 28 39 57 79 100 114 120 120 114 100 80 57 39 28 25 27 36 53 75 97 112 120 121 116 103 84 61 42 30 24 24 25 28
103 109 115 119 117 110 95 73 51 34 25 22 26 36 54 77 98 111 118 118 112 98 77 55 36 26 22 25 34 51 73 94 109 117 118 113 101 81 58 39 27 22 21 23 26
101 107 113 116 115 107 92 71 49 32 23 20 24 34 52 75 95 109 116 116 110 96 75 52 34 24 20 23 32 49 71 92 107 115 116 111 99 79 56 37 25 20 19 21 24
100 106 112 115 114 106 91 69 47 31 21 19 23 33 51 73 94 108 114 114 108 94 74 51 33 23 19 21 30 47 69 91 106 114 115 110 97 78 55 36 24 19 18 20 23
