P2
# Criado manualmente em Python
45 45
255
90 91 91 92 92 93 93 94 94 94 94 94 94 94 94 94 94 94 94 94 94 94 94 94 94 93 94 93 94 93 94 93 94 94 94 94 94 94 94 93 94 94 94 94 94
102 102 104 102 104 104 104 104 104 104 104 104 104 104 104 104 104 104 104 104 104 104 104 104 104 104 104 105 104 104 104 104 104 104 104 104 104 104 104 104 104 104 105 105 106
100 110 103 111 105 111 108 108 109 108 108 108 108 108 108 109 108 109 108 108 109 107 110 106 110 106 111 106 110 107 110 107 109 108 108 109 108 109 108 108 109 108 110 109 112
83 130 98 112 121 105 115 115 110 113 114 112 112 112 112 112 112 112 112 112 112 112 113 112 113 112 114 111 114 110 114 110 114 111 113 114 110 117 108 116 112 111 118 109 116
74 117 139 82 123 133 104 112 125 116 112 116 118 115 115 116 116 116 115 116 116 116 116 116 116 116 116 116 115 116 116 116 116 116 116 116 116 116 115 116 116 116 117 116 118
67 99 147 124 77 126 145 109 98 127 128 114 111 119 121 118 116 117 118 118 117 117 117 118 118 117 117 117 118 117 117 117 117 117 117 117 117 117 117 117 118 117 118 118 119
60 90 122 162 94 82 121 152 124 85 110 136 128 109 106 118 125 120 114 114 118 119 118 116 116 117 118 118 117 117 117 117 117 117 117 117 117 117 117 117 117 118 117 118 118
54 80 109 146 157 71 90 115 150 145 89 85 123 141 130 105 99 115 128 125 115 110 113 118 120 118 115 115 116 118 118 117 116 116 117 117 117 117 117 116 117 117 117 117 117
50 73 101 129 169 129 61 96 113 144 158 107 74 101 129 145 132 103 91 110 130 132 120 109 106 113 121 122 119 115 113 115 117 118 118 116 115 115 116 117 117 117 116 116 115
47 66 91 119 144 174 88 65 96 112 136 163 126 71 83 109 132 149 133 98 83 100 126 138 130 112 100 102 113 124 125 118 112 110 112 116 119 118 116 114 114 115 116 117 117
44 62 85 111 136 163 166 63 73 95 113 132 163 154 85 70 97 113 137 154 139 101 79 92 119 137 142 130 108 94 98 114 128 132 124 114 106 106 112 118 122 121 117 113 112
42 56 78 103 127 145 177 126 51 80 94 113 128 155 165 100 62 86 103 117 140 156 135 95 75 86 111 130 143 140 118 96 87 96 116 132 135 126 111 102 100 106 116 125 127
39 52 71 94 116 136 151 176 86 53 78 92 108 124 143 167 128 61 69 92 102 117 139 155 137 95 70 79 100 117 134 143 135 111 87 79 91 112 128 134 130 118 101 90 91
37 49 68 91 114 136 153 176 170 58 64 82 97 115 131 147 174 160 80 61 87 100 113 129 151 166 145 98 72 82 101 116 133 151 154 136 106 84 83 97 117 135 146 146 133
35 45 61 81 101 119 135 147 170 118 43 65 77 91 104 119 130 152 157 95 53 71 86 96 107 120 139 150 128 89 66 73 91 102 114 131 142 134 112 89 75 77 91 111 126
33 42 57 76 96 113 129 143 153 170 80 45 66 77 90 103 117 129 144 164 124 55 58 78 87 98 108 120 139 151 133 89 60 67 87 96 105 119 134 141 132 107 80 68 75
32 40 54 73 92 111 128 143 155 172 161 50 54 68 81 93 107 122 136 148 171 154 72 49 74 84 95 106 117 129 149 164 143 91 59 67 88 98 105 117 132 148 152 133 101
30 38 52 69 88 107 124 140 155 166 190 128 39 61 71 83 96 110 126 140 152 173 179 101 46 66 81 90 101 114 126 140 161 174 149 93 60 68 87 97 105 116 130 149 161
29 36 49 65 83 101 119 136 151 165 178 196 85 43 63 73 84 98 113 128 143 155 171 190 135 56 59 76 85 96 109 122 134 147 167 178 150 94 62 70 85 96 105 116 127
26 33 43 57 72 88 103 117 128 138 145 155 139 46 47 56 65 75 87 99 110 121 129 136 153 130 66 48 63 70 78 87 96 105 113 121 137 143 119 82 58 60 73 82 88
25 30 40 53 67 82 96 110 122 132 140 143 155 107 37 49 55 64 73 84 96 107 117 125 130 142 143 87 43 54 63 70 78 87 95 103 110 118 131 138 122 82 53 55 69
24 29 38 51 65 79 93 107 120 131 141 148 152 161 73 38 50 56 65 75 86 98 109 120 129 135 143 155 114 49 47 61 66 75 84 92 101 109 116 124 137 146 128 84 56
23 28 37 49 63 76 90 104 117 130 140 148 155 165 149 45 43 50 58 67 77 89 101 112 123 132 140 147 162 142 66 40 57 63 72 80 89 97 106 115 123 132 145 154 135
23 28 37 48 62 75 89 102 116 129 140 150 159 164 179 119 34 47 52 60 69 80 92 104 116 127 137 146 152 165 166 93 39 52 62 69 78 86 95 104 114 123 131 140 151
22 27 36 48 61 75 88 101 115 128 141 152 161 169 175 186 77 35 49 54 63 72 83 96 109 121 132 142 151 158 169 182 128 47 45 60 66 75 84 93 102 112 121 130 136
22 27 35 47 60 73 86 99 112 126 139 150 161 170 177 190 171 43 41 50 57 65 74 86 99 112 124 135 146 155 164 171 190 163 66 37 57 64 71 80 89 99 109 118 125
21 25 34 45 57 69 82 95 108 121 134 146 158 167 177 183 202 126 32 46 50 58 66 76 88 101 114 126 137 147 157 167 173 190 187 95 36 50 60 67 75 84 93 102 109
19 24 31 42 54 66 78 90 103 116 129 142 154 166 176 187 195 205 82 34 47 51 58 66 77 89 102 115 127 139 150 161 172 180 191 204 136 50 47 57 63 70 78 85 91
17 21 28 36 46 57 67 77 88 98 109 119 129 138 145 151 155 163 136 39 39 43 47 52 60 69 79 90 100 110 119 127 134 141 145 148 161 124 54 43 51 54 58 63 67
15 18 24 31 39 47 56 63 71 79 86 93 100 106 111 114 115 112 115 80 34 35 36 39 44 50 57 64 71 78 85 91 96 101 104 105 104 109 105 67 40 41 43 44 46
14 16 21 28 36 43 51 59 66 73 81 88 95 102 108 113 116 117 115 113 56 32 34 35 38 42 48 55 62 69 76 83 90 96 101 105 107 107 107 109 82 43 37 41 42
12 15 20 26 33 40 48 55 62 69 76 83 89 96 103 109 113 116 116 116 101 39 32 32 33 36 41 47 54 60 67 74 81 88 94 99 103 106 107 107 112 97 52 35 40
12 14 19 25 31 38 45 52 59 66 73 79 86 93 100 106 112 115 117 117 120 82 32 32 31 33 36 41 47 54 61 67 74 81 87 93 99 103 107 109 110 114 111 70 41
12 14 18 24 31 38 45 51 58 65 72 78 85 92 98 105 111 116 119 121 121 121 57 29 31 31 33 37 42 48 55 62 69 75 82 89 95 100 105 109 112 114 118 122 99
12 14 18 24 31 38 45 52 58 65 72 78 85 92 98 105 112 117 122 125 126 127 111 39 31 31 31 34 38 44 51 58 64 71 78 84 91 97 103 108 112 116 119 123 128
12 14 18 24 31 38 45 51 58 65 72 78 85 92 98 105 112 118 123 128 130 129 133 89 31 32 31 32 35 40 46 53 60 67 73 80 87 93 100 106 111 116 120 124 126
12 14 18 24 31 38 45 51 58 65 72 78 85 92 98 105 112 118 125 130 133 135 134 135 61 29 31 31 33 37 42 48 55 62 69 75 82 89 96 102 108 114 119 123 125
12 14 18 24 31 38 45 51 58 65 72 78 85 92 98 105 112 119 125 131 135 138 139 141 123 38 31 31 32 34 39 44 51 58 64 71 78 84 91 98 104 111 116 121 123
12 14 18 24 31 38 45 51 58 65 72 78 85 92 98 105 112 119 125 132 137 141 143 143 148 97 31 32 31 32 36 40 46 53 60 66 73 80 87 93 100 106 112 117 119
12 14 18 24 31 38 45 51 58 65 72 78 85 92 98 105 112 119 125 132 138 143 146 148 147 149 64 28 31 31 33 37 42 48 55 62 69 75 82 89 96 102 108 112 115
12 14 18 24 31 38 45 51 58 65 72 78 85 92 98 105 112 119 125 132 139 144 149 151 152 155 135 39 30 31 32 34 39 44 51 57 64 71 78 84 91 97 103 108 110
12 14 18 24 31 38 45 51 58 65 72 78 85 92 98 105 112 119 125 132 139 145 151 154 157 156 163 104 30 31 30 32 36 40 46 53 60 67 73 80 87 93 99 103 106
12 14 18 24 31 38 45 51 58 65 72 78 85 92 98 105 112 119 125 132 139 146 152 156 160 161 160 163 65 26 30 31 33 37 42 49 56 63 70 76 83 90 95 100 102
12 14 18 24 31 38 45 51 58 65 72 78 85 92 98 105 112 119 125 132 139 146 152 158 162 164 164 167 143 35 26 29 31 34 39 46 53 60 67 73 80 87 92 97 99
12 14 18 24 31 38 45 51 58 65 72 78 85 92 98 105 112 119 125 132 139 146 153 159 163 165 167 165 171 94 23 28 29 33 38 45 51 58 65 72 79 85 91 95 98
