P2
# Criado manualmente em Python
45 45
255
255 255 255 255 255 255 255 255 255 255 255 255 255 255 255 255 255 255 255 255 255 255 255 255 255 255 255 255 255 255 255 255 255 255 255 255 255 255 255 255 255 255 255 255 255
255 255 255 255 255 255 255 255 255 255 255 255 255 255 255 255 255 255 255 255 255 255 255 255 255 255 255 255 255 255 255 255 255 255 255 255 255 255 255 255 255 255 255 255 255
255 255 255 255 255 255 255 255 255 255 255 255 255 255 255 255 255 255 255 255 255 255 255 255 255 255 255 255 255 255 255 255 255 255 255 255 255 255 255 255 255 255 255 255 255
255 255 255 255 255 255 255 255 255 255 255 255 255 255 255 255 255 255 255 255 255 255 255 255 255 255 255 255 255 255 255 255 255 255 255 255 255 255 255 255 255 255 255 255 255
255 255 255 255 255 255 255 255 255 255 255 255 255 255 255 255 255 255 255 255 255 255 255 255 255 255 255 255 255 255 255 255 255 255 255 255 255 255 255 255 255 255 255 255 255
255 255 255 255 255 255 255 255 255 255 255 255 255 255 255 255 255 255 255 255 255 255 255 255 255 255 255 255 255 255 255 255 255 255 255 255 255 255 255 255 255 255 255 255 255
255 255 255 255 255 255 255 255 255 255 255 255 255 255 255 255 255 255 255 254 254 253 253 253 253 253 253 254 254 254 255 255 255 255 255 255 255 255 255 255 255 255 255 255 255
255 255 255 255 255 255 255 255 255 255 255 255 255 255 255 255 254 254 253 252 251 250 249 249 249 249 250 251 252 253 254 254 255 255 255 255 255 255 255 255 255 255 255 255 255
255 255 255 255 255 255 255 255 255 255 255 255 254 254 253 253 252 250 249 248 246 244 243 243 243 243 244 246 248 250 252 253 254 255 255 255 255 255 255 255 255 255 255 255 255
254 254 253 253 253 254 254 254 254 254 253 252 252 251 250 249 247 246 243 241 239 237 235 234 234 235 236 239 242 245 248 250 252 253 254 255 255 255 255 255 255 255 255 255 255
250 250 250 250 250 250 251 251 251 251 250 249 247 246 244 242 240 238 235 230 216 204 192 187 184 185 192 211 232 237 242 246 248 250 252 253 253 254 254 254 254 255 255 255 255
245 245 244 245 245 245 246 246 246 245 244 242 241 239 237 234 231 224 203 183 170 166 168 165 162 164 169 174 190 217 233 239 242 245 248 249 250 251 251 251 251 252 252 252 252
237 237 237 237 238 238 239 240 239 239 237 234 231 216 200 188 183 170 161 158 154 153 152 150 154 158 162 164 161 160 198 227 234 238 241 243 245 246 246 246 247 247 248 248 248
215 214 211 203 202 205 218 228 227 219 206 188 166 150 142 140 139 142 144 140 141 139 140 140 140 142 143 144 145 145 154 179 204 223 232 235 237 238 239 240 240 241 241 242 242
178 174 172 176 161 147 157 163 156 149 148 139 137 136 133 133 134 131 130 132 133 132 133 134 135 135 135 133 135 135 139 147 160 163 183 208 218 221 214 212 224 231 232 233 233
154 151 150 149 136 129 129 126 126 135 136 134 129 130 127 126 126 125 123 126 126 127 129 131 132 131 130 129 130 128 134 142 147 146 143 146 152 159 159 158 158 165 167 169 182
136 132 125 123 124 123 125 126 125 122 124 122 123 126 122 122 124 122 121 122 122 125 127 131 131 128 126 125 127 128 131 135 141 142 142 141 143 143 145 142 136 133 131 133 138
123 121 121 122 122 123 121 121 118 118 122 124 124 125 123 123 122 121 119 118 120 124 126 131 127 125 123 120 122 123 127 132 137 139 141 143 142 140 138 136 134 131 129 125 123
120 120 119 118 117 117 115 116 118 122 125 127 129 128 127 127 124 121 119 120 122 124 126 132 131 124 122 116 117 118 124 129 134 137 139 140 135 132 129 128 126 125 125 120 120
115 114 114 115 116 117 120 122 125 127 130 132 133 132 132 131 129 126 125 127 130 134 133 136 135 126 116 109 113 113 118 127 132 135 137 136 134 130 126 123 122 120 119 119 119
115 116 118 121 123 126 128 128 129 130 133 135 136 137 136 135 133 131 129 131 133 136 139 136 126 122 115 108 106 111 114 124 130 133 135 135 133 131 127 124 120 116 116 117 117
118 119 120 121 124 126 128 129 131 134 136 138 141 142 142 141 140 137 134 135 136 136 136 140 139 131 124 118 109 109 118 124 129 131 132 132 126 121 120 116 117 117 117 117 117
118 119 121 123 127 131 134 136 137 138 140 143 146 148 149 149 148 146 143 144 143 144 144 145 147 144 135 129 124 120 123 126 128 129 131 131 125 112 111 107 103 107 113 113 114
124 126 130 134 137 139 141 141 141 140 138 141 145 150 152 153 152 151 148 146 145 144 144 145 146 146 142 141 138 137 132 126 128 129 130 129 127 117 109 112 102 100 108 112 110
135 137 139 141 143 145 147 147 146 147 147 150 153 156 158 159 158 155 152 147 145 142 141 142 143 145 147 146 144 142 138 133 129 128 128 129 127 124 110 108 103 102 107 111 112
141 142 144 146 148 150 151 151 152 153 156 158 160 161 162 162 161 158 153 148 144 141 140 141 143 145 146 148 148 148 145 139 136 133 130 134 133 130 119 108 104 105 110 110 114
147 148 150 151 153 154 155 156 157 158 159 161 163 164 165 164 162 159 153 148 143 140 138 139 142 144 145 150 151 151 149 145 142 140 139 139 141 140 138 131 125 122 121 123 123
152 152 153 155 156 157 158 158 159 160 162 163 164 165 165 164 162 159 154 146 142 138 136 136 138 143 144 148 151 151 149 147 144 144 143 144 145 145 145 144 141 137 135 134 133
155 155 156 156 157 158 159 160 160 161 163 164 164 165 164 163 160 157 152 145 141 138 135 136 137 140 143 148 150 151 150 149 147 146 147 148 149 149 149 147 146 144 143 141 139
156 157 157 157 158 158 159 160 160 161 162 162 162 162 161 159 157 151 146 141 139 136 134 135 137 140 143 148 150 152 151 151 150 149 149 150 152 153 153 153 152 151 149 148 146
157 157 157 158 158 158 159 159 159 159 159 159 159 158 156 154 147 144 145 140 137 134 133 132 134 138 141 147 150 152 152 152 151 150 151 152 154 154 155 155 155 155 154 153 152
157 157 157 157 157 157 157 157 157 156 156 155 154 152 150 146 141 140 139 137 134 132 130 130 131 133 139 146 149 152 152 152 152 151 152 154 154 155 156 156 157 157 156 155 155
156 156 156 156 156 155 155 154 153 152 150 150 148 145 144 140 140 141 139 136 132 129 127 127 129 132 138 145 149 150 151 152 152 153 154 155 155 156 156 156 157 157 157 156 156
154 154 154 154 153 153 151 150 148 146 144 142 140 138 136 135 136 135 134 131 128 126 124 125 126 130 135 141 146 148 150 152 152 153 154 154 155 156 156 156 157 157 157 156 156
150 151 151 150 149 148 147 144 142 138 135 132 131 131 132 133 134 134 131 128 127 124 122 123 124 127 131 138 143 145 147 151 151 152 154 155 154 155 156 156 156 156 156 156 155
148 147 146 145 144 144 139 133 129 126 124 125 126 129 129 129 130 129 126 126 123 122 122 122 123 126 130 137 142 144 146 149 150 152 154 155 155 155 155 155 155 156 155 155 155
141 141 140 137 137 134 127 119 118 117 116 117 119 123 122 121 123 123 122 121 120 120 120 122 124 126 129 134 140 143 146 148 150 152 154 155 155 155 155 156 156 156 156 156 155
131 131 131 127 122 119 115 111 109 109 109 110 112 114 116 119 122 120 118 116 117 119 122 125 127 129 131 136 141 144 146 148 149 150 152 153 154 154 155 155 156 156 156 155 155
123 120 117 115 112 109 107 104 103 103 103 105 106 109 112 114 115 114 112 110 112 118 123 128 130 133 138 142 144 145 145 146 148 149 151 152 153 154 154 154 154 155 155 155 155
113 111 110 108 105 104 102 100 101 100 101 103 104 106 108 108 109 109 109 110 113 118 124 130 133 139 143 144 145 145 145 145 146 147 149 151 152 153 153 153 153 154 153 153 154
105 105 104 103 102 101 100 100 100 100 101 102 102 104 105 106 107 106 107 110 114 119 125 132 137 141 142 143 143 143 143 143 144 145 146 148 149 150 151 151 151 151 151 151 151
100 100 100 100 101 102 101 102 101 101 101 102 102 103 105 105 106 108 110 111 114 119 125 133 137 140 142 142 141 141 140 140 142 142 144 146 147 148 148 148 147 147 147 147 147
97 97 97 98 99 101 102 104 105 106 106 105 104 104 106 106 107 109 110 113 117 122 127 133 136 140 141 140 139 138 138 139 140 141 143 144 145 146 147 146 145 145 144 144 144
95 95 95 96 97 100 104 109 112 112 111 108 106 106 109 110 111 112 117 122 121 124 129 135 137 139 139 138 137 136 136 138 138 140 142 143 144 145 145 144 143 143 142 142 143
95 95 93 94 96 101 105 110 113 112 110 110 107 107 112 115 116 119 124 124 122 129 134 137 138 139 137 136 136 135 135 137 138 139 141 143 143 144 144 142 142 142 141 141 141
