P2
# Criado manualmente em Python
45 45
255
99 100 94 91 94 93 87 111 154 115 141 180 200 202 194 167 160 111 76 80 85 84 121 189 192 196 201 195 154 197 170 143 116 115 159 193 201 202 202 159 135 169 182 193 196
132 141 149 130 95 91 90 86 111 154 147 182 155 137 145 154 110 65 63 64 65 68 86 150 209 210 209 172 173 211 199 203 183 154 194 207 209 209 214 191 131 174 191 196 198
181 191 190 191 112 93 119 108 70 62 104 96 51 54 56 64 57 63 63 63 64 66 69 72 115 176 162 135 168 196 205 205 216 209 198 205 207 207 212 172 131 185 185 190 195
190 198 198 197 111 141 177 175 157 62 84 56 56 58 58 55 58 59 59 58 58 61 65 70 72 82 114 137 149 188 205 214 218 217 207 207 211 207 210 136 146 190 183 190 197
189 194 201 160 121 179 174 192 149 83 90 48 52 53 50 79 112 57 57 57 55 56 59 63 68 71 82 97 136 189 205 217 218 218 214 210 211 210 173 78 161 189 188 192 199
174 186 175 102 160 177 194 168 59 77 65 47 49 50 57 134 103 52 56 54 53 54 57 60 64 67 70 75 89 154 203 207 215 218 215 210 215 177 72 52 165 188 191 195 201
182 191 184 146 172 188 142 45 47 54 51 47 49 45 95 144 60 56 57 54 53 54 56 58 61 65 68 72 74 85 173 208 209 213 216 213 219 109 52 55 151 190 188 198 203
179 189 193 176 192 133 35 48 65 50 50 48 47 62 150 103 52 58 57 55 54 55 56 58 60 64 67 71 76 78 105 183 206 213 203 173 170 160 123 150 187 195 193 199 205
177 188 186 114 96 35 51 89 51 45 47 52 46 105 175 80 59 59 58 60 57 56 57 59 61 65 68 72 73 76 78 99 166 141 135 150 174 198 204 198 200 206 204 202 204
175 192 144 49 37 36 141 89 43 51 52 51 68 155 177 81 65 62 61 64 64 57 59 60 62 66 74 75 79 90 79 75 67 57 102 146 185 196 203 206 207 210 208 206 204
191 200 181 157 64 83 181 93 50 55 54 65 127 178 199 103 62 65 63 62 65 63 60 63 65 65 100 147 143 149 92 105 73 51 72 145 182 197 207 209 210 206 205 212 203
198 203 203 186 86 136 172 135 61 80 121 138 155 172 194 171 89 64 65 71 72 65 60 63 67 66 106 182 177 158 88 90 76 58 57 141 183 197 210 211 207 206 201 191 192
198 205 198 124 45 157 163 169 108 144 169 172 179 184 197 197 172 77 64 89 107 63 62 64 67 68 105 140 121 109 76 68 73 66 53 131 181 196 213 212 206 195 179 186 195
181 195 158 54 52 167 166 175 170 167 173 185 195 201 202 201 201 107 61 108 164 75 61 65 67 68 80 86 81 79 68 104 126 69 51 128 177 194 213 210 204 184 196 195 193
151 154 163 137 72 162 158 171 171 171 183 192 201 205 206 210 202 107 67 101 178 101 59 68 68 69 73 76 76 75 61 135 139 59 44 114 166 189 209 216 198 204 194 188 195
144 161 157 112 48 150 157 162 162 171 186 194 204 207 206 206 206 116 66 85 133 102 63 63 65 67 74 75 74 68 89 140 81 40 43 89 138 167 192 198 204 203 174 187 196
78 89 70 33 47 115 129 103 121 174 183 195 204 208 210 208 209 121 64 72 76 80 78 101 138 108 67 75 73 75 133 106 60 50 35 54 63 141 171 187 216 216 210 194 191
58 36 36 62 44 44 68 41 101 179 183 195 204 209 212 209 208 108 60 68 69 75 82 95 155 168 76 77 76 91 113 76 84 110 31 33 63 192 209 211 218 218 220 213 184
127 97 76 49 28 49 42 34 117 183 181 195 205 210 211 210 206 94 58 67 69 77 81 75 136 191 106 71 80 79 72 74 62 97 44 34 89 193 206 214 218 221 220 212 168
112 91 55 29 31 33 32 30 133 188 185 194 205 210 211 210 203 86 57 66 68 68 89 135 155 190 151 82 111 116 132 86 86 164 155 80 81 184 197 208 214 218 223 197 115
78 60 32 27 26 26 28 33 150 188 189 198 206 210 211 212 200 70 41 57 63 83 150 181 171 179 190 123 124 141 173 177 167 184 194 170 89 164 184 195 203 211 217 173 104
63 42 28 25 23 24 24 46 170 187 192 201 208 212 211 215 190 65 102 144 143 131 133 163 175 174 199 165 138 149 175 183 181 182 200 208 109 105 163 165 165 161 167 139 84
42 34 27 23 23 25 24 55 177 188 195 204 209 212 211 219 153 108 184 182 180 175 112 101 168 183 199 195 163 162 154 123 158 184 190 215 142 55 109 100 83 73 77 61 56
32 30 25 22 23 25 24 60 178 189 197 206 210 211 210 212 114 157 181 175 184 169 162 141 178 189 200 201 181 177 138 145 178 193 194 199 148 35 60 52 44 51 51 57 61
27 26 24 22 24 27 25 70 182 190 199 207 210 210 212 189 109 182 180 175 177 174 160 173 181 189 190 185 181 167 145 171 185 197 201 205 127 31 35 37 43 48 53 54 57
24 24 23 23 25 29 26 82 187 190 199 207 209 208 211 146 129 186 174 177 175 177 183 184 187 192 164 159 176 182 185 190 195 198 205 209 132 29 29 41 43 46 54 54 88
23 23 23 25 27 29 28 100 188 190 200 206 207 205 197 105 139 172 167 170 174 179 182 187 189 196 194 168 178 187 192 200 206 204 203 208 142 28 37 39 41 46 53 74 162
23 24 24 26 30 39 45 119 187 191 200 204 204 200 170 81 135 160 162 164 170 176 181 185 189 198 200 173 172 181 189 199 206 202 198 202 138 28 39 39 43 49 52 112 181
22 24 26 33 49 63 54 137 186 192 199 202 199 192 152 71 129 155 157 159 163 170 175 181 186 188 190 172 165 175 182 189 195 195 192 196 126 28 37 41 45 50 60 126 111
22 23 30 41 67 67 54 155 187 193 199 200 195 184 141 59 115 136 140 149 154 161 166 173 178 179 177 166 162 169 176 183 189 190 185 191 110 28 38 41 45 48 67 108 67
22 24 29 41 73 96 74 162 187 194 199 198 193 179 137 44 96 123 115 130 139 148 156 164 170 170 168 161 160 164 169 177 182 183 181 185 87 28 39 40 43 46 60 75 55
22 24 26 33 59 88 92 169 187 195 199 197 190 178 132 37 67 115 112 120 126 139 146 153 161 163 159 152 156 160 164 172 176 178 177 180 73 27 39 39 39 42 48 51 46
22 23 26 32 52 46 84 176 188 196 200 197 188 180 119 33 43 87 111 117 120 133 139 142 151 155 149 142 148 154 160 168 173 174 176 180 62 26 36 36 35 38 41 42 40
36 35 27 29 40 49 107 178 189 197 200 197 191 183 100 28 32 63 96 109 115 125 134 136 140 147 142 134 142 148 156 165 171 174 177 178 61 24 27 33 32 33 35 35 34
56 66 48 31 31 36 120 181 189 199 201 199 194 183 76 25 27 47 85 102 111 116 128 132 133 141 139 130 138 147 155 163 169 174 176 175 55 34 31 24 27 28 29 30 30
88 79 65 54 49 52 142 180 190 199 201 198 196 172 44 21 23 38 73 95 107 110 122 128 126 134 130 121 132 144 154 164 169 173 177 169 45 30 49 22 23 26 27 28 28
149 141 115 96 84 87 158 176 191 199 200 198 201 140 24 20 21 31 60 83 101 107 119 125 122 128 120 110 122 137 150 161 167 171 176 151 32 23 23 22 26 30 29 28 29
183 183 163 138 97 104 164 176 191 200 201 200 203 101 21 19 20 26 48 75 95 102 116 123 120 124 110 96 100 113 135 153 161 166 176 104 31 26 22 21 29 35 32 30 32
192 196 183 164 118 126 170 180 192 201 201 202 198 60 20 18 19 23 37 62 88 94 106 122 116 116 100 76 81 96 122 146 156 174 136 58 78 75 45 29 25 32 36 36 37
204 212 195 161 99 122 164 179 194 202 203 211 172 35 24 21 20 22 29 51 81 88 88 105 104 101 79 57 60 73 102 142 151 132 70 66 117 158 126 82 62 42 37 42 43
203 207 192 160 132 149 172 184 196 201 202 206 99 36 26 21 19 21 26 36 69 86 72 76 78 79 54 39 43 46 53 68 143 163 135 87 106 175 208 191 181 164 90 53 46
201 204 204 207 211 210 209 209 210 209 208 201 163 146 121 87 47 25 25 26 38 55 50 60 64 48 33 30 31 32 29 30 83 107 76 70 85 121 160 179 187 203 131 71 58
174 206 213 213 213 213 214 215 215 215 215 214 216 215 215 211 193 163 117 59 29 30 33 47 47 37 34 30 27 26 26 27 30 37 54 59 65 63 66 72 78 90 84 78 81
149 207 215 217 218 219 219 219 219 219 218 218 217 216 214 213 214 216 213 204 113 40 43 46 49 48 45 43 42 41 39 56 83 65 61 58 57 61 60 61 64 63 80 148 162
172 203 214 217 220 222 222 222 222 221 220 218 214 211 210 211 212 210 202 201 187 153 111 66 51 50 47 45 45 48 58 99 142 102 52 57 59 86 65 62 70 74 116 178 188
