P2
# Criado manualmente em Python
45 45
255
206 208 210 213 216 219 223 225 228 230 231 233 234 235 236 237 238 237 237 235 233 231 228 224 223 223 222 219 213 209 213 217 219 221 222 223 222 224 224 224 223 222 222 220 219
204 205 208 210 213 216 219 222 225 227 229 230 232 233 234 235 235 235 234 232 229 228 226 226 215 196 180 166 151 154 166 178 194 212 221 220 223 208 198 177 179 183 177 191 211
202 203 205 208 211 213 216 218 220 222 224 225 227 228 228 229 230 229 227 227 225 214 197 178 167 138 129 130 136 143 139 137 145 150 177 200 174 136 121 119 122 125 125 130 139
200 201 203 206 208 211 213 215 216 218 219 220 220 220 219 219 218 219 218 204 159 131 121 114 114 121 120 122 122 129 127 127 125 119 119 120 111 109 111 115 119 120 128 126 125
198 199 201 203 206 208 210 212 213 215 215 215 214 212 210 211 202 183 170 130 108 106 108 111 109 114 120 120 122 121 118 123 125 120 115 113 113 115 118 114 127 127 129 120 123
197 198 200 202 204 206 208 209 211 211 211 210 207 205 201 173 127 114 107 102 103 99 99 102 103 105 108 116 119 117 117 117 117 120 120 118 119 126 117 124 130 137 140 131 126
196 198 199 202 203 205 206 207 208 208 207 204 202 192 161 113 104 106 105 102 98 98 100 102 103 107 112 118 122 118 120 123 124 120 120 122 129 145 141 149 139 133 149 149 143
196 197 199 200 202 202 203 203 203 202 200 197 189 136 109 108 103 100 100 99 98 99 100 101 103 106 110 117 121 119 123 128 136 136 144 148 138 143 151 158 146 156 170 161 174
195 196 198 199 200 199 198 196 197 197 194 193 168 111 106 100 97 97 96 96 97 98 99 101 103 104 108 113 117 120 126 132 134 137 146 151 149 142 143 159 148 163 170 188 190
195 195 196 197 197 196 195 192 176 157 139 137 120 104 99 97 96 95 96 97 99 101 104 105 106 110 115 115 120 127 134 138 149 160 157 151 144 146 146 140 138 163 184 193 199
193 194 194 194 192 192 183 152 121 107 105 100 94 94 93 93 94 96 99 102 106 109 113 115 111 117 118 120 129 141 148 157 160 172 174 167 165 157 151 153 152 169 175 190 201
191 192 192 190 190 177 132 111 110 100 96 94 95 94 94 95 96 99 103 109 111 111 111 111 113 126 127 126 134 143 146 151 153 163 170 167 161 159 157 146 154 165 179 169 163
188 189 188 187 187 176 132 127 110 123 111 106 105 93 92 96 98 102 108 113 116 118 122 121 113 142 137 125 144 158 165 182 181 187 193 191 178 178 166 139 150 146 142 118 118
184 186 185 183 181 182 157 145 143 143 110 102 98 95 95 97 101 107 112 116 119 119 122 127 118 136 141 126 166 169 189 195 193 198 206 205 202 200 163 134 137 122 120 115 116
180 182 181 182 178 176 147 121 118 106 95 94 94 96 97 100 104 109 115 120 125 130 124 119 117 117 119 144 170 171 194 201 202 205 207 206 201 200 158 124 124 113 111 113 118
173 175 173 174 174 174 138 120 108 100 98 95 96 98 100 103 107 113 119 125 126 129 126 131 142 123 111 146 168 167 173 171 181 194 203 199 196 155 122 112 109 108 107 106 104
166 167 167 163 163 166 137 107 101 99 98 99 101 103 106 109 113 117 122 125 128 129 129 124 129 120 113 120 140 148 145 151 163 166 166 166 172 139 113 117 119 109 104 102 101
157 157 159 155 150 127 110 105 101 99 99 101 103 108 112 116 120 121 124 124 130 133 131 129 121 119 114 118 116 121 128 134 146 154 155 152 137 136 115 108 106 102 101 100 99
148 150 144 144 132 113 103 102 100 101 104 104 108 112 115 117 119 121 121 123 124 127 127 125 129 117 111 114 114 115 118 121 126 134 135 125 117 114 108 107 108 103 101 101 100
137 131 127 114 107 104 102 100 101 106 109 109 110 114 117 119 123 124 123 125 122 123 123 122 118 111 110 112 112 112 114 117 119 124 126 124 122 121 112 111 112 108 107 104 103
137 121 120 120 108 101 101 101 104 110 117 119 121 122 123 126 128 128 126 125 122 118 116 115 114 110 108 110 110 111 113 114 116 121 123 123 124 120 112 116 116 113 111 108 106
131 127 123 110 103 101 102 108 112 120 125 134 138 129 125 128 129 128 126 127 125 119 117 114 112 110 109 111 111 112 115 117 118 121 125 126 127 126 115 126 129 119 124 121 113
136 136 125 112 107 107 110 114 116 124 125 127 140 133 126 129 131 127 127 129 126 119 117 113 112 109 110 112 114 115 118 121 123 127 128 128 133 135 123 134 147 133 136 130 121
128 128 129 127 116 112 121 118 130 134 130 128 131 132 131 132 131 129 126 130 131 121 124 116 114 111 113 117 117 119 121 125 127 130 132 135 137 142 129 143 157 142 143 138 127
128 127 124 122 111 109 127 125 137 147 137 126 127 134 134 135 139 138 138 146 147 127 127 123 116 114 118 123 121 123 127 132 136 138 146 148 149 154 132 150 172 169 168 154 141
123 122 121 121 123 117 129 142 142 145 130 122 127 126 133 139 136 137 144 150 149 132 138 131 127 116 121 131 126 129 128 133 137 145 154 156 160 159 130 152 172 170 175 155 146
118 119 115 114 118 123 131 134 132 135 129 132 138 141 143 150 152 150 149 148 150 138 142 142 138 125 125 139 132 132 130 126 127 137 156 154 159 159 129 149 156 154 145 121 110
122 114 113 116 114 108 122 130 123 121 124 125 127 131 135 139 150 153 155 158 162 147 147 171 154 130 130 146 130 129 131 134 129 141 153 151 152 152 123 142 141 121 105 94 93
126 125 114 118 117 112 114 121 121 120 114 114 120 119 122 129 131 136 140 145 152 145 145 177 170 134 131 142 121 121 123 130 137 150 150 148 145 134 115 122 106 96 92 89 87
128 131 130 125 122 126 122 115 123 125 118 117 124 126 116 114 128 124 126 131 136 140 142 171 171 153 129 136 115 115 115 118 119 112 118 119 118 111 102 93 88 83 83 85 85
153 151 148 145 126 129 132 124 120 118 121 126 120 120 122 108 114 111 114 120 126 133 137 159 156 141 130 148 116 107 105 110 107 101 101 94 92 94 89 82 82 81 80 80 79
160 166 162 170 163 127 113 126 123 114 117 114 109 94 92 94 94 99 103 109 121 127 132 160 162 147 128 152 119 104 106 106 102 101 100 93 89 84 80 78 79 77 76 75 74
161 157 160 161 170 159 127 119 129 124 117 105 86 79 78 85 89 97 102 104 117 122 128 157 147 134 128 151 108 102 100 91 88 83 85 85 80 75 74 73 73 73 73 72 72
156 149 147 155 156 166 172 154 147 135 131 130 96 96 89 79 85 96 104 111 124 127 128 159 145 139 129 153 115 102 94 82 75 73 82 78 73 70 69 70 70 70 69 69 68
143 143 142 149 155 164 172 179 169 153 144 139 127 93 85 78 79 89 102 107 119 128 131 160 166 157 130 155 153 134 126 115 107 90 78 70 67 65 64 65 66 66 65 64 63
110 118 128 133 155 166 171 173 171 171 163 160 139 105 100 102 106 112 122 132 143 148 133 158 172 157 130 146 175 175 175 173 136 84 71 68 66 63 62 63 66 65 62 62 62
112 106 121 121 142 149 171 178 177 171 181 175 166 167 171 175 178 178 182 182 181 170 151 160 172 170 164 164 174 180 186 157 98 84 74 69 66 64 63 62 65 63 60 59 59
95 95 117 130 139 148 159 169 170 179 183 170 178 188 189 192 195 196 196 194 192 189 188 182 178 176 174 170 164 159 154 114 90 86 77 69 66 64 64 62 59 60 60 58 56
82 96 110 123 144 148 155 164 163 170 176 163 157 175 190 190 190 187 187 183 178 173 168 164 160 155 151 147 142 135 127 114 99 91 81 74 70 66 66 65 63 62 62 61 61
80 85 90 98 128 146 142 149 153 158 163 167 167 168 180 179 183 183 184 183 175 169 166 161 156 153 150 148 146 143 138 132 125 118 112 106 101 99 97 96 94 94 93 92 92
77 84 96 95 116 134 134 137 147 160 166 174 178 179 180 179 184 188 185 186 185 181 177 177 173 170 166 160 155 152 149 145 141 138 135 132 128 125 123 121 120 119 117 116 115
76 85 101 124 126 123 125 132 141 136 135 144 162 167 163 163 173 170 171 174 171 170 168 171 172 170 171 167 162 164 161 156 152 150 148 147 145 143 142 141 139 138 136 135 134
111 108 108 105 102 103 105 106 112 118 113 115 136 144 153 148 149 154 163 165 161 161 160 165 163 159 164 164 165 168 171 169 167 167 161 159 156 156 155 154 152 150 149 148 147
113 96 85 85 81 85 88 82 85 93 92 95 108 112 119 129 139 142 156 154 149 150 153 155 151 155 160 164 167 168 172 174 173 174 175 173 170 171 170 168 167 166 165 164 163
86 84 85 87 85 84 90 93 95 96 101 102 108 115 113 107 121 135 148 143 146 152 151 152 150 146 149 151 160 164 171 176 175 175 178 183 184 185 185 184 182 179 176 174 172
