P2
45 45
255
149 229 247 253 255 254 254 252 249 252 255 255 254 254 254 254 226 196 187 176 174 174 176 177 176 176 173 168 159 154 151 143 139 140 139 140 143 144 143 144 143 145 146 143 142 
142 231 253 252 252 255 255 253 250 251 221 232 255 242 238 237 241 237 214 190 181 175 170 163 160 161 161 159 155 155 153 151 149 146 144 144 140 144 147 147 149 149 149 148 148 
207 248 250 252 253 253 253 253 251 254 133 130 249 243 238 236 240 246 249 243 238 236 222 219 191 171 163 159 157 157 157 151 149 148 147 146 144 144 146 146 146 147 147 145 145 
237 249 252 254 250 248 249 251 249 248 134 91 217 253 247 248 243 238 230 228 235 243 246 252 250 244 236 234 225 213 213 202 176 164 161 157 155 152 150 147 146 148 149 150 153 
191 250 248 250 246 251 252 250 253 217 155 147 219 250 247 245 241 242 243 240 242 240 237 240 248 253 255 250 247 235 221 206 191 184 182 180 173 170 169 164 161 161 158 157 155 
217 243 247 250 252 251 251 248 255 175 188 165 202 255 250 253 251 243 246 250 247 239 237 239 236 237 238 237 243 243 241 229 216 210 201 193 189 184 186 182 183 184 185 182 178 
239 249 250 248 246 247 252 253 254 163 112 118 219 255 249 251 252 249 247 253 253 253 253 248 242 241 238 239 244 244 240 242 240 243 236 228 223 213 208 201 194 192 191 192 196 
242 247 245 241 247 254 218 186 255 208 107 162 158 219 251 252 250 252 250 245 242 244 249 253 248 247 242 241 241 241 236 241 239 241 248 246 249 242 241 236 221 208 198 187 183 
227 242 243 243 251 251 125 146 254 228 225 224 91 206 255 253 254 248 244 233 219 217 228 237 249 251 246 247 249 251 254 244 240 242 244 243 243 240 236 232 229 223 214 206 200 
240 243 244 246 250 251 125 167 255 245 255 244 146 221 255 252 254 252 250 250 243 229 222 218 231 244 245 243 248 249 248 251 250 246 240 234 228 211 202 198 197 195 197 193 190 
237 246 241 246 250 239 161 138 242 254 254 232 117 201 228 251 255 254 254 255 253 250 248 229 223 227 231 240 246 250 253 251 254 253 253 254 252 241 233 224 213 206 200 195 195 
189 201 223 235 250 178 182 188 191 255 250 182 127 198 174 246 251 249 252 253 254 254 252 243 230 218 206 207 214 220 232 244 249 250 254 251 249 249 242 231 224 217 207 194 190 
168 168 182 224 253 153 125 135 174 255 248 159 152 168 166 215 249 246 251 251 250 248 250 248 247 231 224 215 216 216 200 211 219 228 235 243 248 254 249 247 246 242 244 231 213 
170 175 182 209 231 177 99 102 189 255 246 184 130 158 202 187 255 250 251 252 247 247 251 252 250 251 254 255 255 244 220 218 215 221 224 231 238 242 244 248 253 255 255 255 254 
170 172 172 176 192 169 100 111 197 250 246 198 135 152 219 204 248 243 245 252 251 249 250 251 250 247 251 254 255 254 250 241 237 232 233 237 239 235 225 232 237 237 245 248 252 
163 164 167 168 177 180 106 112 203 245 255 196 110 110 180 228 231 251 251 252 253 254 252 251 250 253 253 252 249 252 253 243 236 237 240 244 249 252 250 251 248 242 236 219 211 
182 169 169 172 175 183 142 157 195 202 240 196 143 111 162 239 224 254 249 250 251 254 248 243 241 239 239 242 239 222 230 240 247 250 248 240 232 228 228 228 224 224 229 235 226 
200 180 167 164 161 149 161 165 170 168 194 185 112 92 156 254 251 252 251 249 248 248 246 242 242 243 247 249 247 236 231 221 216 221 236 242 242 235 241 241 234 240 246 249 251 
181 188 178 163 166 155 147 148 166 166 199 213 76 125 202 246 245 246 247 245 245 246 250 252 251 255 253 246 243 243 244 244 242 232 232 242 240 242 245 245 249 249 238 228 222 
169 165 164 160 160 156 138 148 167 168 170 169 102 148 190 226 231 245 249 246 248 249 253 254 248 251 251 249 252 252 251 252 255 249 229 219 210 200 198 196 200 197 191 187 182 
163 164 165 167 169 170 119 122 171 168 167 176 125 126 143 198 221 237 245 249 253 253 250 249 249 248 251 254 255 254 253 252 249 250 240 236 231 217 206 190 175 174 178 179 187 
164 165 164 167 169 168 117 111 167 167 166 176 132 109 142 182 184 194 204 218 234 244 246 252 245 247 253 255 254 253 253 250 249 252 252 250 251 252 249 234 218 211 222 201 191 
160 160 160 159 159 159 120 127 167 166 167 177 146 101 154 175 172 179 182 181 190 228 242 243 247 252 255 254 252 250 253 252 253 253 254 252 249 252 248 247 254 251 247 236 231 
160 158 159 159 151 146 131 123 155 160 157 152 154 156 168 173 174 179 179 182 198 223 238 242 249 248 249 252 253 252 252 250 250 249 253 252 251 252 252 253 251 246 243 247 249 
170 168 168 168 168 167 158 160 165 166 163 160 155 165 167 170 172 171 177 195 210 229 239 247 250 244 247 251 252 252 249 250 253 254 250 250 249 249 250 253 253 248 249 253 252 
165 168 169 169 168 165 160 167 169 168 169 166 159 162 170 172 176 172 173 186 200 206 228 244 243 245 246 247 246 245 247 253 250 250 252 248 246 239 238 239 246 248 244 249 248 
160 158 156 159 163 159 165 173 170 170 165 158 158 164 168 170 170 172 171 173 172 179 204 225 236 243 247 251 251 253 253 243 240 237 226 219 219 208 193 193 194 205 209 211 212 
156 172 201 199 220 224 230 221 221 224 218 207 202 204 203 195 188 187 182 180 181 179 176 197 228 243 233 226 235 234 224 231 227 223 205 193 202 217 208 204 199 185 183 178 185 
155 198 243 239 232 228 224 223 220 228 228 224 229 223 221 224 227 229 222 204 211 226 225 219 216 210 204 191 194 196 199 204 202 195 196 192 195 206 197 213 240 221 211 217 221 
160 166 184 184 183 197 208 215 206 196 199 207 208 206 194 192 198 210 218 212 201 216 220 224 222 221 226 228 217 215 224 221 215 198 195 191 188 190 187 208 226 216 230 236 238 
164 164 164 166 165 163 170 194 212 198 197 191 196 194 185 187 196 204 207 208 210 203 199 196 206 205 200 200 204 209 212 218 212 211 213 209 203 200 215 217 199 200 207 218 219 
168 166 176 185 184 190 185 181 188 187 181 177 185 183 178 183 190 193 189 196 205 199 201 203 200 193 190 187 181 195 201 195 190 187 190 200 206 210 211 207 213 221 215 222 230 
175 174 178 172 172 174 174 179 180 182 177 176 176 187 189 188 186 186 185 192 192 189 189 195 187 188 189 184 191 197 205 207 207 203 209 210 204 198 198 204 209 210 211 214 212 
167 172 166 158 162 168 166 174 179 176 180 186 183 187 187 186 187 192 194 197 198 193 202 202 192 191 190 195 190 186 197 203 203 208 207 210 210 207 208 206 213 220 226 226 227 
168 174 177 167 168 169 171 173 171 173 178 179 178 183 183 180 187 186 184 187 187 185 181 184 190 194 198 197 201 205 203 205 195 192 190 191 198 186 193 206 211 210 216 220 213 
171 173 175 168 161 165 166 168 169 173 172 173 176 179 178 182 181 185 182 177 181 174 175 181 186 190 192 201 206 192 191 191 203 198 201 201 194 194 198 208 199 204 209 209 211 
170 171 170 167 163 155 158 161 164 168 171 170 172 179 179 182 186 185 186 189 191 190 194 190 191 205 200 197 197 190 190 192 196 197 191 192 193 195 194 197 197 198 204 203 199 
168 169 172 171 161 167 164 159 160 165 165 168 169 170 174 178 184 191 188 192 189 185 192 189 196 184 184 183 184 199 196 189 188 196 192 194 193 203 202 193 190 198 207 200 193 
168 167 182 181 173 166 166 167 169 172 171 170 172 176 177 176 178 178 183 181 178 172 173 181 186 182 184 181 184 190 196 200 195 192 195 193 196 192 196 195 194 192 193 192 197 
161 167 168 169 171 171 167 162 163 166 169 176 179 181 182 182 182 176 186 187 189 197 194 182 181 182 183 180 176 166 178 185 182 178 184 185 189 190 183 182 183 191 201 199 190 
152 161 161 165 160 161 176 179 165 162 161 163 167 168 169 176 176 176 176 181 182 180 186 187 185 187 186 184 190 193 192 199 197 193 195 194 192 189 190 192 192 188 185 192 190 
162 162 165 166 161 160 166 169 170 171 167 163 159 163 165 162 164 170 176 179 176 172 179 180 185 186 182 181 193 205 198 196 199 196 203 196 191 190 192 195 195 194 186 182 184 
167 167 167 166 162 163 167 166 165 163 164 181 171 157 160 161 164 169 170 172 173 178 182 184 182 190 183 191 186 183 176 179 184 185 180 184 188 189 193 190 191 189 188 186 192 
166 167 168 165 160 162 167 167 165 163 160 167 185 182 174 166 160 158 160 167 166 172 172 170 177 182 176 177 179 187 185 182 186 187 183 190 189 184 185 186 190 190 183 191 189 
164 164 165 164 162 163 165 165 165 163 161 162 164 172 181 180 181 178 166 167 163 158 158 161 159 162 164 163 165 168 175 175 175 174 174 185 185 185 196 193 194 191 186 185 190 
