P2
276 276
255
6 5 6 5 6 6 5 6 6 6 6 5 5 6 6 6 6 5 6 6 6 6 5 5 6 6 6 6 6 6 6 6 6 6 5 5 6 6 5 6 6 6 7 7 6 6 7 6 6 6 6 5 6 6 7 6 6 6 6 6 6 6 6 6 6 6 5 6 5 6 6 5 5 6 6 6 6 5 6 5 6 5 6 6 5 6 6 6 6 6 6 6 6 6 6 6 6 6 6 5 5 6 5 5 5 6 6 6 6 7 7 6 6 6 6 6 6 7 7 7 5 5 5 6 6 7 7 6 6 6 5 5 6 6 6 6 5 5 5 6 5 6 5 6 6 6 6 6 5 6 6 6 6 6 6 6 6 6 6 6 5 6 6 5 5 5 5 6 6 5 6 5 6 5 5 6 6 6 5 5 6 6 5 6 5 5 5 6 7 6 7 6 6 6 6 6 6 6 6 7 7 7 7 7 7 6 7 7 7 9 9 8 7 6 6 6 3 1 4 9 11 9 5 4 6 7 6 6 7 6 4 6 6 6 6 5 5 5 5 6 5 5 6 5 6 6 6 5 5 5 6 6 5 5 6 6 6 6 6 6 6 6 6 6 6 7 6 6 6 6 6 7 5 6 6 5 
6 6 6 5 5 5 6 5 6 6 6 6 6 5 6 5 6 6 5 5 6 6 6 6 6 6 6 6 6 6 6 6 6 6 6 6 6 6 6 6 7 7 7 6 7 6 6 7 5 5 6 6 7 7 7 6 6 6 6 6 6 6 6 6 5 5 6 6 6 5 5 6 5 5 5 6 5 6 6 6 6 5 6 6 6 6 6 6 6 6 6 6 6 6 6 6 6 5 5 6 6 6 6 5 5 5 5 6 6 7 7 6 6 6 6 6 6 7 6 7 6 6 5 6 6 7 6 6 6 6 5 6 6 6 6 6 5 5 6 6 6 6 6 7 6 6 5 6 6 5 6 6 6 6 6 6 6 6 6 6 6 6 6 5 5 6 6 5 5 5 6 5 5 5 6 6 5 6 6 6 6 6 6 6 6 5 5 6 7 6 6 7 7 6 6 6 6 6 6 7 6 7 6 7 7 7 7 7 6 4 5 7 10 10 7 2 6 6 7 7 6 4 6 8 5 7 7 6 7 7 5 6 7 6 6 6 6 6 5 5 6 6 6 5 5 5 5 6 6 6 5 5 5 6 6 6 6 6 6 6 6 6 6 6 7 7 6 7 6 7 6 6 5 6 6 5 
6 5 5 6 5 6 5 6 5 6 6 6 5 5 6 5 6 6 6 6 6 6 5 6 6 6 6 6 6 6 6 6 6 6 6 6 6 6 6 6 6 6 7 6 6 7 6 6 6 6 5 6 7 6 6 6 6 6 6 6 6 6 6 6 5 5 6 6 6 6 5 5 5 6 5 6 6 6 5 6 6 5 5 6 6 6 6 6 6 6 6 6 6 6 6 6 5 5 6 6 5 5 5 6 5 5 6 6 6 7 7 6 6 6 6 6 6 5 6 6 5 6 6 6 7 7 7 6 6 6 6 5 6 6 6 6 5 6 5 6 6 6 6 6 6 6 6 6 6 5 6 6 6 6 6 6 6 6 6 6 5 6 6 6 5 6 6 5 5 6 6 5 5 5 6 5 6 6 5 6 6 6 7 6 6 6 6 6 7 6 6 6 7 6 6 6 6 7 7 7 6 6 6 7 6 7 6 6 9 7 4 4 5 6 8 10 6 4 2 2 3 7 19 29 6 4 6 6 6 8 8 4 6 7 7 6 6 5 6 5 6 6 6 5 5 5 5 6 5 6 6 6 5 6 6 5 6 6 6 6 6 6 5 6 6 6 6 6 6 6 6 6 6 6 5 5 
6 5 5 5 5 6 5 5 6 6 6 6 5 6 6 6 6 6 6 6 5 5 6 6 6 6 6 6 6 6 6 6 7 6 6 6 6 6 6 7 6 5 6 5 6 6 5 5 6 5 5 6 7 7 7 6 6 6 6 6 6 6 6 6 6 6 5 6 6 6 6 6 6 6 6 5 6 6 5 6 5 6 5 6 6 6 6 6 5 6 6 6 6 6 6 6 5 6 5 6 6 6 6 5 6 6 6 6 6 7 7 6 6 6 6 6 6 6 5 5 5 6 5 6 7 7 6 6 6 6 6 6 5 6 6 6 6 5 5 6 6 7 7 7 6 6 5 5 6 6 6 6 6 6 6 6 6 6 6 6 6 6 6 6 6 6 6 6 7 7 6 7 6 6 6 6 6 6 5 6 6 7 7 7 6 6 6 6 6 7 7 6 7 7 6 6 6 6 6 6 7 7 6 6 6 7 7 7 6 8 9 9 7 4 2 2 5 5 8 18 38 62 71 69 11 4 3 6 6 7 9 5 7 6 6 6 6 6 6 6 6 6 6 5 6 5 5 6 5 6 6 5 5 5 6 6 6 6 6 6 6 6 6 6 6 6 6 6 7 6 7 6 5 6 6 5 
5 5 5 6 5 6 5 6 6 6 6 6 5 6 6 5 6 6 6 5 5 6 6 6 6 6 6 6 6 6 6 6 7 6 6 7 6 6 6 6 6 6 6 6 6 6 6 6 5 6 6 6 6 7 6 6 6 6 6 6 6 6 6 6 5 6 5 6 6 6 5 6 6 5 5 6 6 5 6 5 6 5 6 6 6 6 6 5 6 6 6 6 6 6 6 6 5 5 6 5 6 6 5 5 6 5 6 6 7 6 6 6 6 6 6 5 6 5 5 5 6 6 5 5 7 7 7 6 6 6 6 6 5 6 6 6 6 6 6 6 7 7 7 7 6 6 6 6 6 6 6 6 6 6 6 6 6 6 6 6 6 6 6 6 6 6 6 6 7 6 6 6 7 7 6 7 6 5 6 6 7 6 7 6 6 6 6 6 6 6 6 6 7 7 7 6 6 7 6 7 6 7 7 7 6 6 6 7 4 6 5 3 2 2 6 11 40 61 94 127 151 158 141 120 30 7 2 6 7 7 8 5 7 7 6 6 6 6 6 6 5 5 6 6 6 5 5 6 5 6 6 5 6 6 6 6 6 6 6 6 6 6 6 6 6 7 6 7 6 6 6 7 6 6 5 6 
6 6 5 5 6 6 6 6 6 6 6 6 5 6 6 5 6 5 6 6 6 6 6 6 6 6 6 6 6 6 6 6 7 7 6 6 7 7 6 7 6 5 6 5 5 6 6 5 6 6 6 6 6 7 7 6 6 6 6 6 6 6 6 6 6 6 5 6 6 6 6 6 5 6 6 6 6 6 6 5 5 5 6 6 6 6 6 6 6 6 6 6 6 6 6 6 6 5 6 5 6 6 6 5 5 6 5 6 6 7 6 6 6 6 6 6 5 5 5 6 6 6 6 5 7 6 6 6 6 6 6 5 6 6 6 6 7 7 7 7 7 7 6 6 6 6 6 6 6 6 6 6 6 6 6 6 6 6 6 6 6 6 6 6 6 6 6 6 6 6 7 7 7 7 6 7 6 6 6 6 6 6 7 6 6 6 6 6 7 6 6 6 6 6 7 6 6 7 7 7 6 7 7 7 7 7 6 7 7 6 2 2 7 29 76 119 147 187 224 228 211 194 179 166 69 16 2 6 6 5 6 6 6 6 7 6 7 7 7 7 6 6 6 5 6 5 6 6 6 6 6 6 6 5 5 5 6 6 6 6 6 6 6 6 6 7 7 7 7 6 6 6 6 5 6 5 
5 6 5 5 6 6 6 6 5 6 6 5 6 5 6 5 6 5 5 6 6 6 6 6 6 6 6 6 6 6 6 6 7 6 6 7 6 6 6 6 5 5 6 6 5 5 6 5 6 6 6 6 7 6 7 6 6 6 6 6 6 6 6 6 5 6 6 5 6 6 5 6 6 6 6 6 6 6 6 5 6 6 5 6 6 6 6 6 6 6 6 6 6 6 6 6 6 5 5 6 6 6 6 6 6 6 6 6 7 7 7 6 7 6 6 6 6 6 6 5 6 6 6 6 7 7 7 6 6 6 5 6 6 6 6 6 7 7 7 7 7 6 7 7 6 6 5 6 6 5 6 6 6 6 6 6 6 6 6 6 6 6 6 6 6 6 6 6 7 6 7 6 6 7 7 6 6 6 6 6 6 6 6 7 6 6 6 6 6 6 6 7 7 6 6 6 6 6 7 7 6 7 7 7 6 7 7 7 2 2 6 33 98 168 208 215 233 242 231 197 177 182 189 189 104 25 2 6 6 3 6 6 6 6 6 6 7 7 7 7 5 6 5 6 6 6 6 5 5 6 6 6 6 5 6 5 6 6 6 6 6 6 6 5 6 6 6 6 6 6 6 6 6 6 5 5 
6 6 6 6 6 6 6 6 6 7 7 7 6 6 5 6 6 6 6 6 6 6 6 6 5 6 5 6 5 6 6 6 6 6 6 6 6 6 6 6 6 5 6 6 5 6 5 5 6 6 6 5 6 6 6 6 6 6 6 6 6 6 5 5 6 5 5 6 6 5 6 6 6 5 6 5 5 5 6 6 6 6 6 6 6 5 6 6 6 6 6 6 6 6 6 6 6 7 7 7 6 6 5 6 5 6 5 6 5 6 6 6 5 5 6 6 6 6 6 6 6 5 6 6 5 6 6 5 6 5 6 6 6 5 5 5 6 6 6 6 6 6 6 6 5 6 5 5 6 6 5 6 6 6 6 6 6 6 6 6 5 6 7 6 6 6 5 5 7 7 7 7 7 8 7 7 5 6 6 6 6 6 6 6 6 7 7 7 7 6 6 6 7 6 7 7 7 6 7 6 7 4 7 10 9 7 3 3 3 31 106 190 240 245 230 223 228 202 171 155 158 167 170 168 103 38 12 6 3 8 7 5 6 7 6 5 4 6 6 6 6 5 5 6 6 6 7 7 6 6 5 5 5 5 6 6 5 5 5 5 6 6 5 6 5 5 6 6 6 6 6 6 6 6 6 6 
5 6 6 6 6 6 6 6 6 7 7 6 5 6 6 6 6 6 6 6 5 6 6 6 6 6 6 6 6 6 5 5 6 6 6 6 6 6 6 6 6 6 5 6 5 6 6 5 6 6 6 6 6 6 6 6 6 6 7 6 7 6 5 6 6 6 5 5 6 6 6 6 5 6 6 5 5 6 6 6 6 6 6 6 6 6 6 6 6 6 6 6 6 6 6 6 7 6 6 7 5 6 6 5 6 6 5 6 5 6 6 6 5 6 6 6 7 6 6 5 6 6 6 6 5 5 6 6 6 5 5 6 6 6 6 6 6 6 6 6 6 6 6 6 6 5 6 5 5 5 6 6 6 6 6 6 6 6 6 6 7 6 7 7 6 5 5 5 6 6 6 6 6 6 6 6 6 6 6 6 6 6 6 6 7 6 6 7 6 6 6 6 7 7 7 7 7 6 7 7 5 12 6 3 9 0 2 3 60 124 212 254 233 188 171 180 184 169 152 144 146 148 142 133 107 49 27 13 2 5 8 6 6 7 6 5 5 5 5 6 5 5 6 6 6 6 6 6 5 6 5 5 5 6 6 5 6 6 6 6 6 6 6 5 5 6 6 6 6 6 5 6 6 6 6 6 
6 6 6 6 6 6 6 6 6 6 7 7 5 6 6 6 6 6 6 6 6 6 6 6 6 6 6 5 6 6 6 5 6 6 5 6 5 5 5 5 6 6 5 5 6 6 6 6 6 6 6 6 6 6 6 6 5 6 7 6 6 6 5 6 6 5 6 6 6 5 5 6 5 6 5 5 5 6 5 6 6 6 6 6 6 6 6 6 6 6 6 6 6 6 6 6 6 7 7 7 6 6 6 5 6 5 6 5 5 5 5 5 6 6 6 6 6 6 6 6 5 5 5 6 6 6 5 5 6 5 5 5 6 6 6 6 6 6 6 6 6 6 6 6 5 6 6 6 6 6 5 6 6 6 6 5 6 6 6 6 7 7 7 7 5 5 5 5 6 6 6 6 5 6 6 6 5 6 6 6 6 6 6 6 6 7 6 7 6 6 6 6 6 7 6 7 7 7 7 7 7 7 6 6 4 3 12 86 183 232 250 215 155 125 135 161 156 149 143 139 140 135 121 109 91 56 49 28 3 1 6 8 7 7 6 6 5 6 6 5 5 6 6 6 6 6 7 7 6 6 5 6 6 5 5 5 5 6 6 5 6 5 6 5 6 6 6 6 6 6 5 5 6 6 6 6 
6 6 6 6 6 6 6 6 6 7 7 7 5 5 6 6 6 6 6 6 6 6 6 6 6 6 5 6 6 6 6 6 6 6 5 6 6 5 5 6 5 6 5 6 5 5 6 6 6 5 6 6 6 6 6 6 5 6 6 6 6 6 5 5 5 6 6 6 5 6 6 5 6 5 6 5 6 5 6 5 6 6 6 6 6 6 6 6 6 6 6 6 6 6 6 6 6 7 7 7 6 6 6 5 6 6 5 6 5 6 5 5 6 5 6 6 7 7 6 6 5 6 6 6 6 6 6 5 6 5 6 5 5 6 5 6 6 6 6 6 6 6 6 6 5 5 6 6 6 6 6 6 6 6 6 6 6 6 6 6 7 7 6 7 7 6 6 6 5 5 6 6 6 6 6 6 5 5 6 6 6 6 6 6 7 6 7 7 7 6 6 6 7 7 7 7 6 6 7 7 7 6 9 2 1 15 118 230 249 245 192 121 98 121 151 165 139 138 134 132 129 124 110 99 71 59 69 44 8 2 5 7 6 6 7 6 5 5 5 6 6 6 6 6 6 6 6 6 6 5 5 6 5 5 5 6 6 5 5 6 5 6 5 6 6 6 6 6 6 6 5 5 6 6 6 6 
5 5 6 5 6 6 5 5 6 7 7 6 6 6 6 6 6 5 6 5 6 6 6 6 5 6 6 6 6 5 5 6 6 6 5 6 6 6 6 5 6 5 5 6 6 6 6 6 6 6 6 6 6 6 6 6 6 6 6 6 6 6 5 5 7 6 7 7 7 7 6 7 5 5 6 6 5 5 6 6 6 6 6 6 6 6 6 6 6 6 6 6 6 5 6 5 6 7 7 7 6 6 5 6 6 5 6 5 6 5 6 5 5 6 6 6 6 6 6 6 6 5 6 6 5 6 5 6 6 6 6 6 6 5 6 6 6 6 6 6 6 6 6 6 6 7 7 7 6 6 7 6 6 6 6 6 6 6 6 6 6 6 6 6 6 6 6 7 5 5 5 5 5 5 5 5 6 5 6 6 6 6 6 6 7 6 7 7 7 6 6 6 7 6 7 7 6 7 7 7 8 10 5 1 6 116 247 242 227 205 141 96 118 172 172 134 116 118 119 118 115 108 99 90 69 69 81 52 14 5 4 5 6 6 6 7 6 6 6 5 6 6 6 6 6 6 6 6 6 6 7 6 6 6 6 7 5 5 5 6 5 6 6 6 6 5 6 6 6 6 6 6 6 6 6 6 
6 5 6 5 6 6 6 5 6 7 6 6 6 5 6 6 5 5 5 5 5 6 6 5 6 6 5 5 6 6 6 6 5 6 6 5 6 6 5 6 5 6 5 6 5 6 5 6 6 6 6 6 6 6 6 6 6 6 6 7 6 6 6 6 7 7 7 6 6 6 7 7 5 5 6 6 6 5 6 5 5 6 6 6 6 6 6 6 6 5 6 6 6 5 6 6 6 7 7 7 6 6 5 6 5 5 6 6 5 5 6 6 6 6 6 6 6 7 6 6 6 6 6 5 6 6 5 6 6 6 5 6 5 6 6 5 6 6 6 6 6 6 6 6 7 7 7 7 6 6 7 7 6 6 6 6 6 6 6 6 5 6 5 6 6 7 6 6 6 6 6 5 6 5 6 6 6 6 6 6 6 6 6 6 7 6 7 7 7 6 6 6 7 7 7 6 6 7 7 7 11 0 0 12 112 240 247 195 183 156 117 105 145 178 142 88 110 113 116 114 110 104 97 90 88 86 79 46 22 12 4 4 5 6 6 6 7 7 6 6 7 6 7 6 6 6 6 5 6 6 7 6 6 6 6 6 5 5 5 6 6 6 6 5 5 6 6 6 6 6 6 5 6 6 6 6 
6 6 6 6 6 6 6 6 6 6 7 6 6 6 6 5 5 6 5 5 5 5 5 6 5 6 6 5 5 6 5 6 6 6 6 6 6 5 6 6 6 6 6 5 5 6 5 6 6 6 6 6 6 6 6 6 5 6 6 6 6 6 5 6 7 7 6 6 7 6 7 7 6 5 6 6 6 6 6 5 6 6 6 6 6 6 6 6 5 6 5 5 6 6 6 6 6 7 7 6 6 6 5 6 6 5 6 6 6 6 5 5 6 5 6 6 6 6 6 6 6 6 6 6 6 5 5 6 6 6 5 6 6 5 5 6 6 6 6 6 6 6 6 6 7 6 7 6 6 7 7 6 6 6 6 6 6 6 6 6 5 5 5 6 7 7 6 6 6 6 6 6 6 6 6 6 6 5 6 6 6 6 6 6 7 7 6 7 6 6 6 6 7 7 6 7 7 7 6 7 6 3 10 116 245 245 193 170 151 115 95 115 146 140 109 90 129 129 125 114 105 101 99 98 102 95 70 40 39 30 8 3 5 5 7 7 7 6 6 6 7 6 7 7 6 5 6 6 7 7 7 6 6 7 7 7 6 6 6 6 5 6 6 6 6 6 6 6 6 6 5 5 6 6 6 6 
6 6 6 6 6 6 6 6 6 7 6 6 6 6 6 6 6 5 6 6 6 6 5 6 5 5 6 6 6 6 5 5 6 6 6 6 6 6 6 6 6 6 6 6 5 6 6 5 6 6 6 6 6 6 6 6 6 6 7 6 6 6 5 6 7 6 7 6 6 6 6 6 5 6 6 5 6 5 6 5 6 6 6 6 6 6 6 6 6 5 5 5 6 6 6 6 6 7 7 7 6 6 6 6 6 5 6 6 5 6 6 5 6 5 6 6 6 6 6 5 6 6 5 5 6 6 6 6 6 6 5 6 5 6 5 5 6 6 6 6 6 6 6 6 7 6 7 6 7 6 7 6 6 6 6 6 6 6 6 6 6 5 6 5 6 6 6 6 6 6 7 7 7 6 7 7 5 5 6 6 6 6 6 6 7 7 7 6 7 6 6 6 7 7 7 6 7 6 7 6 1 5 98 243 247 201 175 147 134 92 86 131 151 121 107 133 149 140 124 104 93 89 94 99 106 98 64 40 57 52 14 6 5 6 7 7 8 7 7 6 6 6 7 6 6 5 6 6 6 7 6 6 6 6 6 6 6 5 5 6 6 5 6 6 5 6 6 5 6 6 6 5 6 6 6 6 
6 6 7 7 6 6 7 6 6 6 6 6 6 6 6 6 5 5 5 6 5 6 5 6 6 5 6 6 7 6 7 6 6 7 7 7 5 6 6 6 6 7 7 7 6 5 6 5 5 5 6 5 7 6 6 6 6 6 6 5 5 6 6 6 7 7 6 6 7 7 5 5 5 6 5 5 6 5 6 5 6 6 6 6 7 6 6 6 5 5 6 7 6 7 6 6 6 6 6 7 6 6 6 6 6 6 6 5 5 5 6 6 6 6 6 6 6 6 6 6 6 6 7 7 7 6 6 6 5 6 5 6 6 6 6 5 6 6 6 6 6 7 6 7 7 7 7 7 7 7 7 6 6 6 6 6 7 6 6 6 7 6 7 7 7 6 7 7 7 6 7 6 6 6 7 7 6 6 6 6 5 6 6 6 7 6 7 6 7 7 7 6 8 2 9 6 2 6 13 2 3 68 229 243 209 163 139 141 112 83 100 150 155 130 121 125 138 115 94 93 96 92 90 95 100 93 55 50 62 53 33 21 5 1 9 8 5 8 5 8 7 6 6 7 6 7 7 7 6 6 6 6 6 6 6 6 5 5 5 6 5 5 6 5 6 6 6 5 6 5 5 6 6 6 6 6 
6 6 6 7 6 7 7 7 6 6 6 6 6 6 6 6 6 6 6 5 5 6 6 6 5 6 6 6 7 6 6 6 6 7 7 6 6 6 6 6 6 7 7 6 6 5 6 5 6 6 5 6 7 7 7 6 6 6 5 5 5 6 6 6 6 7 7 7 6 6 6 5 6 6 5 6 6 6 6 5 6 6 6 7 6 6 6 6 6 5 6 6 6 6 6 6 7 6 6 6 5 6 5 6 6 6 6 6 6 6 6 6 6 6 6 6 6 6 6 6 7 7 7 6 6 6 7 6 6 6 5 6 5 5 5 6 6 6 6 6 7 6 7 6 7 7 6 6 6 6 6 6 6 7 7 6 7 6 7 7 7 7 6 7 7 6 7 7 7 6 6 6 6 6 7 7 6 6 6 6 6 6 6 6 7 6 7 7 6 7 7 7 6 8 6 7 10 6 5 1 36 142 243 229 186 152 139 120 85 94 128 166 161 134 123 124 110 106 93 84 89 97 96 89 90 85 56 66 65 53 36 34 10 1 5 6 5 8 7 8 7 7 7 7 7 6 7 6 6 6 6 6 6 6 6 6 5 6 5 6 6 5 6 5 5 6 5 5 5 6 6 6 6 6 6 6 
6 7 6 6 7 7 7 7 6 6 6 6 6 6 6 5 5 6 5 6 5 5 6 5 6 5 5 6 6 7 6 6 6 7 7 6 6 6 6 6 6 7 7 6 6 6 5 5 6 5 5 6 6 7 7 7 6 6 6 5 5 6 6 6 6 7 6 7 7 7 5 5 5 5 6 5 6 5 6 6 6 6 6 6 6 6 6 6 6 5 6 6 6 6 6 6 7 6 6 6 6 6 6 6 6 6 6 6 5 6 6 6 6 6 6 6 6 6 6 6 7 6 6 7 6 6 6 7 5 6 6 5 6 6 5 5 5 6 5 5 6 7 7 6 6 7 7 6 7 7 7 7 6 6 7 7 7 7 6 7 6 6 7 6 7 6 7 7 6 7 7 6 6 7 6 7 6 6 6 6 6 6 6 6 6 7 7 6 7 7 7 6 6 12 4 6 10 2 1 18 124 232 235 198 162 142 123 87 83 119 156 167 158 135 111 99 85 89 90 90 93 91 84 80 97 80 49 79 70 61 45 54 29 6 4 6 5 7 7 7 7 6 7 7 7 7 6 6 6 6 6 6 6 6 6 6 5 6 5 5 6 6 6 6 6 5 6 6 6 6 6 6 6 6 6 6 
6 7 7 6 7 7 7 6 6 6 6 6 6 6 6 6 6 6 6 5 5 5 6 6 6 5 6 5 6 7 7 6 6 6 6 7 6 6 6 6 6 6 6 6 6 6 6 6 5 6 5 7 6 6 7 6 6 6 6 6 5 6 6 6 6 7 7 7 7 6 6 5 6 5 5 6 6 5 5 5 5 6 6 6 6 6 6 6 6 6 6 6 7 6 6 6 6 7 7 6 6 5 6 6 6 6 6 5 5 5 6 6 6 6 6 6 6 6 6 6 7 7 6 6 7 7 7 7 5 6 5 5 6 6 6 5 6 6 6 6 6 6 6 6 7 6 6 7 7 7 7 6 7 6 6 7 7 7 6 7 5 6 6 6 7 7 6 6 6 6 6 6 6 7 7 6 6 6 6 6 6 6 6 6 7 7 7 7 6 7 7 7 6 9 4 7 6 2 4 80 214 250 196 177 157 135 92 76 95 152 176 148 130 116 98 89 94 86 87 97 93 77 77 96 107 72 41 91 83 80 57 65 51 13 3 7 7 6 6 4 6 6 7 6 7 7 7 7 6 6 6 6 6 6 6 6 6 6 5 6 6 6 6 5 6 6 6 6 6 6 6 6 6 6 6 6 
5 6 6 6 5 6 5 5 6 6 6 6 6 6 6 6 6 6 6 6 5 6 5 6 5 6 5 6 6 7 7 6 6 6 6 6 6 6 6 6 5 6 6 6 6 6 7 7 7 6 6 6 6 6 6 6 6 6 5 6 5 6 6 6 7 7 7 7 6 6 6 5 6 5 6 6 6 6 5 5 6 6 6 6 6 6 5 5 5 6 6 6 6 7 6 6 7 6 6 6 5 6 6 6 6 6 5 6 6 6 6 6 6 5 5 5 6 6 6 6 7 7 6 6 6 7 6 7 5 5 6 6 5 6 5 6 6 5 6 5 6 7 7 6 5 5 5 5 5 5 5 5 6 5 5 6 5 6 5 5 6 5 6 6 5 7 7 7 6 6 6 6 6 6 6 6 7 7 6 6 6 6 7 7 6 7 6 7 6 7 7 7 6 8 8 7 3 2 44 173 246 209 175 176 154 113 67 96 120 173 178 131 103 99 98 103 105 98 93 93 84 74 89 120 82 60 50 120 107 95 64 59 45 14 2 4 7 6 6 5 7 6 7 7 6 7 7 7 6 6 6 6 6 6 6 6 6 6 5 6 5 6 6 6 6 6 6 6 6 6 6 6 6 6 6 6 
6 5 5 6 5 6 5 6 6 6 6 6 6 6 6 6 5 5 6 6 6 6 6 6 6 5 5 6 7 6 7 6 6 6 6 6 6 6 6 6 6 5 6 6 6 6 7 7 7 6 7 7 6 5 6 5 6 6 6 6 5 5 6 6 7 6 7 6 6 6 5 5 5 6 6 5 5 5 6 6 6 6 6 6 6 5 6 5 5 6 6 6 6 7 6 6 7 7 7 6 5 6 5 6 6 6 5 6 6 5 5 6 6 5 6 5 5 6 6 5 6 6 6 7 7 6 6 7 5 6 6 5 6 6 6 6 5 6 6 6 7 7 7 6 6 5 6 6 6 5 5 5 5 6 5 6 6 6 5 5 6 5 6 6 6 6 6 6 6 6 6 6 6 6 6 6 7 7 7 6 6 6 6 7 6 7 6 7 6 6 7 7 4 7 11 4 2 6 123 242 229 180 177 174 130 81 63 126 172 170 144 115 109 110 99 89 80 96 100 88 84 91 97 101 49 57 82 154 117 91 63 47 27 18 3 2 5 5 8 8 7 6 7 6 6 7 6 7 6 6 6 6 6 6 6 6 5 5 6 6 6 6 6 6 6 6 6 6 6 6 6 6 6 5 6 6 
6 6 5 6 5 6 5 6 6 6 6 6 6 6 6 6 5 6 6 6 6 6 5 5 6 5 6 6 6 7 7 6 6 6 7 6 6 6 6 6 6 6 5 6 6 6 7 7 6 7 7 6 5 5 5 6 6 6 5 6 6 6 6 6 6 7 6 6 7 6 6 6 6 6 5 6 6 6 6 6 6 6 5 6 6 5 6 6 6 6 6 7 7 6 6 6 6 7 7 6 5 5 6 6 6 6 6 5 6 5 6 6 5 6 5 6 6 5 5 5 6 7 7 7 6 7 6 6 5 6 6 6 6 6 6 6 6 6 6 6 7 7 6 7 5 6 6 6 6 6 6 6 6 6 6 5 5 6 5 5 5 5 5 5 6 6 6 6 6 6 6 5 5 6 6 6 7 6 7 7 7 6 7 6 7 7 6 6 6 6 6 7 5 8 9 2 5 58 202 242 191 173 178 150 101 68 97 154 188 140 112 116 124 117 92 68 74 94 99 90 95 104 95 77 55 78 118 154 101 77 68 46 28 48 19 2 2 4 8 8 7 7 6 7 6 7 6 6 6 5 6 6 6 6 6 6 5 6 6 6 5 6 5 6 6 5 5 5 5 5 6 6 6 6 6 6 
5 5 5 6 5 6 5 6 6 6 6 6 6 6 6 6 5 6 6 5 6 6 6 6 5 5 5 6 6 7 7 6 6 7 7 7 6 6 6 5 5 6 6 6 6 7 6 6 6 6 7 7 5 5 5 5 6 6 5 6 5 6 6 6 7 7 6 6 6 6 6 5 6 5 5 6 5 5 6 6 6 6 6 6 5 5 6 5 6 5 6 6 6 6 6 6 7 7 6 6 6 5 5 6 6 6 6 6 6 6 6 6 5 6 6 6 6 6 6 5 7 7 7 7 7 7 6 6 6 6 5 5 5 6 6 6 5 6 6 5 7 6 7 6 5 5 5 5 6 6 5 6 6 5 5 6 6 6 5 6 5 6 6 5 5 5 6 5 6 6 6 5 6 6 6 6 7 6 6 6 6 6 7 6 7 7 7 6 7 7 7 7 10 5 4 1 18 176 246 202 161 173 167 123 87 77 153 178 142 106 107 131 125 100 85 75 106 101 92 89 98 103 93 84 88 108 135 132 77 66 77 53 45 93 48 6 2 2 5 5 7 7 7 7 6 7 6 7 6 6 6 6 5 6 6 6 5 6 6 6 6 6 5 6 5 6 6 6 6 6 5 6 6 6 6 6 
6 6 6 6 6 7 7 6 5 5 5 6 6 5 6 6 5 6 6 5 6 6 5 5 6 6 6 6 6 6 5 6 5 6 6 6 5 5 5 6 5 6 6 6 6 6 7 7 7 6 7 6 7 6 6 5 6 6 6 5 6 5 6 6 6 6 7 7 6 6 6 6 6 6 6 6 6 6 6 6 5 5 6 5 5 6 5 6 7 7 7 7 6 7 7 6 6 7 6 6 6 6 6 5 5 5 6 5 6 6 6 6 6 5 6 6 6 5 5 6 6 7 7 6 6 5 6 6 5 6 5 6 6 5 5 6 6 5 6 5 5 6 6 6 5 6 5 6 5 6 5 6 5 6 6 6 6 6 6 5 6 6 6 6 6 6 6 6 7 6 7 6 6 6 6 6 6 7 6 7 7 7 7 7 7 6 7 6 7 7 8 8 13 7 2 3 126 247 240 155 152 150 155 100 90 137 199 159 104 103 124 137 105 73 74 89 135 108 87 89 101 107 102 97 99 138 144 95 60 60 68 64 48 93 100 26 2 7 5 6 6 7 7 6 7 7 6 6 6 6 6 6 6 6 6 6 6 6 6 6 6 6 6 6 5 6 6 5 6 5 5 6 6 6 6 6 
6 5 5 6 6 7 6 6 5 5 5 5 5 6 6 6 6 6 6 6 6 5 6 6 6 6 6 5 6 6 6 5 6 6 5 6 6 5 5 6 6 5 6 6 6 6 6 6 7 7 6 6 7 6 6 5 6 6 5 6 5 5 6 6 6 7 7 6 6 5 6 6 6 6 6 6 6 6 6 6 6 5 5 5 6 5 6 5 7 7 7 7 6 7 6 6 6 6 7 6 6 5 6 6 5 6 6 6 6 5 5 6 6 5 6 6 5 5 5 6 6 7 7 6 6 5 6 6 5 5 6 6 6 5 5 5 5 6 5 5 6 6 5 6 6 6 5 6 6 6 6 6 5 5 6 5 6 6 6 6 6 6 6 6 6 6 6 6 6 7 7 7 6 7 6 6 6 7 7 7 7 7 6 7 7 6 7 7 7 7 7 7 2 3 2 52 231 235 209 150 144 141 139 101 107 144 164 110 87 108 131 117 81 69 94 122 118 74 58 81 102 96 90 98 107 141 128 70 42 55 74 72 33 72 96 46 3 0 5 8 6 6 7 7 6 7 6 6 6 6 6 6 6 6 5 6 5 5 6 6 6 5 6 6 6 6 6 5 6 5 6 6 6 6 6 6 
5 6 6 6 6 7 7 6 6 6 6 6 6 6 6 6 6 6 6 6 6 6 6 6 5 6 6 6 5 6 6 6 6 5 5 5 5 5 6 6 6 5 6 6 6 6 7 7 6 7 6 7 6 6 5 6 6 6 5 6 5 6 6 6 6 7 7 6 6 6 6 6 6 6 6 6 6 6 6 6 6 6 6 6 5 5 5 5 6 6 7 6 7 7 6 7 6 7 6 7 6 6 5 6 6 5 6 5 6 6 6 6 5 5 6 6 6 5 6 5 6 7 6 7 5 6 6 5 5 6 6 6 6 5 6 5 6 6 5 6 6 6 5 6 6 6 6 6 5 6 5 5 6 6 5 5 6 6 5 6 6 6 6 6 6 6 6 6 7 7 7 6 6 6 7 6 7 7 6 7 6 6 6 6 6 6 6 7 7 7 7 7 4 2 11 154 236 221 167 171 121 132 131 105 117 135 123 77 97 121 129 100 80 93 116 126 73 61 77 115 112 75 71 99 152 138 97 54 41 53 71 77 41 59 83 75 18 1 5 5 7 7 7 7 6 7 6 7 6 6 6 6 6 6 6 6 6 6 5 5 6 5 6 6 6 5 6 5 6 5 6 5 6 5 6 6 
6 6 5 6 7 7 6 6 6 6 7 6 7 7 7 6 5 5 6 6 6 6 6 6 6 5 5 5 6 6 6 5 6 5 5 5 6 5 5 6 5 6 6 6 6 6 6 6 7 7 6 7 7 6 6 6 6 6 6 5 5 6 6 6 6 7 7 7 6 6 5 6 6 6 6 6 6 6 6 6 6 5 6 5 6 5 6 5 6 7 6 6 6 6 6 6 6 7 7 6 6 6 5 6 5 6 6 6 5 6 5 5 6 5 6 5 6 6 6 6 6 7 6 6 6 5 5 6 6 6 6 5 5 5 5 6 5 6 6 5 5 5 5 6 5 6 6 5 6 6 6 6 6 5 5 6 6 5 6 5 6 6 6 6 6 6 6 6 6 6 6 7 7 6 7 7 6 7 7 6 7 6 7 7 6 7 6 7 7 9 8 7 3 1 93 227 232 204 156 125 104 133 134 110 110 114 105 91 137 137 118 102 114 130 112 86 64 89 125 122 82 58 89 150 174 103 54 47 54 55 59 70 53 61 77 96 54 5 2 4 6 6 7 6 7 7 6 6 6 6 6 6 6 6 6 6 6 6 5 5 5 5 6 5 6 5 6 6 6 6 6 6 6 5 6 6 
6 6 5 6 6 7 7 6 6 6 7 6 7 7 7 7 6 6 6 6 6 7 6 6 7 6 6 6 6 6 6 6 7 6 7 6 6 7 7 7 6 6 6 6 6 6 5 6 7 7 6 7 7 6 5 6 6 6 6 5 6 5 6 6 6 6 7 6 5 5 5 6 6 6 6 6 6 6 6 6 6 7 6 7 7 7 6 7 6 5 6 5 5 5 5 6 6 7 6 7 6 5 6 6 6 5 6 5 6 5 6 5 6 5 6 5 6 6 6 6 6 6 6 7 6 6 5 6 6 5 6 6 5 5 6 6 7 7 7 7 6 7 7 6 6 6 6 6 5 6 5 5 7 6 6 7 6 6 7 7 6 6 6 6 6 6 6 6 7 6 7 7 6 7 7 6 7 7 7 7 6 7 6 7 6 7 6 7 8 8 6 4 0 36 205 235 213 192 157 89 109 141 134 111 103 107 110 129 150 142 119 116 130 120 86 64 89 111 104 66 54 91 158 207 121 60 29 39 56 55 51 56 45 63 75 101 96 14 2 6 7 7 7 7 7 7 6 7 6 6 6 6 6 6 6 6 5 5 6 6 5 6 6 6 6 6 5 6 5 6 6 5 6 6 6 6 
6 5 6 6 6 6 7 6 6 6 6 6 6 7 6 6 6 6 7 6 6 7 6 6 7 7 7 7 7 7 6 7 7 7 6 6 6 6 7 6 7 6 6 5 6 6 6 5 7 7 7 6 7 6 5 5 6 6 6 5 5 5 6 6 6 7 7 6 6 6 6 6 6 6 6 6 6 5 6 6 7 6 7 7 7 7 7 7 5 6 5 5 5 6 6 6 6 7 7 6 6 6 5 5 6 6 6 5 5 5 5 6 6 6 6 6 6 5 5 6 6 7 6 6 6 5 6 6 6 5 5 5 5 5 6 5 7 6 6 6 7 7 7 6 6 6 6 6 6 5 5 5 7 6 6 6 7 6 7 7 6 5 6 6 6 6 6 6 7 7 7 7 6 6 7 7 7 7 6 7 6 7 7 7 6 6 7 8 8 7 3 1 4 157 234 233 177 173 131 96 129 143 123 109 103 112 115 139 123 132 123 111 101 75 60 68 75 76 62 56 100 175 185 144 72 51 35 36 46 52 50 45 44 64 62 82 127 48 3 2 7 7 6 6 7 7 7 7 6 6 6 6 6 6 6 6 5 6 6 5 6 5 5 6 6 6 6 6 6 6 5 5 5 6 6 6 
6 5 6 6 6 6 6 6 6 5 6 5 5 6 6 5 7 7 6 6 7 6 6 7 6 7 7 7 7 7 6 7 6 7 7 7 6 7 6 6 6 7 6 6 6 6 6 6 7 7 6 7 7 6 5 6 6 6 6 6 5 6 6 6 6 7 7 6 6 5 6 5 6 6 6 6 6 6 6 6 7 6 6 7 7 7 6 6 5 6 5 6 6 5 6 5 6 7 7 6 6 6 6 6 6 5 6 6 5 6 5 6 6 5 6 6 6 5 6 6 6 6 6 6 6 5 6 5 5 5 6 5 5 5 5 5 6 7 6 6 7 6 7 7 5 6 6 6 6 6 6 6 6 6 7 6 7 6 7 7 6 6 6 6 6 6 6 6 7 7 7 7 7 7 7 7 7 6 7 6 6 7 7 7 6 7 7 7 7 6 4 3 40 224 245 225 189 145 98 100 143 140 117 118 110 114 104 115 109 126 108 80 69 55 50 66 52 56 70 114 178 195 131 67 61 53 42 36 40 49 49 44 55 74 57 59 107 80 12 1 7 6 7 7 6 7 7 7 6 6 6 6 6 6 6 6 5 6 5 6 5 5 5 6 6 6 6 5 5 5 5 6 6 6 6 6 
6 6 5 6 7 7 7 6 6 5 6 6 5 6 6 6 6 6 6 6 6 7 6 6 6 7 6 7 6 7 6 7 6 7 6 6 7 6 6 6 7 7 6 6 6 6 6 6 7 7 7 7 7 6 6 6 6 6 6 6 6 5 6 6 6 7 7 7 5 6 5 6 6 6 6 6 6 6 6 6 7 7 6 6 7 6 6 6 5 5 6 6 5 5 6 6 6 7 6 7 6 5 6 6 6 5 6 5 5 6 6 6 6 6 6 5 5 5 5 6 6 7 7 6 6 6 6 5 5 5 6 5 6 5 6 6 7 6 6 6 7 6 6 6 6 6 6 5 6 5 6 6 6 6 6 7 6 7 7 6 6 6 6 6 6 6 6 6 7 7 7 7 7 7 7 7 7 7 6 7 7 7 7 6 5 6 6 6 6 6 7 9 155 225 228 180 169 126 91 124 146 141 123 134 116 113 91 90 120 125 86 55 60 62 51 51 65 72 110 171 186 134 80 57 62 46 32 33 39 45 48 50 56 86 71 48 60 70 13 2 7 7 7 7 7 7 7 7 6 6 6 6 6 6 6 6 6 6 5 5 5 5 6 6 5 6 5 5 5 5 5 6 6 6 6 6 
6 6 6 6 7 7 7 6 6 6 6 6 6 6 6 6 6 7 6 7 7 7 7 7 7 6 7 7 7 6 7 7 6 7 7 7 6 7 7 6 6 6 6 6 6 6 6 6 7 7 7 7 7 6 6 5 6 6 6 6 6 6 6 6 6 6 6 6 6 6 6 6 6 5 6 6 6 5 6 6 7 7 6 7 6 7 7 7 6 6 6 6 6 6 6 6 6 6 6 6 6 6 6 6 6 6 6 6 6 5 6 6 6 6 6 6 6 6 6 6 6 6 6 5 5 6 6 6 6 7 7 7 6 6 5 6 6 5 6 6 7 6 6 6 7 7 6 6 6 6 6 5 6 6 6 7 7 6 6 7 6 6 6 6 6 5 6 5 6 6 6 7 7 7 7 7 7 6 6 7 6 6 7 7 3 14 5 2 14 4 12 85 245 237 199 190 141 89 99 112 133 130 137 137 109 78 87 120 150 86 54 59 58 46 54 79 82 106 134 170 146 72 56 78 61 44 33 31 35 45 55 55 62 85 76 44 49 68 14 4 5 6 8 7 7 6 6 6 5 5 6 6 6 7 6 6 5 6 5 6 5 6 5 6 6 5 5 6 6 6 6 6 6 6 6 6 
5 6 6 5 7 7 6 6 6 6 6 6 6 7 6 6 6 7 6 7 7 7 8 7 7 6 6 7 7 7 7 6 7 6 6 7 6 6 6 7 6 6 6 6 6 6 6 6 7 7 7 6 6 6 6 6 6 6 6 6 6 6 6 6 6 6 6 6 6 6 6 6 5 5 6 6 6 6 6 5 6 7 6 6 7 7 7 7 6 6 6 6 6 6 6 6 6 6 6 6 6 6 6 6 5 5 6 6 6 5 6 6 6 6 6 6 6 6 6 6 6 6 6 6 6 6 6 6 6 7 6 7 6 6 6 6 6 6 6 6 6 6 6 5 7 6 6 5 5 6 5 5 5 6 6 7 7 7 7 7 6 6 6 6 6 6 5 5 6 6 7 6 7 7 7 7 6 6 7 6 6 7 7 7 10 5 1 10 8 9 49 162 244 217 192 157 117 91 92 116 137 142 148 125 97 74 105 154 108 68 45 42 45 57 83 103 84 120 134 125 91 60 66 79 62 42 31 32 36 46 55 54 53 73 72 47 53 62 18 1 5 6 7 7 6 7 7 6 5 6 5 6 6 7 7 7 6 6 6 5 6 6 5 6 5 6 6 5 5 6 6 5 6 6 6 6 
6 6 6 6 6 7 6 6 6 7 6 7 7 6 7 6 7 7 7 7 6 7 7 7 7 7 7 6 6 6 7 7 7 7 7 7 7 6 7 6 6 5 6 6 6 6 6 6 7 7 7 7 6 5 5 6 6 6 6 6 6 6 6 6 6 6 6 6 6 6 6 6 6 6 6 6 5 6 5 6 7 6 7 7 6 7 7 7 6 6 6 6 6 6 6 6 6 6 6 6 6 6 6 6 6 6 6 5 6 5 5 6 6 6 6 6 6 6 6 6 6 6 6 6 6 6 6 6 6 7 6 6 6 6 6 5 5 6 6 6 6 7 6 6 6 7 6 6 5 6 5 5 5 5 6 6 7 6 7 7 6 6 6 6 6 6 6 6 7 6 7 7 7 7 7 7 6 7 7 7 6 7 6 7 12 1 7 7 4 25 138 239 230 192 176 126 98 100 100 130 144 140 159 108 65 79 148 148 81 47 32 37 55 86 105 97 92 118 115 86 58 59 82 83 59 38 31 34 40 46 53 54 46 59 70 65 75 68 35 7 3 6 7 7 7 8 7 7 6 6 5 6 6 7 6 6 6 6 5 6 6 5 6 5 5 6 5 5 6 6 5 5 6 6 6 6 
6 5 6 6 6 7 6 6 6 6 6 6 6 6 6 7 7 7 7 7 6 6 7 7 7 7 6 6 7 6 7 7 6 7 6 6 7 7 6 7 6 6 6 6 6 6 6 6 6 6 6 6 6 6 5 6 6 6 6 6 6 6 6 6 6 6 6 6 6 6 6 6 6 6 5 5 5 6 6 6 7 6 6 6 7 6 7 6 6 6 6 6 6 6 6 6 6 6 6 6 6 6 6 6 5 6 6 5 6 5 6 6 6 6 6 6 6 6 6 6 6 6 5 6 6 5 6 6 6 7 7 6 6 6 5 6 6 6 6 6 6 6 6 5 7 7 6 6 6 6 5 5 6 6 6 7 6 6 6 7 7 6 6 6 6 6 6 6 6 7 6 7 6 7 6 7 7 7 6 7 7 7 7 7 6 12 9 4 5 92 212 247 197 173 152 114 97 109 119 141 147 126 153 87 46 105 180 84 34 23 30 51 73 102 113 96 97 98 86 72 60 73 96 81 50 34 31 39 42 45 54 58 50 50 69 86 101 70 47 14 4 5 7 7 7 7 6 6 6 5 6 6 7 7 6 6 5 6 5 5 5 6 6 5 5 6 5 6 6 6 5 5 6 6 5 6 
5 6 6 6 7 7 6 6 6 6 7 7 6 7 6 6 7 6 7 6 7 6 7 6 6 7 6 7 6 7 7 7 7 7 7 6 7 7 6 7 6 5 6 6 6 6 6 6 6 6 6 6 6 5 6 6 6 6 6 6 6 6 6 6 6 6 6 6 6 6 6 6 6 5 5 5 5 5 6 5 6 5 6 5 6 5 5 6 6 6 6 6 6 6 6 6 6 6 6 6 6 6 6 6 6 6 6 6 5 6 6 6 6 6 6 6 6 6 6 6 6 6 5 5 6 5 6 6 6 7 7 7 6 6 6 5 6 6 6 6 7 6 6 6 6 7 6 6 6 5 5 6 5 5 6 7 7 7 7 7 7 6 6 7 6 6 6 6 7 7 7 6 7 6 7 7 7 6 6 6 7 7 7 8 6 14 4 3 46 186 244 209 159 157 128 115 108 109 133 138 143 135 127 70 71 141 147 37 35 58 90 103 104 123 134 120 89 89 75 67 65 87 100 68 39 31 33 41 40 43 56 67 64 48 66 94 101 58 34 7 4 6 7 7 7 6 6 5 6 5 6 6 7 7 7 6 6 5 6 6 5 6 6 5 6 6 6 6 5 5 5 6 6 6 6 6 
6 6 5 6 7 7 7 6 6 6 6 6 6 6 7 7 6 6 6 6 7 7 7 6 7 7 7 7 7 7 7 7 7 6 6 7 6 7 6 7 6 6 6 6 6 6 6 6 6 6 5 6 6 6 6 6 6 6 6 6 6 6 6 6 6 6 6 6 6 6 6 6 6 6 6 5 6 5 6 5 6 6 5 6 6 5 6 5 6 6 6 6 6 6 6 6 6 6 6 6 6 6 6 6 6 5 5 6 6 6 6 6 6 6 6 6 6 6 6 6 6 6 5 6 6 6 6 6 6 7 6 6 6 6 6 6 5 5 6 6 7 7 6 6 6 6 6 6 5 5 5 5 5 6 6 6 6 7 6 7 7 6 7 7 7 6 6 6 7 6 7 6 7 6 7 7 7 6 7 7 7 7 7 8 12 3 2 17 157 234 229 176 142 146 120 124 116 103 130 129 139 153 101 80 132 154 80 34 58 92 105 98 114 143 122 81 77 93 79 59 63 88 91 51 34 31 34 36 34 42 62 75 73 51 67 91 94 60 26 6 5 6 7 7 6 6 6 6 5 5 5 6 7 7 6 6 6 6 5 6 6 5 6 6 5 5 5 6 5 6 6 5 6 6 6 6 
6 6 6 5 7 6 7 6 6 6 6 6 6 7 7 7 7 7 7 7 6 6 7 7 7 6 6 7 7 7 7 7 7 6 6 6 7 6 7 6 6 6 6 6 6 6 6 6 6 5 5 5 5 5 5 6 6 6 6 6 6 6 6 6 6 6 6 6 6 6 6 6 6 6 6 6 6 6 6 6 5 5 6 6 6 5 5 5 6 6 6 6 6 6 6 6 6 6 6 6 6 6 6 6 6 6 6 6 6 6 6 5 6 6 5 6 6 6 6 6 6 6 6 6 5 6 6 6 6 6 7 6 6 6 6 6 6 5 6 6 6 6 6 6 6 6 6 6 6 6 6 5 6 5 6 7 6 7 6 7 7 6 7 6 6 7 6 7 7 6 7 7 7 7 6 6 7 6 7 7 7 7 8 7 10 1 7 91 226 243 179 157 153 142 131 132 122 110 118 135 139 138 93 126 164 122 44 51 83 103 103 115 165 168 109 68 78 89 67 58 74 89 77 41 35 34 33 30 29 42 68 80 78 62 75 84 85 79 30 8 4 6 6 7 6 6 6 5 6 6 6 6 7 7 6 6 6 6 6 6 6 5 5 6 6 6 6 5 6 6 6 5 6 6 6 6 
5 5 6 6 7 7 7 6 6 6 6 6 6 6 6 6 7 7 6 6 7 6 6 6 7 6 7 7 7 6 7 6 7 6 7 6 6 7 7 6 6 6 6 6 6 6 6 6 5 5 5 5 6 6 6 6 6 6 6 6 6 6 6 6 6 6 6 6 6 6 6 6 6 6 6 6 6 6 6 5 6 6 5 6 6 5 5 6 6 6 6 6 6 6 6 6 6 6 6 6 6 6 6 6 6 5 5 6 5 5 6 6 6 6 6 6 6 6 6 6 6 6 6 5 6 6 6 6 6 7 7 6 6 5 6 6 6 5 6 6 6 6 6 6 7 7 6 6 5 5 5 5 6 5 6 6 7 6 7 7 6 7 6 7 7 6 7 7 7 7 7 7 7 6 6 7 6 7 7 7 7 8 8 8 5 3 36 171 247 216 157 143 173 141 148 141 128 121 115 150 142 108 94 177 152 88 38 65 98 120 137 172 192 123 57 50 89 75 50 63 100 97 67 41 39 35 32 23 24 44 72 83 82 75 83 76 74 92 29 7 3 5 6 6 7 7 6 6 6 6 5 6 7 6 7 6 5 5 6 5 6 5 5 6 5 6 6 5 5 6 6 5 6 6 5 6 
7 6 6 7 7 7 7 7 6 7 7 6 5 5 8 10 7 7 7 7 7 7 6 5 5 8 7 5 6 6 4 6 6 6 7 6 5 5 7 8 6 7 6 6 7 7 6 7 6 7 7 7 7 7 6 7 6 6 6 5 6 6 6 6 6 6 6 6 5 5 5 5 6 6 5 5 5 5 6 5 6 6 5 5 6 6 6 6 6 6 6 5 6 5 6 6 6 6 6 7 6 7 6 6 6 6 6 5 6 7 6 6 6 6 6 7 7 6 6 6 7 7 7 6 6 6 6 6 6 6 6 6 6 6 6 6 6 6 6 6 6 6 6 7 7 7 6 6 7 7 6 6 6 6 5 5 6 5 6 6 5 7 7 6 8 6 6 7 6 6 7 6 6 6 7 7 3 11 5 5 8 6 4 8 5 9 111 238 244 172 162 162 180 136 149 167 139 131 142 129 120 117 145 140 106 64 62 135 164 179 199 177 108 50 43 59 87 59 64 104 110 72 50 52 39 33 26 24 33 49 65 72 77 87 86 75 76 81 49 12 2 5 7 8 8 6 7 6 6 6 7 6 6 6 5 5 6 6 6 6 5 5 6 6 6 6 6 6 6 6 6 6 6 6 5 5 
7 6 7 7 7 7 6 7 6 6 7 8 8 7 5 2 8 7 6 6 6 7 6 6 5 8 7 7 10 10 9 10 8 5 4 4 7 8 8 6 7 7 7 7 7 7 7 7 6 6 7 7 6 7 7 6 6 6 6 6 5 6 6 6 6 6 6 6 6 6 5 6 6 5 6 5 5 6 5 6 6 5 5 5 6 5 6 6 6 6 6 5 5 5 6 6 7 7 7 7 7 6 7 7 6 6 6 6 7 7 7 6 7 7 6 7 7 7 6 7 7 7 6 6 6 6 6 5 6 6 7 6 7 6 7 6 6 6 6 6 6 6 7 6 7 7 7 6 6 7 6 7 4 4 6 6 6 6 6 6 6 8 6 6 7 5 4 6 6 6 7 6 6 6 7 7 8 8 5 10 8 8 4 10 6 45 191 249 207 139 156 176 170 131 135 155 144 138 137 119 116 132 124 102 84 91 142 200 183 183 152 91 48 40 58 80 78 78 98 119 98 62 45 46 39 37 34 35 40 50 60 66 82 84 88 83 84 92 63 20 3 5 6 7 7 7 7 7 6 6 6 6 6 6 5 6 5 5 6 6 6 6 5 6 6 6 6 6 6 6 6 6 6 5 6 5 
7 7 7 7 6 6 7 6 6 5 4 3 3 3 3 3 3 2 0 0 2 3 3 3 3 4 3 3 6 6 5 8 8 8 7 8 8 8 5 5 6 6 6 6 7 7 6 6 7 7 6 7 6 6 6 6 6 6 6 6 6 6 6 6 7 7 7 6 6 5 5 6 6 6 6 6 6 6 6 6 6 6 5 6 6 6 6 7 6 6 5 5 5 6 5 6 7 6 6 7 7 7 6 6 6 6 6 6 7 7 7 6 7 6 6 6 7 7 6 6 7 7 6 6 6 6 5 6 7 6 7 6 7 7 6 6 5 6 6 6 6 7 6 6 7 7 6 6 6 6 6 6 5 5 5 6 6 6 7 7 5 6 5 5 7 7 5 7 6 7 6 7 7 7 7 7 9 4 5 12 5 12 3 13 39 120 245 221 175 135 160 168 174 141 139 153 152 146 141 128 114 126 101 102 124 170 225 196 145 122 80 50 58 95 118 116 106 114 116 96 64 47 46 50 43 42 43 44 47 52 62 69 87 77 82 83 83 99 80 30 4 5 6 7 7 6 7 7 5 6 7 6 7 6 6 6 5 6 6 6 6 5 5 6 6 6 6 6 6 6 6 6 5 6 6 6 
7 7 7 6 6 6 6 6 8 6 3 3 3 9 18 30 23 23 25 25 21 19 18 18 4 4 3 3 6 6 5 8 5 6 5 7 6 5 7 8 6 7 7 6 6 7 7 7 7 7 7 6 6 6 7 7 7 6 6 6 6 6 6 7 7 7 7 6 6 6 5 6 6 6 6 6 6 6 6 6 6 6 5 5 5 6 6 6 6 6 6 6 5 6 6 6 6 6 6 6 6 6 6 6 6 6 6 6 7 7 7 6 6 7 6 6 6 7 6 7 7 6 7 7 6 6 6 6 6 6 6 6 6 6 6 6 6 6 6 6 6 6 7 6 7 7 6 6 7 7 6 6 5 5 5 6 6 6 7 6 8 8 5 3 6 6 6 7 6 6 7 7 8 8 7 8 7 6 6 13 5 14 3 35 123 199 239 180 157 151 162 162 159 136 129 139 141 136 138 138 130 110 100 141 192 222 199 126 88 71 62 82 123 143 126 98 120 109 86 59 44 45 54 55 48 45 42 44 49 56 67 78 89 70 76 83 83 106 94 42 5 5 6 7 7 6 7 7 6 6 7 6 6 6 6 5 6 6 6 6 5 5 6 5 6 6 6 6 6 6 6 6 6 5 6 5 
6 7 7 6 6 7 6 6 2 2 3 12 28 48 70 88 99 108 119 118 109 99 96 96 60 38 12 2 1 1 2 5 10 8 6 7 7 6 7 8 6 6 7 6 7 6 7 6 6 7 7 7 7 6 6 7 6 7 6 6 6 6 7 7 6 6 7 6 7 6 6 6 7 7 7 6 6 7 7 6 6 6 5 5 5 6 6 6 6 6 6 6 6 5 6 6 6 6 6 5 5 6 6 6 6 6 6 6 6 6 6 6 5 5 5 6 5 6 5 5 7 7 7 6 6 6 5 6 6 7 6 7 7 7 6 6 6 6 6 6 6 6 7 6 6 7 7 7 7 7 7 7 7 6 6 6 6 5 6 5 12 10 4 2 6 6 3 4 6 6 7 7 7 7 7 7 8 10 9 18 7 5 5 105 204 246 221 178 148 155 152 164 161 131 123 138 141 135 133 135 110 107 165 216 215 173 106 69 80 84 108 140 144 116 94 89 82 69 57 53 55 58 57 51 49 42 38 42 49 56 66 77 88 69 81 96 98 114 100 46 6 5 6 7 7 7 7 7 6 6 6 7 6 6 6 6 5 5 6 6 5 5 5 6 6 6 6 6 6 6 6 6 6 6 6 6 
7 7 7 7 7 7 7 7 12 17 39 89 149 189 199 198 194 210 230 242 243 239 240 241 238 218 161 94 43 12 2 1 1 0 2 7 10 7 6 5 7 6 7 6 6 6 7 7 6 6 7 6 7 7 7 6 7 6 6 6 6 6 6 7 6 6 7 7 7 6 7 6 6 6 6 6 6 6 6 6 6 6 5 5 5 6 6 7 6 6 6 6 6 6 6 6 6 6 6 6 6 6 6 6 6 6 6 6 6 6 7 6 5 5 5 5 6 6 5 5 7 7 7 6 6 6 6 5 7 6 7 7 7 7 6 7 6 6 6 6 6 6 7 6 6 6 7 6 7 6 6 6 7 6 6 6 5 5 5 5 10 7 3 6 13 15 8 5 6 5 6 6 7 7 7 8 8 7 5 17 7 2 19 190 246 239 188 186 158 165 148 156 172 124 117 139 137 119 110 107 121 156 238 218 147 104 78 97 125 126 128 119 91 66 67 82 66 58 58 66 69 64 55 49 47 39 37 44 49 51 59 68 79 69 86 111 115 118 89 41 8 6 5 7 8 6 6 7 5 6 7 7 6 6 5 6 6 6 5 6 6 6 5 6 6 6 6 6 6 6 6 6 6 6 6 5 
7 6 7 6 7 6 6 7 3 15 54 124 188 210 204 196 165 170 180 194 206 215 218 220 223 231 235 240 234 189 123 87 13 5 2 1 4 5 7 9 7 6 7 7 7 6 6 6 7 7 7 7 7 7 6 6 7 7 6 6 6 7 7 7 7 7 6 7 7 6 7 6 7 6 7 6 6 6 6 7 6 6 5 5 6 5 6 6 6 6 5 5 5 6 6 6 6 6 6 6 6 6 5 5 6 6 6 6 7 6 7 6 6 6 6 6 6 6 5 5 7 6 6 6 6 5 6 5 7 7 7 6 7 6 7 7 6 6 6 6 7 6 7 7 6 6 6 6 6 7 7 7 7 7 6 6 6 6 6 5 6 6 5 13 28 30 14 6 6 5 5 6 6 7 7 7 6 3 2 13 16 30 92 231 246 205 155 178 160 171 161 157 146 97 103 130 108 86 97 108 199 221 203 136 100 107 134 163 144 122 89 62 47 47 57 65 80 69 63 63 62 59 57 53 45 39 39 45 45 45 52 67 76 73 90 114 123 114 78 36 9 6 5 6 7 7 7 7 6 6 6 6 6 6 6 6 6 6 6 5 6 6 6 6 6 6 6 6 5 6 6 6 6 5 6 6 
6 7 7 7 7 7 7 6 5 25 79 146 184 187 184 188 157 148 140 145 157 166 166 162 155 158 158 174 211 233 227 220 164 87 23 2 0 3 6 8 6 7 7 7 7 6 6 6 6 7 6 7 7 7 7 7 6 7 6 6 7 7 6 7 6 6 7 7 7 7 6 7 7 6 6 7 6 6 6 6 6 6 5 5 6 5 6 6 6 6 5 5 5 6 6 6 5 6 6 6 5 5 5 6 6 6 6 6 6 6 7 6 5 6 7 8 7 7 6 5 7 7 7 6 6 5 6 6 6 6 6 6 6 6 6 6 6 6 6 6 7 7 7 6 7 7 7 7 6 6 7 7 6 6 6 6 7 6 7 7 8 8 10 23 43 39 16 2 6 6 6 6 7 7 7 7 8 6 4 13 36 112 212 239 223 179 146 168 143 157 177 182 119 84 106 137 100 82 127 172 214 221 147 116 152 189 184 127 95 79 57 48 57 79 98 105 85 70 57 51 52 58 57 51 45 41 42 45 42 41 53 74 83 83 95 115 124 111 74 40 9 7 5 6 7 6 7 7 6 6 7 7 6 6 6 6 6 6 5 6 5 5 6 6 6 6 6 6 6 6 6 6 5 6 6 6 
5 6 7 7 7 7 5 3 6 44 103 165 157 165 156 170 152 148 143 139 136 133 133 135 138 130 126 133 148 171 208 236 245 225 149 60 14 2 1 3 7 8 8 6 7 6 6 7 7 6 6 7 7 7 6 5 6 6 6 7 6 6 6 7 7 6 6 6 7 6 7 6 5 6 7 7 5 6 6 7 7 6 6 7 6 6 5 3 6 6 6 6 6 6 6 6 6 5 5 5 6 5 6 6 5 5 5 6 6 6 6 8 6 9 6 5 12 18 11 2 5 7 6 4 6 6 5 6 8 7 5 6 8 4 1 7 5 8 2 3 6 11 1 10 6 5 5 7 5 3 6 13 13 9 6 6 7 7 7 9 12 13 17 22 40 50 18 8 11 9 6 3 4 9 9 4 7 10 3 27 113 199 251 228 167 149 132 150 149 158 190 167 89 94 122 123 87 99 166 209 233 163 104 135 181 204 133 80 66 70 74 86 107 123 110 87 58 47 44 52 57 53 50 54 42 43 49 48 37 40 66 86 80 87 115 119 120 117 82 52 19 2 3 9 7 7 6 7 6 7 6 6 6 6 5 6 5 6 6 6 6 5 6 5 6 5 6 6 5 5 6 6 5 6 5 5 
6 5 6 6 7 6 5 5 10 53 115 174 159 161 152 163 169 168 168 170 164 154 145 141 146 139 135 132 127 123 128 139 177 228 243 197 119 50 12 2 2 0 7 10 7 4 7 8 7 7 7 8 7 7 7 6 6 6 7 6 7 6 6 7 7 6 7 6 6 7 7 7 9 6 5 6 7 8 6 6 7 7 7 6 5 5 6 6 6 6 6 7 6 6 6 6 6 6 6 6 6 6 6 6 7 5 5 6 7 7 7 7 5 6 6 7 13 20 15 5 7 5 4 7 9 4 2 6 5 6 5 10 15 9 3 4 3 7 2 6 12 19 3 9 8 5 4 5 5 6 9 16 15 11 8 9 10 10 10 10 10 12 20 23 41 52 26 17 19 16 11 6 4 7 10 7 9 10 11 72 176 221 235 191 153 135 129 132 139 187 202 137 83 111 114 90 89 127 178 214 193 117 93 174 215 174 94 68 96 108 126 144 148 123 75 41 45 46 51 61 62 56 50 51 39 38 45 45 37 41 66 92 92 93 115 116 112 113 92 76 30 5 3 7 6 6 7 7 6 7 7 6 5 6 5 5 5 6 6 6 6 6 5 5 6 6 6 5 6 6 6 6 5 6 6 6 
5 5 6 6 6 7 6 5 13 59 126 183 158 153 140 151 159 159 164 168 164 153 141 137 129 131 141 152 149 143 140 143 147 164 180 204 225 185 93 36 4 3 2 3 9 6 4 6 7 6 7 7 8 8 7 8 7 7 7 7 6 6 7 7 7 7 7 6 7 6 7 7 8 6 6 5 7 7 6 5 8 8 7 6 5 5 6 7 6 6 6 6 7 6 6 7 6 6 6 6 6 6 6 6 7 6 5 6 7 6 6 7 5 4 6 7 10 22 24 11 2 2 6 17 22 10 4 7 11 10 6 10 22 23 15 13 6 10 4 13 28 36 8 13 17 10 5 3 5 7 13 18 20 16 13 14 16 16 13 11 11 13 25 24 39 47 31 24 28 23 22 13 3 7 13 11 7 19 53 159 226 207 203 169 129 115 126 124 148 216 187 91 89 120 93 64 102 161 185 199 163 128 141 211 186 108 71 96 125 126 122 103 75 50 38 35 47 55 63 64 58 49 43 41 37 34 40 44 37 41 69 99 102 97 116 115 102 98 92 93 55 12 3 5 5 7 6 7 6 7 7 6 6 5 6 5 5 6 6 6 6 5 5 5 6 5 6 6 5 5 5 6 5 5 5 5 
6 6 6 5 6 6 6 5 10 55 123 179 153 147 132 142 130 131 132 138 140 140 137 138 142 140 144 154 157 149 144 143 140 137 128 143 193 224 202 170 93 29 3 0 4 7 8 7 8 7 7 7 7 7 6 6 7 7 7 7 7 7 7 7 6 7 6 6 7 7 7 7 5 7 8 8 6 3 4 4 6 6 6 7 6 6 6 7 6 7 6 6 6 6 6 6 5 6 6 6 6 6 6 6 6 5 5 6 6 6 9 12 7 3 5 4 5 21 34 21 3 2 5 16 27 18 10 10 26 18 6 5 21 37 36 33 12 14 6 17 39 50 13 13 28 21 11 6 6 10 18 23 24 20 17 18 19 20 16 14 16 15 31 22 32 36 30 23 28 26 28 20 7 7 15 15 12 54 132 228 228 182 182 146 112 102 120 131 179 208 129 63 112 102 69 71 134 183 177 169 157 180 205 198 135 88 93 131 124 108 88 67 44 33 39 51 60 66 64 55 44 41 39 36 37 31 37 43 38 42 71 106 104 96 114 114 95 83 80 93 82 21 5 4 5 7 7 6 6 7 7 7 6 6 6 6 6 6 5 5 6 6 6 5 5 6 6 6 6 5 5 6 6 6 6 5 
6 5 6 7 7 6 5 4 5 48 112 168 148 144 128 136 123 122 123 129 135 142 147 152 156 143 134 139 144 143 142 143 145 143 121 107 129 173 210 231 218 163 63 7 1 6 8 8 9 8 7 6 6 6 6 6 7 7 7 7 7 7 7 7 7 7 7 7 6 6 6 6 7 8 11 11 9 6 4 3 4 4 5 6 7 7 7 7 6 6 6 6 6 6 6 6 6 6 6 6 6 6 6 6 6 6 8 8 6 6 12 20 14 7 6 3 4 21 39 31 14 9 3 5 14 17 13 12 31 24 7 3 18 40 43 38 13 13 5 14 33 50 16 9 22 23 20 14 13 18 26 29 23 21 19 20 21 23 22 20 19 17 37 22 31 31 32 24 22 25 30 26 13 9 13 15 28 115 205 246 206 172 173 117 108 99 107 139 197 164 80 74 139 75 63 118 179 189 172 154 166 206 211 157 119 113 122 117 104 73 49 47 52 55 56 60 66 65 56 44 39 42 44 40 38 33 37 42 38 43 75 107 99 90 109 112 92 81 80 98 101 28 6 5 5 8 7 6 6 6 7 7 6 6 5 5 6 6 6 6 6 5 5 5 6 5 5 5 5 5 6 5 6 7 7 6 
6 6 6 7 7 7 5 4 3 42 101 156 138 138 125 132 127 126 126 133 139 146 149 152 155 141 132 135 142 144 149 155 149 142 118 106 126 152 160 159 196 242 218 88 9 1 4 3 7 6 7 7 7 6 6 6 7 6 6 7 7 6 6 6 7 6 7 7 7 6 6 6 10 8 7 10 14 15 10 6 4 4 3 4 5 6 7 6 7 7 6 6 6 6 6 6 6 6 6 7 7 6 7 6 5 7 7 6 4 4 10 17 19 14 12 9 12 30 43 36 30 24 12 8 13 17 12 8 23 25 11 5 17 36 33 21 13 12 8 14 25 51 23 10 6 15 23 22 20 24 28 28 19 20 21 21 24 27 27 25 21 18 47 29 40 35 41 28 18 25 31 30 24 16 14 17 47 167 245 234 171 145 155 109 111 99 97 141 184 120 71 116 140 67 85 176 204 181 173 165 190 212 194 121 98 106 114 93 73 50 35 36 47 54 57 60 67 62 53 44 44 47 45 41 38 35 38 40 36 45 76 101 94 82 99 106 96 91 94 112 102 28 7 5 6 8 6 6 6 7 7 7 6 6 6 5 5 6 6 6 6 5 6 5 6 6 6 6 5 6 5 5 7 7 7 6 
5 5 5 7 7 6 5 4 5 46 104 153 131 135 125 134 126 120 117 118 123 127 131 132 149 145 145 144 137 125 122 125 132 150 149 139 141 141 129 122 131 184 233 204 107 24 1 3 3 4 6 7 7 7 6 7 6 6 6 7 6 6 7 6 6 6 6 7 6 6 6 7 9 7 6 7 11 14 13 10 15 11 6 3 4 6 6 6 7 7 7 7 6 7 7 7 7 6 7 7 7 6 7 6 9 8 8 7 4 3 4 7 15 18 21 23 34 50 51 39 36 35 27 23 25 23 14 11 26 34 20 7 16 32 29 18 16 18 21 25 25 58 39 17 4 15 27 26 24 26 26 21 19 23 26 25 25 27 27 25 23 20 60 40 49 38 45 28 17 28 30 33 40 30 21 28 88 201 245 214 152 115 131 111 107 100 104 152 159 102 100 157 111 84 131 205 189 157 172 187 202 194 156 91 89 102 107 76 51 50 53 55 55 52 52 55 63 58 51 47 46 46 42 36 35 36 39 37 33 45 74 95 87 75 90 100 98 100 99 109 89 22 4 5 6 8 6 6 6 6 6 7 6 6 5 6 6 5 6 6 5 6 6 5 5 6 6 5 6 6 6 5 7 6 6 7 
6 5 6 6 6 6 6 5 11 56 114 157 133 135 128 140 123 114 105 102 103 106 112 117 115 127 147 159 153 140 136 141 130 137 126 114 123 136 133 127 127 115 151 232 238 134 34 1 1 2 5 7 8 9 8 7 6 6 6 6 6 7 6 7 6 7 7 7 6 7 7 7 5 6 6 5 5 5 8 11 32 22 11 5 4 4 6 7 7 6 7 6 6 6 6 6 6 6 7 6 6 6 6 6 15 13 11 9 7 5 2 2 8 18 27 38 59 72 58 42 34 33 28 27 28 22 18 21 37 46 27 8 13 32 35 27 21 25 36 37 27 63 50 21 13 27 37 30 25 27 24 17 23 28 32 31 28 26 25 23 23 22 70 48 55 38 42 23 19 32 30 36 55 45 30 41 163 230 217 197 161 117 114 102 99 101 118 168 145 102 136 174 82 108 172 204 160 135 167 200 190 150 100 63 109 146 123 55 58 55 48 43 43 47 52 55 52 45 42 42 43 41 38 34 33 35 39 35 31 47 75 91 81 69 85 96 99 102 91 92 77 17 2 5 6 7 5 6 6 6 6 6 5 6 5 5 6 6 6 6 5 6 5 5 5 6 6 6 5 6 6 6 6 7 6 7 
6 5 6 7 6 6 6 5 19 70 105 141 133 140 141 140 133 120 111 112 115 115 117 119 137 127 124 133 145 144 136 130 129 132 129 123 118 118 124 128 140 122 112 131 191 239 174 67 4 3 2 4 4 5 8 11 7 7 7 8 6 5 5 6 7 7 6 6 6 6 6 6 7 7 6 6 5 5 5 4 18 34 28 8 2 7 7 4 7 7 6 6 6 7 7 6 7 6 5 7 7 5 6 9 12 10 14 6 15 11 17 14 18 18 15 20 49 58 34 35 33 30 27 26 27 27 25 23 42 48 40 20 14 30 38 25 22 19 44 37 28 44 74 39 71 71 62 39 24 29 36 31 27 37 30 30 27 24 31 23 22 20 58 68 44 27 35 20 20 29 32 25 39 46 42 89 226 214 199 168 167 135 122 89 102 101 116 129 110 117 149 135 89 138 184 184 169 175 192 200 177 125 86 117 168 130 60 37 31 35 39 46 52 55 55 54 48 45 41 42 42 40 35 31 33 32 33 37 41 53 73 93 84 83 83 113 143 111 86 108 74 14 4 6 5 7 6 8 6 6 6 5 6 6 5 6 6 6 6 5 6 5 6 6 5 6 6 5 6 6 5 6 6 6 6 6 
5 6 7 6 7 6 7 6 16 69 112 151 134 141 135 119 122 115 109 108 106 104 111 120 128 131 130 126 128 132 128 120 132 135 133 124 117 119 131 143 136 120 116 132 155 184 202 205 88 23 2 0 4 8 8 5 8 7 6 6 7 9 11 11 7 6 6 6 7 6 6 7 7 7 6 6 7 7 6 5 3 12 18 14 9 5 4 9 6 7 8 7 7 6 5 4 8 7 7 7 7 6 6 7 11 9 10 9 30 24 19 9 12 23 28 25 39 45 31 35 33 32 29 28 29 30 27 23 39 52 50 33 28 38 45 42 26 30 54 39 28 43 79 63 79 79 69 45 27 28 33 28 38 42 30 27 25 23 32 27 29 23 51 74 59 39 37 28 40 46 37 31 48 59 81 152 228 203 167 129 137 125 112 77 112 137 125 107 108 115 127 117 123 166 190 170 157 177 196 196 168 115 119 143 106 54 36 31 34 40 45 51 51 48 46 43 51 51 50 48 44 39 33 31 31 30 32 35 39 49 64 80 67 76 88 122 142 104 75 88 78 14 3 6 7 8 6 7 6 6 6 6 6 6 6 6 5 5 6 6 6 5 6 5 6 5 6 6 5 5 5 6 6 5 6 6 
6 6 6 6 7 6 6 5 7 63 124 163 113 101 106 95 108 107 110 107 98 92 97 106 116 132 138 127 126 137 142 137 131 136 135 122 112 112 126 142 134 124 123 133 129 121 156 223 214 154 44 5 0 3 6 6 8 9 8 7 9 10 9 5 6 6 6 6 6 6 6 6 7 6 7 6 7 7 7 6 4 5 6 11 14 8 3 6 4 6 8 8 8 7 6 6 7 7 6 5 6 6 6 5 13 11 9 11 41 43 24 7 4 19 33 31 41 51 39 39 32 32 30 29 32 36 31 23 33 50 50 38 35 36 35 40 32 38 50 33 27 43 75 73 68 74 72 52 33 35 39 34 50 48 30 27 25 23 35 34 40 32 43 74 68 48 33 35 51 51 34 37 63 72 116 191 218 196 157 113 117 114 102 78 133 167 126 104 125 120 113 122 139 177 184 151 142 174 190 174 126 130 139 106 50 32 32 23 46 48 52 51 45 40 37 38 51 55 57 53 45 35 31 30 28 28 30 34 37 45 57 68 60 74 99 134 142 103 76 83 79 17 1 6 9 8 6 7 6 7 6 6 6 6 6 6 6 5 6 6 6 6 6 6 5 6 6 5 5 6 6 5 6 5 6 6 
5 6 7 7 7 6 6 6 1 37 93 145 100 76 83 79 80 86 95 97 89 77 75 79 99 112 123 122 127 142 153 156 132 139 144 132 113 106 114 123 132 131 120 121 130 120 115 130 228 233 192 74 12 2 1 7 2 6 7 6 7 10 10 8 6 6 6 5 6 6 7 6 6 7 7 7 7 7 7 5 7 9 7 5 8 9 6 6 4 6 6 6 7 8 11 12 7 8 6 4 5 8 7 4 15 20 14 11 35 51 36 18 5 12 27 37 56 68 50 42 33 31 27 27 35 43 34 22 32 52 46 33 37 36 25 26 36 41 36 24 30 48 62 59 51 68 80 67 46 45 51 46 48 45 29 29 26 23 36 39 51 47 42 64 61 51 34 43 70 65 48 74 128 127 173 221 201 193 176 139 124 111 101 104 156 160 117 116 141 122 113 140 129 171 182 150 147 180 186 158 123 137 102 59 47 39 30 33 58 54 49 42 37 35 36 38 45 49 52 50 41 33 27 26 23 25 30 35 40 48 57 65 70 83 111 142 143 115 96 102 80 21 1 4 8 7 5 7 6 6 6 6 7 6 6 6 6 5 6 5 5 5 5 5 5 6 6 6 6 6 5 6 5 5 6 6 
5 6 6 7 7 7 6 6 0 9 37 113 127 92 91 80 82 88 97 106 104 95 91 94 92 95 100 109 118 124 133 140 134 146 155 148 129 113 110 113 112 127 116 107 132 152 138 122 143 189 225 221 121 26 4 1 5 7 9 7 5 6 7 8 7 6 6 5 6 6 6 6 7 7 6 5 6 8 7 8 1 8 12 10 8 5 6 13 10 9 6 4 5 10 15 18 16 16 12 9 10 13 12 9 13 28 25 16 24 49 49 38 20 16 28 42 56 63 48 40 39 32 26 26 36 43 33 20 30 51 43 28 43 52 35 23 33 38 27 24 35 52 51 47 47 72 97 87 62 57 59 53 36 35 26 35 32 24 36 44 53 63 47 50 51 57 47 63 54 41 33 66 144 148 182 192 188 177 178 167 146 123 108 142 179 156 119 118 124 116 123 134 119 161 182 169 174 199 194 164 154 108 70 71 67 32 28 62 53 44 36 31 31 33 34 34 35 37 39 40 38 31 25 21 19 23 30 38 47 56 64 69 82 91 118 140 137 121 114 110 89 36 6 4 6 4 5 6 6 6 6 6 6 6 6 7 6 5 6 6 6 5 5 5 5 6 6 6 5 5 6 5 6 6 6 6 
5 6 6 6 7 7 7 5 3 2 20 102 160 103 101 96 103 102 109 117 122 122 124 131 111 106 106 115 120 119 120 122 127 140 152 151 138 124 114 110 94 117 122 110 119 141 148 142 130 127 157 214 245 155 35 6 2 2 5 8 8 6 5 5 7 7 6 6 5 6 7 6 6 7 6 5 7 9 10 11 2 4 9 18 20 10 4 7 15 11 7 4 7 11 17 19 29 28 24 21 21 23 23 21 14 31 34 31 24 46 52 50 41 30 43 49 43 43 42 44 46 35 25 26 32 34 27 20 19 38 37 29 44 60 44 23 22 32 26 25 33 48 45 46 46 73 103 99 78 71 68 57 29 29 27 46 47 34 44 52 51 68 57 45 51 65 68 81 49 32 31 56 141 163 194 194 180 154 156 167 159 141 114 163 203 188 150 126 113 123 140 120 111 134 158 171 189 203 191 167 141 101 94 93 54 33 46 65 36 30 25 23 27 29 27 24 27 27 28 29 31 28 23 18 18 23 31 39 51 62 69 72 82 90 119 136 122 115 115 104 114 64 17 7 6 4 7 5 6 6 6 6 6 6 6 6 6 6 6 6 5 6 6 6 6 6 5 6 6 6 6 5 5 5 6 6 
5 6 6 7 7 7 7 6 6 3 18 94 172 100 99 102 96 94 96 101 103 100 104 112 119 118 118 119 125 128 125 120 123 128 134 138 135 127 119 114 108 115 125 121 112 117 132 137 149 124 115 155 215 240 167 58 9 2 2 5 10 11 9 9 8 8 7 6 6 6 6 6 7 7 6 5 6 10 12 13 13 7 5 15 31 27 10 2 13 10 7 8 13 19 23 22 36 35 35 38 38 36 38 39 24 28 34 50 29 41 45 47 52 46 65 58 35 34 39 43 48 35 27 28 27 25 24 26 20 39 50 45 47 53 40 23 22 31 25 28 31 48 46 50 53 73 100 102 89 85 76 59 29 27 27 55 65 48 56 63 56 72 67 50 63 74 79 82 48 34 48 60 131 159 182 183 166 141 143 157 153 145 109 158 206 213 183 153 135 139 141 115 95 94 111 152 191 194 171 154 128 133 125 79 41 47 59 42 25 21 20 21 23 23 21 18 21 21 21 23 25 24 20 17 19 23 31 38 50 62 68 69 79 91 124 134 111 110 119 110 130 88 26 7 5 4 8 5 6 6 6 6 5 6 5 6 5 5 5 6 6 5 6 6 5 5 6 6 5 6 6 6 6 6 6 6 
4 5 5 7 7 7 7 7 9 2 10 74 179 106 100 95 89 89 91 91 86 77 77 82 97 107 111 109 117 130 131 119 125 124 123 126 131 130 126 121 143 115 111 123 121 126 140 142 118 140 141 130 167 235 243 202 84 34 4 1 2 4 5 6 8 8 7 6 6 6 7 6 8 8 5 5 6 9 11 12 18 16 8 8 26 42 26 9 8 7 7 12 21 28 29 28 34 35 39 47 50 48 50 55 42 26 30 62 34 36 36 39 59 60 84 69 33 32 36 33 46 33 27 28 24 19 23 35 37 58 80 78 60 49 37 24 34 35 24 28 33 54 53 52 65 81 100 103 95 93 79 54 32 25 24 58 73 58 63 66 68 77 78 61 78 78 83 77 46 42 77 76 134 154 163 163 152 139 147 156 145 140 101 145 186 207 188 178 170 143 125 117 84 68 82 140 195 193 160 141 161 166 113 61 55 53 38 29 22 22 21 20 20 20 20 18 19 18 18 18 19 20 18 16 20 24 31 37 48 60 66 65 80 94 130 133 105 109 130 126 132 95 27 4 2 3 8 4 5 6 5 6 6 6 5 6 6 6 6 5 6 5 6 6 5 5 5 5 5 6 6 6 5 6 6 7 
6 6 6 7 7 6 6 7 11 1 10 51 184 103 86 81 83 97 102 92 84 86 85 78 78 86 90 89 91 103 113 115 111 116 127 127 119 124 129 124 119 120 120 121 126 129 134 140 119 133 144 137 129 146 195 243 230 163 72 19 3 2 5 8 6 6 11 10 5 4 8 8 7 8 8 7 7 5 7 7 15 20 21 11 11 32 44 27 10 13 12 9 15 30 39 38 37 36 41 51 57 63 69 75 64 48 39 48 56 43 37 45 53 78 86 89 62 30 34 38 39 56 34 21 30 25 22 53 60 60 73 109 76 67 49 20 25 39 25 37 45 59 52 62 85 107 110 102 82 93 91 53 30 31 28 37 51 43 75 44 43 83 96 66 77 94 79 94 54 44 53 100 145 143 137 155 160 162 157 135 138 127 113 160 200 195 199 189 160 136 122 110 73 80 88 125 183 190 162 150 191 164 97 52 41 35 25 24 15 14 15 17 18 16 16 18 15 14 13 14 17 19 18 16 19 25 31 43 61 65 59 56 79 103 130 112 108 107 156 154 132 55 12 2 4 7 8 5 6 6 6 6 6 6 6 6 5 6 5 5 5 6 6 5 6 6 6 5 6 6 6 5 6 5 6 6 
6 6 7 7 7 6 6 7 6 2 9 51 188 114 80 61 56 74 95 107 106 99 92 88 82 86 84 73 65 72 93 110 121 125 135 132 120 122 127 125 118 114 113 119 129 136 137 137 119 118 125 130 121 115 142 181 242 236 209 131 40 4 2 4 11 5 8 13 10 10 8 4 6 7 8 9 8 7 6 5 7 15 30 32 23 22 35 47 19 21 18 13 13 22 34 40 49 47 47 57 73 80 80 85 90 76 59 54 57 50 45 51 60 57 58 84 76 41 38 41 37 63 60 36 25 23 29 41 58 42 46 83 86 76 60 36 24 34 24 38 41 45 40 63 90 115 122 117 91 98 102 75 37 35 27 29 43 41 67 34 39 71 92 86 98 89 67 96 59 58 74 116 139 121 110 129 146 148 161 157 152 132 121 171 203 198 203 184 135 103 109 123 65 105 109 116 173 194 181 195 200 147 78 43 35 25 16 19 20 19 17 16 15 14 13 14 13 12 13 13 15 17 17 15 18 25 35 49 64 66 58 56 80 111 128 102 109 123 170 157 116 44 8 3 5 6 6 5 6 6 6 6 6 6 6 6 6 5 6 5 6 6 6 6 5 5 6 6 5 6 5 5 6 5 6 6 
7 7 6 7 6 7 7 7 10 5 11 51 182 142 106 84 78 77 87 118 150 154 141 132 106 104 105 106 99 90 79 75 84 88 105 118 122 125 119 104 101 108 115 111 103 101 108 117 123 111 116 134 131 112 117 144 183 220 250 239 164 60 10 3 2 3 11 21 9 3 5 4 7 6 7 7 8 7 5 4 10 13 25 42 37 22 30 62 38 34 29 26 24 26 32 39 47 47 41 51 80 85 72 73 81 80 68 59 62 59 48 43 54 48 52 80 81 53 45 45 42 56 75 68 39 24 28 34 70 42 34 61 88 70 64 53 25 27 19 35 34 30 26 57 85 108 116 118 92 90 99 90 33 32 23 23 43 47 71 39 55 80 91 94 104 75 55 96 96 98 103 115 112 91 94 122 132 133 164 171 156 139 140 195 204 196 197 178 128 100 115 144 107 158 135 111 158 180 165 186 164 106 54 39 36 22 12 15 16 16 14 12 11 12 11 9 11 11 12 12 13 15 15 14 19 30 43 56 67 64 55 54 82 115 125 93 118 144 181 151 99 35 6 5 7 6 6 6 6 6 6 6 6 6 6 6 5 6 5 6 5 5 5 5 6 5 6 6 5 6 5 6 6 5 6 6 
7 6 7 6 7 7 7 7 7 4 6 36 144 138 103 93 101 84 76 90 117 138 139 134 152 138 132 134 128 109 90 80 72 67 79 102 127 147 146 128 110 118 122 115 105 103 109 114 115 104 108 125 129 116 109 116 129 124 161 227 247 200 110 41 11 4 12 24 14 5 6 9 9 7 6 8 9 9 6 4 15 17 18 30 35 25 30 59 57 43 34 33 33 32 34 39 37 39 31 39 73 75 54 51 60 64 58 53 65 71 56 43 44 60 76 86 77 63 58 57 58 43 55 90 79 37 23 34 87 65 50 57 86 62 62 61 39 30 18 37 41 35 23 55 89 101 97 102 83 72 72 69 26 24 21 23 43 43 69 54 80 104 93 78 90 77 67 104 120 115 108 105 99 88 98 129 126 132 168 165 144 144 161 213 195 186 183 170 139 130 148 166 166 162 122 117 166 185 170 178 155 107 72 61 50 28 16 17 16 16 13 11 11 14 14 10 10 10 10 11 11 13 14 15 23 38 52 62 65 58 51 54 88 112 115 95 134 157 175 133 89 32 7 5 8 6 6 7 6 6 6 6 6 6 6 6 6 5 6 6 6 5 5 6 6 6 6 5 6 6 5 5 6 6 6 6 
6 6 7 7 7 7 7 7 4 4 4 31 118 128 76 64 99 107 103 89 83 91 101 105 109 114 125 127 110 93 88 95 82 67 60 66 81 110 139 147 125 114 105 110 128 141 133 116 117 117 116 118 126 129 118 105 115 125 123 144 212 252 227 194 104 46 19 22 25 17 12 8 8 6 7 11 16 16 11 7 10 21 25 24 27 27 30 40 61 46 36 34 32 28 32 44 39 42 30 36 72 79 60 59 71 69 55 50 67 79 68 55 43 66 96 98 81 67 64 72 76 46 37 72 105 66 30 32 82 84 69 66 91 75 71 62 58 34 20 39 53 53 30 59 105 104 87 94 86 69 57 50 24 21 23 28 43 30 49 56 85 120 97 69 83 99 103 110 99 98 95 101 112 110 112 126 124 144 179 158 136 149 166 197 179 184 180 155 136 152 181 193 195 127 101 135 176 186 182 180 172 134 96 69 42 23 18 17 32 27 18 12 14 18 18 14 11 10 9 10 12 15 16 16 28 46 58 62 59 52 52 60 94 102 110 110 151 155 160 116 87 34 8 5 6 6 7 6 6 6 6 6 6 6 6 6 6 5 6 6 5 5 5 6 5 6 5 5 6 6 5 6 6 5 6 6 
7 6 7 7 7 6 7 6 6 7 2 26 99 134 75 64 72 91 100 89 79 78 74 66 59 66 77 84 82 79 79 82 80 70 64 54 44 56 85 110 114 112 109 113 131 145 139 125 120 126 126 120 129 141 135 116 127 137 139 121 120 174 237 253 237 159 76 42 31 17 6 4 7 5 7 14 24 27 19 11 8 20 27 26 34 41 32 19 44 46 54 57 46 32 31 40 46 48 39 44 74 90 87 90 90 86 70 65 80 83 64 48 45 53 83 99 88 68 57 74 86 67 39 46 88 92 51 28 58 80 75 73 96 98 89 70 54 29 14 26 43 57 31 54 108 107 86 99 99 79 61 55 29 22 26 33 50 29 42 59 84 121 104 78 88 114 121 98 100 96 90 94 115 124 122 125 126 158 185 154 140 156 154 167 164 178 176 143 124 151 193 203 150 93 95 143 163 169 184 185 167 129 91 57 33 28 33 35 52 36 19 12 13 17 18 15 15 13 12 11 12 15 18 19 31 48 60 60 55 49 55 70 100 95 114 128 150 142 155 116 89 35 8 5 7 7 7 6 6 6 6 6 6 6 6 6 6 5 5 5 6 5 5 5 6 5 6 5 6 6 6 6 6 5 6 6 
6 6 7 7 6 7 6 6 5 8 2 13 72 138 87 82 80 86 91 96 103 107 95 82 82 69 52 47 56 71 81 83 80 87 100 95 72 64 75 87 101 122 138 137 133 134 138 139 121 124 123 123 126 131 128 122 121 147 150 126 110 121 156 197 238 244 181 109 77 42 15 12 9 7 6 13 25 33 28 20 16 18 25 32 40 47 42 27 35 44 63 77 69 48 36 36 42 45 47 55 77 96 105 109 100 103 92 83 90 85 62 43 43 45 74 90 87 73 57 66 88 77 58 48 63 83 65 32 48 80 78 73 75 88 93 80 52 32 19 18 31 53 33 56 93 103 89 99 94 70 53 52 34 23 23 31 61 46 52 63 98 110 95 84 79 91 111 88 117 111 95 86 101 116 126 135 135 162 173 142 143 154 140 159 149 149 145 135 136 162 179 167 87 87 111 141 153 175 202 207 173 126 92 71 57 57 60 54 43 24 10 8 13 16 15 14 19 16 13 11 12 15 19 22 34 50 61 56 50 46 55 75 97 91 124 134 132 126 163 130 90 32 4 4 7 9 8 6 6 6 6 6 6 6 6 6 6 6 5 5 6 6 6 6 6 5 5 6 6 6 6 5 5 5 6 6 
7 7 7 7 6 6 6 7 5 14 4 15 68 148 99 99 80 75 74 77 82 87 95 103 100 95 81 65 62 68 73 72 79 87 112 124 106 90 83 83 87 111 131 133 130 131 132 129 151 142 140 147 142 128 123 129 132 143 162 161 132 116 133 163 174 245 236 189 184 136 64 37 19 10 6 10 22 34 35 30 24 20 30 40 32 34 50 60 40 40 48 63 69 59 45 37 32 41 53 66 81 98 108 107 113 118 104 85 87 88 73 59 38 52 85 85 83 84 66 63 86 70 72 70 55 63 66 43 53 91 87 72 47 61 79 87 65 53 36 25 31 61 44 72 85 105 94 93 75 44 30 32 39 23 19 25 65 60 58 58 113 95 76 79 64 65 100 98 109 110 95 83 92 110 125 138 145 160 154 126 138 148 136 166 137 116 109 127 161 184 162 121 89 136 161 150 157 186 197 192 187 130 101 95 82 67 49 30 21 8 3 8 16 19 17 14 19 18 16 12 12 15 20 25 37 54 62 56 48 43 55 75 93 91 132 134 112 112 173 147 87 25 1 1 8 9 6 5 6 6 6 6 6 6 6 6 6 5 6 6 6 5 6 6 6 6 6 6 6 5 6 6 6 5 6 6 
7 6 7 6 6 5 6 5 6 7 7 37 84 148 139 124 117 94 65 66 92 96 91 95 98 101 101 91 76 67 69 75 76 81 94 112 123 124 120 116 87 89 108 138 150 135 123 121 122 110 139 161 167 169 139 114 119 127 145 174 175 138 116 125 147 183 216 214 211 217 184 128 79 40 10 5 19 39 40 28 32 24 27 36 32 33 52 72 51 47 45 48 58 59 47 36 25 28 48 56 85 108 84 100 100 117 107 85 83 83 64 44 38 48 80 102 94 89 87 76 73 60 79 76 60 69 69 54 46 71 112 88 45 45 63 81 81 40 53 50 33 47 54 77 56 47 69 96 80 51 31 16 23 20 16 34 62 53 45 65 82 83 65 74 60 65 81 99 119 89 88 99 97 105 129 139 157 151 135 108 122 115 146 145 116 98 124 149 167 182 157 138 140 164 163 162 192 205 183 165 178 168 170 105 81 39 16 17 19 14 8 12 30 17 18 21 30 26 20 9 9 17 17 28 38 49 55 47 37 43 69 95 109 102 120 141 128 149 180 144 64 4 3 7 5 8 5 7 7 6 6 7 5 6 6 5 5 6 5 6 5 5 5 6 6 6 6 5 5 6 6 5 5 5 5 6 
7 7 7 6 6 5 6 6 6 4 1 20 55 138 160 147 114 89 57 49 62 75 74 71 76 73 69 71 73 73 73 71 70 74 84 95 105 110 117 124 105 93 86 96 121 140 133 117 117 106 121 135 151 165 147 135 132 123 129 161 187 165 130 120 124 149 181 191 200 223 234 220 176 138 63 18 12 26 41 34 25 23 27 31 32 40 54 60 62 59 52 45 48 56 53 42 26 23 39 44 77 113 89 84 94 115 113 91 79 71 56 42 39 49 77 102 100 98 90 74 65 49 72 77 56 63 72 67 52 59 90 88 63 58 64 75 83 57 42 46 35 43 53 80 54 37 50 81 80 64 39 14 18 18 16 24 44 39 32 44 57 63 60 72 73 78 91 100 97 77 83 98 94 96 116 128 133 126 116 98 115 112 139 131 104 107 144 158 164 173 149 140 158 162 173 198 200 158 139 162 195 189 172 84 42 15 20 30 28 19 10 14 33 22 28 35 38 25 15 8 10 17 19 30 37 45 49 45 44 62 96 125 121 119 132 145 135 159 176 125 44 2 4 7 4 7 4 4 6 6 6 6 6 6 5 6 5 6 6 6 6 6 6 5 6 6 6 6 5 5 5 5 6 5 6 5 
6 7 7 6 6 6 5 5 8 5 1 7 26 114 159 139 112 81 49 32 36 53 64 55 53 51 51 56 64 68 65 62 69 74 80 84 83 87 103 120 125 112 89 78 95 125 124 101 111 110 118 121 141 159 153 164 142 124 116 143 185 184 152 133 139 146 162 171 167 175 203 227 236 241 160 74 30 28 46 40 21 19 20 22 32 51 56 44 58 65 57 41 40 52 54 45 32 24 31 31 58 107 100 83 89 109 118 102 85 72 59 51 52 56 78 100 106 102 87 68 54 36 63 79 60 68 78 69 63 54 72 83 76 66 56 58 78 74 31 39 38 47 54 90 60 35 44 71 74 67 47 18 13 17 16 18 26 24 21 29 47 56 61 67 78 79 94 91 78 68 80 100 98 92 103 115 109 103 100 96 120 115 131 108 92 115 150 144 144 153 142 154 147 174 199 195 157 126 145 196 197 170 119 50 29 24 52 55 34 18 10 17 39 33 42 47 51 24 11 7 11 18 19 29 33 37 38 38 49 83 125 151 132 135 144 150 143 163 166 102 31 3 6 8 5 9 7 6 7 7 7 6 6 5 6 5 6 6 5 6 5 6 6 6 5 5 5 5 6 6 5 5 6 6 6 6 
6 6 6 6 6 6 5 6 7 7 4 5 13 98 152 125 106 69 41 26 26 47 70 68 55 57 61 63 64 63 63 63 67 75 81 83 78 78 93 110 132 141 134 112 104 113 111 99 96 104 111 107 122 135 130 148 146 134 121 130 159 169 159 150 143 133 142 159 158 148 162 191 210 249 221 162 90 53 63 64 41 33 28 31 45 68 68 46 46 57 54 38 35 46 50 43 34 25 32 33 52 95 102 86 75 86 98 99 87 77 65 52 66 71 86 103 110 100 77 58 46 30 58 80 72 84 80 53 74 59 66 70 70 65 51 51 65 74 29 37 47 67 54 101 78 52 55 66 56 51 41 19 12 15 16 16 19 16 18 29 52 61 68 63 74 71 94 88 76 66 74 100 107 97 92 96 110 92 87 85 114 114 126 92 86 113 135 119 125 141 137 158 153 183 182 137 123 160 192 188 149 127 87 53 57 64 96 61 32 16 9 20 50 48 59 59 63 21 7 7 12 17 18 26 30 33 31 34 57 101 143 160 140 143 151 163 157 164 157 100 34 5 5 8 7 9 7 7 7 6 7 7 6 5 5 5 6 6 6 5 5 5 5 6 6 5 6 5 5 6 6 5 7 7 6 6 
6 6 6 6 6 6 7 6 5 7 5 7 11 96 163 142 109 69 43 34 32 48 75 85 67 68 71 73 74 75 75 74 63 72 85 91 88 85 91 102 117 142 164 157 136 121 117 116 89 89 85 78 94 108 92 99 136 138 126 121 140 156 157 154 149 128 129 158 170 152 146 162 190 216 219 219 154 84 86 99 74 66 64 66 69 81 89 84 49 54 48 37 34 43 50 48 34 24 30 41 62 96 100 81 66 63 73 78 78 77 64 41 62 74 91 109 116 98 70 53 44 36 63 76 73 92 79 42 82 77 75 58 56 61 54 57 56 66 41 42 56 93 56 98 97 72 61 54 41 36 30 17 13 12 14 17 15 12 18 33 55 67 74 66 73 71 98 96 77 61 62 88 111 96 80 79 117 88 77 77 104 110 126 88 85 105 127 118 131 141 122 133 175 150 129 126 155 199 181 118 112 121 116 94 97 88 95 44 28 19 18 27 51 54 78 81 58 17 6 7 11 15 18 26 30 34 33 37 70 123 157 158 145 149 163 183 177 169 164 125 55 11 0 6 6 5 4 6 6 7 7 6 5 6 6 6 6 5 6 5 6 6 6 5 5 6 6 6 5 6 6 6 6 6 6 6 
6 5 6 5 6 6 7 6 5 6 4 6 8 83 154 158 128 93 65 51 41 43 57 70 67 59 53 57 68 77 79 78 66 75 88 98 98 93 91 95 94 112 141 158 151 138 132 135 118 98 83 74 90 106 82 71 102 117 114 110 130 159 168 165 158 133 123 143 160 146 129 133 178 184 193 226 191 118 97 95 68 73 88 92 77 77 101 125 69 58 44 33 35 45 54 57 51 37 30 39 63 96 105 93 80 71 74 75 73 83 75 47 48 65 86 106 119 102 70 56 48 51 73 72 66 84 73 47 112 116 98 58 46 52 48 53 50 59 58 54 66 115 71 83 97 78 54 40 38 35 27 17 16 11 13 16 12 9 19 37 56 67 72 72 76 72 89 90 69 54 50 75 98 87 71 77 107 86 92 97 119 116 129 85 92 104 135 140 143 135 100 96 133 101 124 182 183 149 120 97 134 142 141 106 103 86 78 37 27 26 28 29 39 49 92 102 42 12 9 10 10 15 20 26 29 33 32 38 74 133 160 149 140 155 173 196 185 171 177 161 101 32 4 6 7 5 5 7 6 7 6 7 5 6 5 6 5 5 6 5 6 5 6 6 5 6 6 5 6 5 6 5 6 5 6 7 
6 6 6 6 6 7 6 7 7 6 4 7 8 63 124 150 132 118 92 69 55 45 44 50 59 48 37 36 45 57 66 70 68 73 82 95 99 99 100 102 98 109 129 147 153 150 143 139 155 133 121 104 101 106 86 68 71 97 103 89 102 133 158 166 144 133 121 126 142 139 133 135 151 161 171 199 206 171 121 80 53 67 90 94 74 69 90 110 77 58 38 31 37 48 53 53 62 62 45 38 55 83 103 103 102 93 95 84 73 92 102 76 46 61 71 90 110 99 73 64 60 64 74 69 72 84 69 54 149 151 118 63 46 44 33 35 42 52 65 66 76 126 104 77 72 70 46 32 40 40 27 23 19 14 16 15 11 13 26 40 47 54 53 67 67 67 72 72 59 53 51 70 87 75 74 102 110 96 113 115 120 115 137 99 113 108 138 141 121 102 80 85 80 97 163 191 127 91 109 126 157 148 138 87 95 89 71 45 33 29 27 25 37 59 107 106 28 11 15 16 10 15 23 27 27 31 30 34 69 129 154 139 131 160 181 192 178 170 190 184 157 67 14 6 8 6 8 8 6 7 6 6 5 6 5 5 6 6 6 6 6 6 6 5 5 5 6 5 6 5 6 5 5 5 5 6 
5 6 6 6 6 7 7 7 7 6 4 11 12 57 108 142 111 122 105 78 66 55 47 48 59 51 40 30 28 37 53 67 58 61 71 85 100 108 118 127 127 140 152 158 161 159 153 143 160 154 163 135 99 91 79 66 62 96 102 73 66 91 126 148 157 159 144 132 134 135 132 135 131 151 159 167 203 223 164 89 64 74 90 92 75 67 70 70 68 49 32 31 39 49 48 42 49 79 72 51 53 69 87 92 106 105 105 85 67 94 120 102 55 63 62 71 95 93 75 72 73 67 69 70 87 92 66 55 163 156 118 64 48 42 26 25 33 48 63 74 81 131 141 77 46 59 43 30 41 39 28 32 22 20 20 16 12 19 35 45 34 37 31 54 56 61 63 66 52 55 59 74 83 72 83 131 131 110 115 100 93 95 145 127 138 114 130 122 87 70 70 92 74 130 184 130 64 86 143 142 131 134 144 93 100 90 63 51 42 30 23 23 47 83 126 99 23 13 22 21 12 16 25 28 30 34 30 32 65 125 151 135 124 166 188 185 170 171 195 193 184 91 20 6 6 6 8 5 6 6 7 6 6 5 6 6 6 6 6 6 5 6 6 5 5 5 6 5 5 5 6 5 4 4 5 5 
6 6 6 6 6 6 6 6 6 7 3 5 2 28 76 126 116 105 121 78 76 85 86 72 61 68 70 57 48 51 62 73 71 82 97 108 111 109 103 98 115 121 126 137 150 163 161 156 157 160 160 162 153 130 102 83 51 62 80 98 96 84 93 127 150 164 165 153 152 164 174 172 185 151 141 151 166 196 199 162 102 97 89 75 79 76 65 79 91 85 64 36 24 34 38 26 30 65 89 65 50 52 54 73 100 109 82 70 64 66 82 103 51 38 56 89 89 78 85 94 92 85 118 106 111 96 67 40 119 142 134 88 50 31 25 25 27 30 45 51 84 117 137 136 68 52 53 44 46 22 22 27 20 43 22 10 14 18 26 27 24 25 23 48 59 68 58 68 69 62 80 88 67 117 120 101 80 89 108 115 101 94 99 105 91 92 94 126 81 69 92 100 91 138 119 89 65 110 115 111 125 117 121 118 97 78 62 45 31 30 24 35 40 137 123 71 11 46 18 14 22 13 23 21 23 32 31 39 70 114 140 123 145 192 192 164 169 171 174 199 172 96 27 6 5 9 8 5 6 6 6 6 6 5 6 5 5 5 5 6 6 6 5 6 5 5 5 5 6 5 6 6 5 5 6 6 
6 6 5 6 6 6 6 6 5 9 6 7 2 26 76 132 119 97 118 91 90 86 78 57 52 59 62 54 50 52 58 64 62 73 86 94 96 98 101 103 96 97 96 100 112 133 150 157 158 153 150 152 157 151 135 121 87 74 72 89 96 81 86 116 156 169 172 161 148 153 167 176 188 163 153 146 139 160 170 141 108 90 90 89 94 99 90 94 93 92 92 71 42 38 41 31 25 52 83 69 55 54 52 63 96 95 71 69 74 69 79 93 51 31 42 85 101 97 101 110 97 94 133 122 112 94 71 47 96 120 130 108 77 47 26 18 25 27 49 54 76 109 146 136 129 105 102 83 67 21 17 24 18 38 23 11 12 14 18 16 19 26 32 58 64 65 52 60 62 61 71 65 47 97 102 89 58 83 104 104 98 97 97 95 91 93 92 113 82 81 99 96 79 136 128 94 93 114 97 91 129 109 102 98 74 57 50 39 33 25 26 53 60 127 94 51 27 53 18 12 18 12 21 20 24 32 33 47 76 106 127 115 134 178 180 154 160 171 177 193 178 107 37 7 2 7 9 7 6 6 6 6 6 6 5 6 5 6 5 6 5 6 6 6 5 6 6 5 5 6 5 6 4 7 7 2 
6 6 6 6 6 6 6 6 5 9 6 6 1 31 82 142 137 100 116 100 92 79 79 62 53 58 59 54 51 51 50 47 51 60 68 71 73 78 91 98 95 94 91 88 94 112 129 139 148 146 143 145 149 156 161 163 141 109 85 86 97 92 90 106 146 157 172 173 164 156 165 179 189 181 179 160 139 155 166 142 96 77 89 98 100 111 116 129 83 73 85 83 53 39 39 34 26 39 67 64 50 47 45 49 77 86 83 94 109 87 90 100 51 20 20 62 97 97 96 102 89 86 130 132 109 85 73 61 64 87 110 109 86 52 28 21 25 24 56 61 70 89 143 127 138 118 123 108 79 18 10 15 21 38 27 13 11 11 15 12 24 37 50 68 65 57 48 57 71 71 65 50 39 82 71 54 41 87 115 108 109 109 98 92 101 109 111 121 96 98 100 83 73 123 119 89 122 122 105 108 131 96 96 103 73 44 41 43 43 27 31 71 73 108 71 44 56 61 15 8 14 12 20 21 22 25 29 53 77 89 105 103 129 168 169 146 154 178 182 182 168 115 48 10 2 5 8 6 7 7 6 6 6 5 5 6 6 6 6 6 5 5 5 6 5 5 5 6 5 5 5 5 3 5 3 4 
6 6 6 6 6 6 6 6 7 8 3 5 6 43 98 161 143 97 106 99 90 72 85 73 58 58 57 52 51 52 47 40 50 55 60 61 65 74 88 96 104 106 104 101 104 112 120 123 138 146 151 146 140 143 158 174 168 152 121 103 107 111 111 118 131 137 157 181 188 181 174 176 169 165 171 157 141 155 155 121 89 88 97 99 100 98 106 146 91 61 58 67 50 35 33 29 29 26 44 44 33 33 33 33 53 82 103 109 126 97 107 116 71 24 13 44 87 93 86 87 70 64 100 130 105 74 74 79 56 73 91 96 73 44 30 27 28 23 57 75 72 69 121 110 111 107 124 124 109 39 16 14 30 38 29 15 10 12 16 18 31 45 56 61 58 55 57 70 83 72 56 49 47 83 57 37 71 114 122 106 112 115 105 104 117 120 120 111 89 85 86 72 75 96 114 102 142 123 121 125 117 85 88 95 59 35 44 63 55 38 47 84 78 98 76 69 78 58 12 5 12 11 18 19 20 19 23 49 71 74 89 96 129 163 169 148 156 187 190 170 149 114 55 15 3 4 6 6 7 6 7 6 6 5 5 5 6 6 6 5 6 5 6 6 6 6 6 5 5 5 5 5 3 3 5 14 
6 6 6 6 5 6 6 6 8 9 3 6 6 41 99 173 145 102 98 93 97 78 84 62 57 54 48 43 46 49 46 41 52 55 58 64 72 84 95 99 106 110 111 110 112 122 128 131 136 143 150 149 143 141 144 149 159 158 150 139 131 119 127 154 149 142 145 168 191 193 180 167 169 154 155 150 145 162 152 108 105 118 113 100 111 93 76 118 126 82 60 58 47 31 26 24 25 18 26 26 21 25 25 25 43 79 100 89 119 99 110 107 81 31 11 29 70 83 76 74 64 53 72 118 105 71 72 95 71 72 83 88 72 46 28 22 31 27 50 87 84 65 97 102 94 97 119 125 135 66 26 12 35 28 25 16 11 12 15 19 25 37 44 41 46 50 62 78 72 56 47 51 52 85 66 63 127 126 98 84 107 120 113 116 109 103 101 80 63 58 66 75 71 75 122 140 148 107 105 96 81 82 76 52 31 36 68 91 46 44 64 85 70 83 72 71 74 40 7 4 10 12 15 17 20 18 18 40 61 64 80 90 119 149 165 155 162 192 192 159 133 104 55 17 4 6 8 6 6 7 7 6 6 6 6 5 6 5 6 5 6 5 6 6 6 7 6 6 6 5 5 5 6 9 14 17 
6 6 6 6 6 6 6 6 5 10 5 7 1 21 63 135 171 140 110 85 96 85 87 55 59 55 47 39 37 41 39 34 44 46 51 59 70 82 89 90 110 115 115 109 106 115 129 138 132 132 137 146 154 150 136 122 140 134 147 170 161 125 130 176 190 172 155 151 166 181 175 161 163 137 127 128 130 151 148 112 108 117 105 97 122 105 66 81 125 99 68 53 42 28 19 23 21 14 17 18 20 28 26 25 49 82 101 89 145 120 109 73 71 40 15 22 55 78 74 68 64 58 56 99 102 74 71 100 67 60 68 82 81 59 30 13 31 36 36 83 101 76 82 105 99 101 114 118 144 87 41 21 38 19 19 17 11 10 10 13 21 31 36 29 35 38 52 63 53 44 49 57 43 74 83 108 116 93 67 75 113 127 106 96 75 79 91 71 63 58 63 77 66 71 121 145 116 80 82 73 59 90 75 32 29 68 102 104 54 63 88 92 69 72 56 45 55 22 4 4 10 13 13 15 19 17 15 29 48 59 73 73 95 124 160 165 164 185 185 148 123 97 53 18 6 5 7 7 6 6 6 6 6 6 5 6 5 6 6 6 6 6 6 5 6 6 6 6 6 6 6 6 10 12 13 10 
6 6 6 6 6 6 6 6 4 8 5 8 0 6 20 59 136 157 131 83 93 87 96 69 67 64 55 44 37 37 34 31 40 44 49 57 64 74 78 80 101 115 124 113 97 94 104 117 119 121 128 143 155 153 136 123 130 129 143 172 179 148 136 153 199 202 183 153 144 158 169 165 133 104 98 96 89 103 112 97 97 88 89 93 111 113 81 67 92 93 62 39 40 30 20 26 23 17 17 13 20 29 24 26 64 84 101 94 173 132 98 49 64 59 34 26 52 80 75 62 58 71 51 79 93 82 77 101 64 57 63 76 78 64 38 17 29 52 23 65 106 96 76 109 122 112 112 112 141 94 68 60 55 18 18 20 12 8 7 12 22 33 42 28 33 34 47 53 44 45 65 70 42 73 98 124 72 68 70 88 107 104 81 64 56 69 93 67 70 68 65 70 58 88 117 116 72 62 65 72 71 96 65 34 57 99 105 100 92 91 100 88 70 76 54 35 37 11 5 8 11 14 14 16 15 18 14 24 43 65 77 62 72 104 159 177 160 168 169 136 115 95 61 28 10 5 5 7 6 6 6 6 6 5 5 6 6 6 6 6 6 6 5 5 6 6 6 5 6 5 6 7 9 9 7 4 
6 6 5 6 6 6 6 6 6 7 2 9 4 1 1 13 53 126 139 92 96 88 103 82 69 69 63 50 44 41 38 34 46 52 60 66 68 74 79 82 76 103 128 119 93 78 80 88 106 119 136 147 149 145 141 138 134 144 148 157 181 182 147 119 181 211 209 165 139 149 169 173 141 118 114 106 83 84 98 97 95 75 90 96 94 109 98 69 77 88 53 29 40 38 23 27 28 24 16 7 15 25 20 24 74 80 85 76 154 112 87 46 51 62 42 23 39 65 58 40 50 79 51 64 88 93 87 108 79 74 77 76 66 58 44 30 28 67 16 51 106 111 72 111 112 92 83 80 101 65 58 76 79 24 20 23 14 8 8 15 23 37 49 33 39 39 56 63 40 46 78 86 51 88 108 120 64 77 97 98 81 66 55 47 59 72 86 49 54 64 64 63 50 110 122 101 55 57 53 68 105 87 39 30 71 94 82 96 97 78 67 52 48 63 49 31 28 7 6 10 12 16 16 17 15 22 19 25 49 80 88 64 62 97 162 187 157 154 155 128 111 98 73 43 18 7 5 7 6 7 6 6 6 6 5 5 6 7 6 6 7 7 6 5 5 5 6 5 7 6 6 6 5 8 6 2 
6 6 6 6 6 6 6 6 7 6 6 5 6 6 5 4 31 79 148 91 77 76 100 105 72 65 73 59 49 46 34 38 41 54 62 59 57 63 72 77 78 90 102 109 109 104 91 82 90 112 122 123 145 167 163 147 151 135 142 169 190 204 182 136 156 180 204 189 160 154 164 161 146 120 117 127 112 90 85 87 84 67 75 95 98 98 97 88 102 70 50 50 49 36 27 28 29 14 15 15 13 23 26 17 52 120 110 40 127 105 72 53 44 41 62 27 34 46 42 50 47 67 49 58 69 80 74 93 80 87 85 76 34 43 57 27 30 50 30 30 61 127 90 107 110 77 81 86 78 50 65 83 83 57 48 19 12 25 18 16 32 37 48 43 36 57 72 48 39 53 72 65 22 111 110 112 75 95 115 84 55 42 66 65 75 74 78 31 43 66 67 76 70 123 105 61 60 57 60 97 113 62 20 38 72 67 72 78 63 47 51 61 56 50 45 34 22 13 10 13 19 19 16 12 14 17 19 23 49 94 91 51 58 135 189 167 148 153 144 121 97 111 83 90 48 16 2 5 5 6 5 6 5 5 5 6 6 6 6 5 5 5 5 5 8 8 8 7 7 7 7 6 7 6 6 6 
6 6 6 6 6 6 6 6 8 7 7 8 8 10 9 7 22 68 150 111 65 52 72 123 93 78 79 68 56 45 27 27 28 37 44 41 37 40 51 61 64 71 80 88 99 110 117 120 87 89 95 119 139 137 145 173 174 163 167 186 199 204 202 192 161 175 199 204 185 169 152 133 147 132 132 145 142 112 91 91 79 64 71 88 87 90 98 96 95 67 56 62 54 33 23 26 25 17 15 13 11 20 26 13 26 122 169 90 82 72 71 65 55 60 76 30 29 41 42 38 38 49 42 57 65 64 50 59 69 77 85 86 34 32 49 34 20 26 30 36 60 94 102 116 102 79 87 96 86 69 74 73 95 54 38 18 18 34 24 21 28 41 54 42 32 56 72 49 28 55 53 28 26 127 123 93 72 103 110 67 37 37 82 87 77 73 79 39 47 75 92 114 112 88 60 58 74 82 99 133 76 45 33 54 69 68 71 62 42 44 54 49 32 32 39 37 23 12 10 15 17 11 10 12 12 17 18 25 57 96 85 51 90 152 185 162 149 152 140 118 80 135 124 108 52 23 8 6 7 6 6 6 5 5 6 6 6 5 5 5 5 5 6 5 7 7 7 6 6 6 6 6 6 6 6 6 
6 6 5 6 6 6 6 6 7 7 7 7 9 10 10 9 10 43 135 148 68 40 44 134 109 91 86 77 67 51 27 21 24 34 46 55 53 51 58 69 62 63 64 67 77 95 117 131 130 106 87 102 127 129 133 154 174 182 189 200 204 198 202 223 197 190 189 188 178 168 150 127 108 109 107 131 172 157 120 113 98 83 83 85 74 72 83 86 73 60 62 75 66 38 23 23 22 23 13 12 12 24 41 23 7 81 184 182 112 84 92 110 72 87 88 31 24 40 54 35 26 36 47 66 61 49 33 34 42 50 77 111 52 33 50 48 25 24 54 67 70 53 100 120 124 112 119 136 128 140 129 96 108 50 28 15 22 33 19 21 28 47 57 38 31 59 75 48 45 63 42 23 69 108 87 60 83 106 90 50 34 43 90 75 53 59 91 72 66 79 91 108 109 71 71 100 116 120 122 113 67 49 63 65 50 58 62 51 44 57 64 43 24 30 42 41 22 11 12 18 15 7 6 9 11 19 21 31 68 96 79 54 121 158 168 150 144 147 132 114 92 166 152 112 49 29 14 6 7 6 7 6 6 6 6 5 5 5 5 5 5 5 4 5 6 6 6 5 5 5 6 5 6 6 6 6 
6 6 6 6 6 6 6 6 7 6 5 6 7 6 6 6 2 17 96 180 102 59 29 112 112 103 92 81 76 66 45 29 22 26 42 62 69 62 54 52 57 59 58 56 59 72 94 113 151 144 116 99 114 137 143 141 156 186 198 199 204 194 186 200 215 207 193 171 156 158 149 127 103 116 96 101 153 158 114 101 115 99 91 81 62 56 62 67 56 55 64 80 80 59 33 21 21 26 12 16 24 36 65 51 8 29 98 190 177 107 89 134 106 126 111 36 22 39 63 31 24 45 73 72 45 31 24 28 23 24 60 133 82 42 46 46 32 34 77 108 88 34 78 110 109 97 90 101 100 141 115 61 95 43 25 17 23 26 16 28 37 51 51 31 34 68 77 45 55 61 43 47 140 87 59 55 88 97 75 46 34 36 67 43 47 51 82 81 66 71 82 98 91 95 103 98 98 122 129 102 83 69 73 43 27 38 40 41 38 48 43 24 21 36 40 26 18 14 16 18 13 7 7 10 10 24 27 38 76 93 74 64 122 141 143 134 137 137 124 113 120 166 129 98 52 33 15 6 7 7 7 6 6 6 5 5 5 5 5 5 6 5 5 5 5 5 5 5 6 5 6 5 6 6 6 6 
6 6 6 6 6 6 6 6 6 6 5 5 5 5 5 5 1 3 51 181 148 101 31 72 112 116 98 77 73 79 73 56 35 27 28 41 53 51 40 32 41 45 53 57 59 68 89 110 117 145 150 130 125 136 149 162 164 198 205 190 198 203 189 178 181 202 209 177 147 148 145 120 114 141 113 86 111 120 100 97 101 90 82 72 56 50 57 62 59 63 64 67 79 83 57 29 19 25 13 26 43 44 66 58 25 27 51 120 190 101 64 113 132 152 141 54 24 37 58 20 30 68 110 67 26 19 27 43 27 15 41 133 99 47 34 26 23 33 61 117 112 50 62 100 121 103 76 74 84 132 99 40 60 30 26 22 25 23 18 50 53 53 38 24 38 72 72 39 61 66 56 68 146 55 41 55 103 102 90 59 39 30 55 50 64 44 46 54 57 78 97 112 82 103 82 48 64 108 120 102 86 74 51 20 24 41 28 29 30 34 24 15 25 43 38 18 13 16 17 14 9 8 10 9 10 28 35 46 75 86 76 77 107 123 129 130 134 129 117 112 125 136 97 95 61 32 12 7 8 7 6 6 6 4 5 4 6 6 6 6 6 6 6 6 6 6 6 6 7 5 5 6 6 6 6 6 
6 6 6 6 6 6 6 6 7 6 6 6 6 7 7 7 5 0 19 144 167 138 47 49 104 121 102 76 65 71 85 77 63 41 25 24 34 43 43 40 32 36 46 56 64 72 89 105 114 131 148 157 156 139 133 148 186 214 211 185 190 213 207 183 163 189 198 162 129 131 142 131 107 142 129 92 83 84 91 112 93 84 75 68 59 57 61 64 69 74 63 49 61 86 76 46 19 23 16 31 52 42 38 31 27 52 68 79 160 89 50 70 108 128 160 78 35 40 53 21 32 80 125 62 26 28 46 78 48 17 28 110 93 49 33 20 19 30 45 111 136 91 66 100 123 105 72 61 84 121 89 37 31 22 28 23 22 16 16 59 66 48 24 19 40 66 61 40 72 55 53 79 101 24 28 72 117 86 79 52 40 36 53 64 48 31 28 56 82 104 95 86 68 74 51 46 84 101 75 62 77 68 37 25 52 63 36 26 32 36 26 19 29 38 28 15 10 15 15 9 6 8 10 7 8 27 41 47 64 77 77 79 96 116 127 129 128 119 109 108 111 123 91 97 57 22 5 5 7 7 6 6 5 5 4 5 7 6 6 6 7 6 6 5 5 6 6 7 7 7 7 7 6 6 6 6 
6 6 6 6 6 6 6 6 7 6 6 7 7 8 7 8 6 1 7 98 152 148 79 56 87 111 108 91 65 52 67 71 70 52 32 21 22 32 42 46 36 32 36 46 57 66 74 82 114 118 122 133 159 162 146 134 179 203 215 197 187 207 211 187 163 173 174 152 121 117 129 132 117 132 137 116 84 66 75 100 104 91 78 70 67 64 62 61 71 80 66 42 45 70 79 63 31 33 24 30 54 49 29 23 25 71 96 77 133 91 53 41 72 93 170 99 41 39 50 31 25 68 117 64 47 48 54 85 70 23 21 81 70 42 32 19 19 29 55 109 134 111 77 102 116 107 79 62 96 110 78 40 21 19 27 20 17 10 9 50 60 36 15 17 37 53 54 53 48 31 45 91 68 27 44 99 85 47 56 39 39 46 46 58 41 42 43 79 97 96 65 52 69 56 44 63 87 61 36 43 70 66 46 49 66 57 42 30 33 34 23 18 24 22 13 11 16 15 13 7 5 8 8 6 7 25 41 44 50 65 68 63 89 112 124 121 117 106 97 96 98 125 88 68 27 13 6 7 8 8 7 6 5 5 5 5 6 7 7 7 7 7 6 6 6 6 6 6 6 7 7 6 6 6 6 6 
6 6 6 6 6 6 6 6 6 6 5 5 6 6 6 6 5 3 3 71 133 146 110 76 69 101 114 115 76 41 50 60 68 65 49 31 22 27 35 40 41 30 25 33 45 53 57 61 76 104 103 93 129 189 198 169 155 180 217 217 193 196 201 182 149 150 166 169 142 116 108 104 119 107 122 136 107 77 80 100 110 95 77 69 69 67 61 57 65 79 72 45 39 59 77 78 52 51 37 31 58 66 41 35 60 95 116 99 135 112 75 42 65 83 184 112 40 32 39 32 22 57 105 68 69 57 41 56 81 26 17 61 47 28 24 14 14 23 69 102 109 96 79 103 106 105 85 64 98 90 56 29 18 19 25 17 16 10 8 46 49 25 10 16 34 43 51 70 32 37 66 97 46 49 65 77 55 36 77 58 54 62 52 71 78 87 68 76 66 57 46 56 76 55 51 64 49 19 23 57 64 66 60 67 46 27 34 28 34 30 18 18 26 19 11 14 24 16 11 9 7 8 7 6 9 24 41 41 41 55 58 46 84 107 116 110 105 95 87 86 90 124 72 31 6 10 14 16 9 8 7 6 5 6 5 6 6 6 6 6 6 6 6 6 6 6 6 6 6 6 6 6 6 6 6 6 
6 6 6 6 6 6 6 6 5 6 6 6 6 7 6 6 1 12 0 46 125 165 106 108 91 75 84 122 116 60 37 54 65 63 51 33 22 24 32 40 44 37 27 26 36 51 54 50 44 60 79 78 79 129 198 222 198 196 198 203 199 189 188 194 169 148 129 129 130 106 98 119 126 120 127 142 136 108 99 113 84 65 68 68 94 80 74 58 69 84 78 66 59 47 44 60 59 66 82 54 44 71 71 55 89 100 111 87 102 116 115 75 125 141 147 84 45 19 26 46 23 17 87 49 46 43 24 30 69 40 19 27 20 8 16 17 18 7 72 84 84 101 90 102 105 106 100 71 82 59 42 22 13 18 12 14 9 11 10 36 33 14 20 17 32 42 56 54 21 61 106 84 42 52 53 41 33 68 90 56 59 67 59 112 120 87 45 41 63 60 45 50 67 44 38 30 14 21 48 67 56 66 58 47 35 31 39 38 36 21 10 12 17 19 19 21 28 11 10 7 7 10 9 10 9 23 44 26 41 44 46 62 91 95 98 108 111 91 82 98 115 78 35 10 5 10 16 20 12 10 8 6 6 6 6 7 7 6 6 6 7 6 7 6 7 7 6 6 6 6 6 6 6 6 6 7 
6 6 6 6 6 6 6 6 6 5 6 6 6 6 6 6 6 10 0 22 90 163 116 110 101 79 81 117 131 88 52 46 64 64 54 44 36 28 27 35 36 39 38 35 46 73 88 85 81 80 91 96 84 91 136 191 201 202 202 198 188 183 184 188 174 154 124 115 114 94 81 92 103 109 118 130 138 126 114 113 75 66 72 67 97 95 94 74 70 65 56 67 84 71 51 48 40 38 61 51 57 58 69 78 85 95 90 76 101 97 100 108 145 138 115 52 27 25 30 44 32 12 62 65 65 61 35 23 46 29 19 25 17 9 18 16 13 14 60 42 53 103 94 71 67 91 102 66 44 31 28 20 8 10 12 19 9 12 13 27 22 19 29 26 35 54 58 45 38 102 98 54 50 58 38 24 50 70 60 44 66 95 107 133 70 51 31 31 45 42 30 31 28 38 39 22 15 38 67 66 59 66 58 50 40 34 38 33 18 12 9 10 15 18 20 22 24 10 9 8 7 10 8 9 9 20 35 21 35 39 38 48 80 87 88 89 83 66 68 93 99 64 28 10 8 13 19 22 9 8 6 6 6 7 6 5 7 6 7 6 7 7 6 7 6 6 7 7 6 6 6 6 7 7 7 6 
6 6 6 6 6 6 6 6 6 6 6 6 6 6 6 6 9 7 1 4 47 144 139 110 110 88 81 106 138 127 80 44 55 62 58 55 54 39 27 32 39 49 45 31 35 64 95 103 98 89 91 117 133 117 119 153 185 194 196 187 177 178 182 182 171 164 143 130 127 103 75 67 96 111 115 118 133 143 134 126 92 76 73 62 94 101 97 69 91 63 46 66 102 99 73 59 51 48 77 70 71 32 36 63 82 91 74 66 109 114 110 127 135 136 123 71 49 65 48 50 42 10 30 70 82 76 43 16 23 17 19 24 13 13 30 29 27 34 59 26 35 82 85 60 51 82 102 66 17 18 25 29 5 7 19 31 7 12 16 19 14 18 33 38 42 65 53 33 68 134 70 28 53 41 28 43 91 63 30 49 106 136 120 80 27 26 27 33 35 29 23 22 19 34 31 19 36 75 77 51 58 61 53 51 46 36 35 27 11 11 11 14 17 20 23 26 20 8 8 7 7 10 8 8 9 15 24 18 32 39 37 41 54 65 72 71 63 47 51 77 82 49 17 6 8 14 20 22 12 9 6 6 6 7 6 6 6 7 7 6 7 6 6 7 7 7 7 7 6 6 6 6 7 6 6 6 
6 6 6 6 6 6 6 6 6 5 6 7 6 6 6 6 7 6 3 1 18 104 175 121 107 101 90 87 116 145 111 54 43 55 56 56 64 53 36 35 45 55 52 33 26 38 59 71 73 80 80 105 155 169 156 164 175 191 199 190 182 182 179 169 158 166 156 146 146 129 99 85 88 103 102 91 98 106 109 114 106 92 88 70 85 79 83 67 93 66 46 55 81 98 96 92 80 79 82 74 72 30 14 22 43 69 76 64 83 117 125 110 106 126 144 123 103 123 78 65 59 25 14 52 74 69 39 14 9 9 19 20 9 18 51 62 62 54 61 38 33 37 56 72 65 76 91 64 9 16 31 47 9 16 47 52 4 9 20 19 16 13 24 52 56 65 39 28 99 131 41 16 54 38 41 81 73 30 28 88 153 139 77 31 24 24 30 33 26 21 24 25 23 32 30 35 69 86 64 44 50 50 42 47 45 34 29 21 17 18 18 17 19 22 26 27 16 6 7 7 9 11 8 8 8 12 16 19 33 41 42 42 43 50 53 56 57 50 56 77 72 38 12 5 8 14 19 22 18 14 9 6 5 6 7 8 6 7 7 7 6 6 7 6 7 6 7 6 6 6 6 6 7 6 6 6 
5 5 6 6 5 5 5 5 5 5 6 6 6 6 6 6 5 8 5 2 5 58 204 155 106 115 102 73 82 130 128 75 38 51 53 51 62 64 53 46 40 53 63 57 43 37 42 50 37 51 45 47 81 112 124 147 174 193 207 203 197 189 174 157 147 161 151 137 144 145 133 127 128 143 140 125 116 105 108 130 89 88 103 88 87 60 68 72 113 110 92 64 45 44 48 46 75 80 48 46 55 55 24 13 12 37 76 66 40 77 118 95 98 113 127 131 124 146 102 79 79 67 15 34 62 60 37 25 7 9 20 18 8 19 62 100 91 58 48 51 37 15 42 83 68 58 74 60 8 16 34 63 18 41 80 61 2 8 29 30 28 7 13 61 70 56 29 32 115 91 22 23 68 49 50 63 24 14 67 138 140 90 40 36 37 28 26 30 28 25 24 25 25 40 45 58 80 64 42 45 46 42 36 41 40 27 22 17 26 22 18 17 18 21 24 26 15 5 7 7 9 11 7 8 8 9 11 21 33 42 44 42 47 45 40 46 62 66 66 79 56 28 8 6 10 12 16 20 19 17 12 7 5 5 7 8 6 6 6 6 6 6 6 6 7 7 6 6 6 6 6 5 7 6 6 6 
6 6 6 5 6 6 6 6 5 5 6 6 6 6 6 6 5 8 6 4 1 25 189 202 125 125 110 75 63 102 123 95 48 48 50 50 55 65 66 58 44 53 65 68 63 56 58 64 70 72 60 58 85 104 115 138 161 176 193 195 193 186 171 158 147 163 157 142 146 144 130 124 113 126 127 121 111 83 75 94 77 67 80 83 97 67 57 46 63 89 109 83 51 47 52 46 50 75 41 34 30 52 40 32 19 27 55 59 32 65 109 99 108 111 100 108 123 143 122 80 76 91 21 25 62 66 53 55 14 13 25 23 14 18 51 110 108 64 41 58 52 22 64 93 47 31 57 53 17 24 43 79 30 69 92 47 2 14 37 40 33 5 15 65 73 43 25 41 94 31 12 55 74 30 28 43 40 41 117 139 88 48 25 41 33 24 25 44 58 45 28 22 44 56 59 67 77 51 29 35 49 43 35 39 34 18 16 15 31 22 16 17 18 20 22 26 16 6 7 9 9 11 8 7 7 8 9 23 27 32 36 33 30 30 33 50 74 71 53 46 34 16 7 8 10 10 11 18 17 15 11 8 6 5 5 6 6 6 6 6 6 6 6 6 7 6 7 7 6 6 6 6 7 6 6 6 
6 6 6 6 6 6 5 6 6 6 6 6 6 6 6 6 7 7 6 6 0 8 128 220 164 128 108 90 70 82 104 101 63 44 46 53 50 57 70 67 64 63 63 60 63 68 71 73 79 86 87 99 123 135 134 136 156 161 170 176 173 169 164 164 145 161 158 148 151 137 110 97 107 117 115 121 129 103 78 83 79 58 62 70 104 86 62 32 46 69 101 99 72 63 58 42 33 64 49 39 21 29 38 45 44 38 27 34 39 76 96 101 94 108 83 83 105 121 136 76 62 79 24 27 64 69 63 62 25 19 28 34 28 18 29 89 118 75 43 65 60 35 91 91 38 18 46 38 26 34 48 70 35 81 76 26 4 31 40 32 22 8 28 58 56 30 26 44 45 13 31 80 44 12 36 94 120 105 120 94 51 34 28 34 31 32 42 69 81 50 26 31 75 63 55 66 69 38 21 29 52 47 36 39 29 14 15 19 29 18 14 16 17 14 15 20 19 8 8 8 8 11 9 8 7 9 8 26 20 21 26 23 13 22 33 56 78 62 33 23 22 11 5 9 9 7 11 21 24 18 9 7 5 6 6 5 6 6 6 6 6 6 6 6 7 7 7 7 6 6 6 5 6 6 6 6 
5 6 5 6 5 6 6 6 6 6 6 6 6 6 6 6 7 4 8 6 3 3 75 211 202 130 102 105 84 74 89 99 73 38 40 57 47 50 70 75 81 79 69 58 60 68 65 54 48 82 115 124 134 156 170 172 175 171 171 168 159 151 153 163 138 147 137 130 140 130 106 95 93 97 92 103 131 117 83 73 76 69 76 73 101 93 81 55 42 49 73 87 80 74 64 40 22 37 37 38 29 20 31 35 42 48 16 11 32 69 70 93 67 97 68 55 71 88 137 75 58 64 27 31 60 59 51 40 28 20 28 42 42 18 14 66 115 74 41 64 53 30 89 76 48 18 38 24 28 35 39 40 36 85 58 12 8 47 38 19 9 10 42 50 41 20 27 41 13 29 81 74 12 19 96 193 169 139 92 59 36 32 43 38 52 59 66 75 68 30 22 50 74 50 47 66 57 20 16 44 54 48 38 40 27 11 16 25 24 14 11 15 13 7 6 11 21 9 8 8 8 10 8 8 8 10 9 27 18 17 22 20 15 25 37 54 68 53 31 25 22 10 5 8 7 4 12 28 37 22 9 3 4 6 8 7 6 6 6 6 6 6 6 6 7 7 6 7 6 6 6 5 6 6 6 6 
5 6 5 6 5 5 5 6 6 6 6 6 6 6 6 6 7 5 7 4 6 2 12 155 209 180 111 103 98 77 91 88 82 59 40 36 40 50 62 70 78 92 87 78 66 60 71 71 45 37 61 83 110 167 186 161 182 189 196 187 161 139 139 148 134 134 125 113 110 110 100 88 92 92 92 82 84 112 121 93 85 61 58 68 71 75 86 88 71 48 44 53 62 76 74 50 39 28 28 32 29 16 11 35 35 44 29 5 6 31 52 70 51 66 85 59 30 62 96 61 62 67 29 25 46 42 33 25 37 15 14 39 35 31 18 34 71 67 31 45 47 29 56 69 55 30 35 29 44 36 35 44 42 69 43 10 19 50 37 12 14 30 43 35 22 19 26 35 25 90 104 79 6 96 195 222 126 79 63 56 40 52 66 46 66 58 68 72 46 30 41 60 54 26 47 55 32 20 19 57 53 28 29 44 31 14 16 25 19 11 8 15 18 9 5 12 17 11 9 10 9 6 6 8 6 6 11 16 17 15 16 19 13 23 38 48 46 39 34 32 28 20 13 7 4 7 23 43 34 16 4 3 6 6 6 6 6 6 6 6 6 6 6 6 6 7 7 6 6 6 6 6 6 6 6 6 
6 5 5 5 5 6 6 6 6 6 6 6 6 6 6 6 9 7 9 6 7 0 3 100 207 199 122 98 100 89 95 81 94 55 39 39 31 38 56 63 71 83 73 69 76 91 102 88 62 33 27 49 81 134 188 200 163 173 187 191 174 151 139 139 138 130 113 98 88 87 85 81 79 89 104 100 78 76 98 119 102 73 62 67 62 59 73 94 92 65 55 53 54 69 64 34 30 29 32 28 27 24 15 18 27 55 56 18 5 15 28 43 38 49 81 64 31 49 84 86 80 76 35 12 25 37 41 37 33 15 8 23 26 36 26 42 53 42 33 38 34 22 27 50 55 28 30 30 53 39 42 69 48 69 42 12 22 48 37 16 29 32 32 27 26 31 37 39 70 102 102 70 24 158 159 110 90 62 50 60 71 67 56 42 55 54 61 59 52 60 69 64 21 19 37 41 25 23 28 58 46 35 36 42 30 16 17 23 22 21 16 13 15 11 9 13 16 13 9 6 6 7 8 8 7 8 12 15 17 18 17 20 22 30 38 36 34 35 39 40 38 32 22 12 8 9 22 37 27 15 6 4 5 5 6 7 6 6 6 6 6 6 6 6 7 7 7 7 6 6 6 6 6 6 6 6 
7 6 6 6 6 6 6 6 6 5 6 6 6 6 6 6 7 5 7 7 10 3 0 62 164 209 154 106 92 82 92 95 101 57 45 49 36 33 49 59 60 73 83 94 76 59 85 117 125 75 31 40 61 87 160 201 186 184 184 184 174 157 143 136 145 133 118 104 93 88 91 96 88 95 109 116 94 63 63 89 114 89 71 70 62 46 52 81 71 59 63 59 50 69 78 50 25 25 29 22 25 37 25 13 17 54 82 49 23 19 24 43 28 24 61 58 29 33 61 111 108 75 45 14 21 37 34 24 35 20 5 6 11 31 28 41 41 21 28 26 25 19 10 34 48 29 24 25 57 44 48 86 62 74 46 18 27 48 39 21 26 31 32 25 24 31 44 52 89 87 58 23 46 201 144 104 69 60 59 69 64 40 32 48 54 63 89 110 119 119 95 59 24 21 22 35 28 20 20 47 44 40 35 35 36 29 21 23 29 30 23 17 15 13 13 19 17 16 11 7 8 15 17 14 18 18 14 11 10 13 17 19 20 26 30 26 24 26 28 29 35 33 24 12 6 7 13 19 19 13 8 7 6 3 5 7 6 6 6 6 6 6 6 6 6 6 7 7 7 6 6 6 6 6 6 6 
7 7 7 6 6 7 7 6 6 6 6 6 6 6 6 6 7 4 5 5 8 4 1 37 124 201 179 122 96 78 85 108 103 66 46 47 45 38 49 71 80 65 57 80 85 67 75 89 140 127 71 68 71 84 165 206 213 202 189 182 178 167 151 138 130 119 113 108 96 80 76 82 88 80 70 84 110 101 75 68 94 93 89 96 91 57 34 37 61 64 82 75 45 45 59 51 28 15 16 14 18 34 31 19 28 59 93 77 49 33 34 64 35 12 30 36 24 24 39 113 102 43 43 30 47 49 23 12 24 20 6 2 5 29 31 45 44 16 18 17 22 21 9 28 42 33 24 21 57 46 50 85 81 84 51 22 29 49 37 19 15 23 29 26 25 33 45 54 60 67 42 29 116 159 84 76 56 28 27 49 49 43 58 78 75 65 80 105 105 93 81 71 65 53 21 26 27 28 28 44 48 38 26 31 50 46 30 25 31 26 22 22 18 8 10 24 17 16 15 14 19 25 27 23 17 19 19 16 16 17 15 11 19 18 19 22 22 21 21 23 37 40 34 21 13 11 15 16 15 11 8 8 6 4 6 7 6 6 6 6 6 6 6 6 6 6 6 6 7 6 6 6 6 7 6 6 
7 6 7 6 7 7 7 7 6 6 6 6 6 6 6 6 8 6 7 7 7 7 5 29 112 196 195 139 116 94 83 89 101 82 45 37 49 42 41 70 102 107 91 79 74 73 76 62 107 157 144 118 91 95 151 166 199 193 189 189 189 178 158 141 140 129 125 122 104 79 68 70 95 89 60 53 92 123 98 66 82 90 89 94 101 78 43 31 48 54 77 82 55 42 50 56 42 13 8 10 12 15 15 16 42 66 93 78 52 31 28 54 66 17 12 13 18 21 30 105 106 30 45 52 68 41 12 9 8 14 11 10 9 34 36 46 46 24 15 14 17 11 9 23 44 32 21 28 72 48 52 93 96 89 48 19 27 47 36 16 11 17 21 24 29 39 49 50 68 44 32 74 181 102 69 53 33 8 28 78 75 82 101 82 57 52 68 85 67 46 45 52 71 88 41 23 21 56 59 52 50 36 27 42 64 53 31 29 26 23 22 23 20 10 9 20 15 13 13 19 22 22 21 22 18 18 15 14 17 25 30 27 28 18 16 24 28 25 27 37 46 52 51 36 24 20 18 17 15 10 8 7 7 6 6 6 6 6 6 6 6 6 6 6 6 6 7 7 7 7 6 6 6 6 6 5 
6 6 6 6 6 6 6 6 6 6 6 6 6 6 6 6 6 6 8 9 7 9 8 19 79 178 216 162 125 103 79 72 88 91 60 46 59 48 27 31 60 107 143 151 124 93 82 66 72 130 173 149 110 111 134 138 188 186 180 174 171 167 156 146 151 141 134 132 119 94 82 80 94 115 102 75 81 105 96 69 48 64 80 96 109 98 63 39 51 50 60 77 76 61 57 63 57 23 16 16 12 7 4 10 12 42 78 70 48 29 17 24 89 39 12 4 11 16 24 84 105 35 57 57 62 28 16 26 9 13 20 25 14 29 23 22 34 35 22 20 12 2 6 15 41 22 15 41 95 56 65 113 97 77 39 18 27 40 30 15 11 18 24 22 22 33 47 57 94 33 38 138 172 65 67 26 11 9 63 141 119 95 68 17 39 54 80 83 56 39 31 24 30 62 60 55 33 56 49 53 52 39 39 57 63 40 26 30 28 33 31 24 24 21 16 16 12 9 9 14 15 12 11 14 24 21 16 17 23 34 41 42 25 17 20 32 37 32 33 43 52 59 63 51 35 24 19 18 15 12 8 7 7 7 6 5 6 6 6 6 6 6 6 6 7 6 7 7 7 6 6 6 6 6 6 6 
6 6 5 5 5 6 5 5 6 6 6 6 6 6 6 6 7 7 8 7 4 6 3 3 30 116 192 169 130 104 80 71 68 80 75 63 67 67 41 18 29 40 72 152 210 191 145 102 71 79 143 152 133 149 151 170 181 182 175 162 150 148 147 146 122 116 114 116 114 103 91 85 79 105 127 116 93 89 87 76 74 65 57 51 52 70 94 103 91 80 62 65 80 63 39 35 51 41 33 22 17 14 8 13 3 23 56 55 46 30 13 10 68 62 29 8 8 8 14 56 68 41 68 51 60 42 48 61 22 13 19 30 14 23 14 7 18 34 35 32 18 3 4 8 26 14 12 40 99 75 91 124 91 63 37 34 42 39 22 12 9 19 28 21 14 20 37 55 60 50 95 195 106 27 16 4 4 61 180 174 67 20 22 27 52 59 61 45 32 37 40 27 15 34 69 95 45 40 27 57 67 48 46 56 47 28 23 29 38 39 32 27 28 25 18 14 11 11 10 9 9 10 15 18 19 19 24 32 39 34 24 18 18 22 29 35 34 29 29 35 43 51 60 57 40 26 21 22 17 14 9 8 6 6 6 5 6 6 6 6 6 6 6 6 7 7 7 6 6 6 6 6 6 6 6 6 
5 6 5 6 5 5 6 5 6 6 6 6 6 6 6 6 6 6 7 8 6 9 6 0 6 55 133 151 138 119 85 69 58 61 71 64 61 91 89 40 36 37 37 69 132 192 219 200 151 93 147 162 147 153 130 159 156 170 179 171 156 147 143 139 118 116 116 123 127 121 107 97 102 102 121 125 92 66 61 57 60 60 70 74 58 61 80 91 88 82 52 46 71 63 36 34 34 47 45 21 19 27 22 25 20 32 44 39 36 28 10 7 40 75 54 18 9 2 7 36 60 62 93 57 68 57 62 50 27 6 9 25 13 26 21 13 11 27 42 42 30 14 5 5 12 13 12 31 91 96 119 119 90 59 45 60 70 45 18 10 13 18 19 14 13 19 30 36 18 69 118 138 21 3 5 46 140 212 202 115 56 31 28 42 41 40 43 42 42 53 47 26 24 39 78 93 32 38 32 78 88 55 44 44 33 24 26 27 48 35 25 25 29 19 11 13 12 14 12 7 7 15 27 34 29 21 16 19 22 18 15 15 25 34 37 29 21 22 29 35 19 26 38 40 29 16 12 16 18 16 10 7 6 6 6 6 6 6 6 6 6 6 6 6 7 6 6 7 7 7 6 6 6 6 5 6 
6 5 6 6 6 5 6 6 6 6 6 6 6 6 6 6 7 6 5 5 6 6 6 4 8 39 106 160 145 96 75 81 73 73 75 78 81 84 88 92 66 40 45 37 72 133 212 238 198 127 103 140 173 167 155 155 148 156 162 163 158 149 132 119 106 99 107 121 124 124 134 141 126 117 133 121 101 80 54 56 87 73 84 102 84 53 51 65 67 81 68 46 45 52 45 32 33 27 58 48 23 33 34 35 30 41 63 49 83 56 23 7 45 64 95 65 45 7 5 10 28 69 92 70 70 61 48 49 30 16 10 17 25 33 18 23 17 16 33 45 31 5 12 11 43 37 16 30 132 108 106 83 96 68 65 82 77 47 26 20 12 20 17 9 15 33 30 14 16 87 111 67 3 8 50 148 239 193 128 69 31 21 26 30 28 42 40 32 41 42 30 23 33 61 76 95 47 58 99 122 91 61 45 46 27 23 49 58 45 36 26 23 23 24 19 14 16 12 8 6 8 13 18 19 14 14 15 16 17 17 18 18 28 33 25 13 14 29 30 19 12 23 34 31 20 12 11 13 19 21 16 7 2 6 8 6 6 6 6 6 6 6 6 6 7 7 7 6 6 7 7 6 5 6 6 6 
6 5 5 6 5 6 6 5 6 5 6 6 6 7 6 6 6 7 7 6 6 6 6 6 11 29 89 172 190 129 73 54 64 75 92 98 91 81 86 100 86 66 51 30 59 90 154 231 241 181 129 126 160 182 178 168 158 161 162 158 150 139 125 111 102 85 88 113 122 108 112 137 122 105 117 123 120 97 57 48 64 91 95 93 95 66 41 46 53 62 46 39 49 40 30 44 38 24 59 60 31 37 40 34 35 58 79 53 86 67 34 14 50 60 95 111 72 11 13 12 10 28 76 68 42 39 43 42 46 24 9 15 20 25 23 53 61 20 20 42 35 13 30 32 53 48 27 32 122 106 96 73 97 84 92 104 81 54 37 25 15 17 13 9 12 22 20 12 33 69 53 19 9 65 155 236 196 131 67 35 26 24 18 9 19 29 33 34 34 27 27 43 54 77 80 108 86 100 112 104 63 56 47 45 37 40 56 52 36 35 34 32 34 34 31 27 18 15 11 7 7 9 10 11 10 12 15 16 15 15 17 18 16 20 19 14 17 27 26 17 24 29 29 20 11 9 11 15 20 24 20 10 6 8 8 5 6 6 6 6 6 6 6 6 7 7 7 7 7 7 6 6 6 6 6 6 
5 6 6 5 6 5 6 5 6 6 6 6 6 6 6 6 6 7 7 8 5 5 6 8 14 20 42 96 148 149 102 63 58 68 91 112 106 85 81 91 98 90 64 32 61 58 82 165 243 238 186 143 159 188 184 166 167 163 159 151 142 134 121 111 112 94 78 86 93 73 61 75 104 80 90 123 148 127 78 58 45 77 88 78 78 68 46 35 42 59 46 41 57 39 23 44 48 21 39 49 30 34 37 28 32 68 85 48 79 74 43 25 67 62 95 155 106 19 24 26 9 5 53 68 37 42 59 49 54 30 12 17 19 15 21 86 101 23 13 37 28 14 45 52 73 62 43 39 116 115 98 78 111 99 113 113 83 66 56 31 17 12 8 8 12 16 18 18 36 53 64 68 100 141 175 186 129 87 52 36 30 26 23 20 37 50 57 51 38 25 28 45 52 65 56 76 84 97 89 66 50 61 53 47 48 54 55 36 32 38 44 43 38 34 31 30 19 18 14 11 9 8 8 7 8 12 16 17 15 13 14 16 11 13 14 12 15 22 26 23 33 30 20 10 4 5 10 16 17 21 20 12 8 8 8 4 6 6 6 6 6 6 6 6 7 6 6 7 6 6 7 7 6 6 6 6 
6 5 5 5 6 5 6 6 6 6 6 6 6 6 6 6 6 6 6 5 4 4 6 7 12 16 16 25 71 136 143 105 75 66 73 101 116 102 87 82 93 96 81 51 76 49 37 71 153 218 225 186 181 188 175 172 169 161 152 144 138 131 122 117 96 94 66 57 75 75 56 53 85 60 66 112 158 153 115 96 60 57 82 85 59 61 67 41 41 69 68 56 63 54 33 30 54 28 22 23 22 28 29 24 32 68 78 46 75 77 51 40 99 83 95 150 119 27 19 52 36 2 24 56 56 63 66 57 43 26 14 25 25 13 14 88 98 25 16 38 16 7 41 53 78 61 53 51 115 119 102 94 122 94 97 97 72 67 61 31 18 11 7 9 15 21 30 39 66 80 113 122 160 143 149 148 100 76 65 65 55 45 51 67 90 89 74 59 58 59 46 33 28 45 38 51 67 67 62 49 63 73 58 49 54 55 47 27 41 50 54 47 32 22 20 20 15 15 13 10 9 9 10 10 12 14 16 17 15 14 14 15 10 12 14 14 14 17 21 25 29 23 15 7 5 7 11 14 11 15 14 9 7 7 6 4 6 6 6 6 6 6 6 6 6 7 7 7 7 7 6 7 6 6 6 6 
5 5 6 6 6 6 5 6 5 6 6 6 6 7 6 7 7 6 6 6 6 6 4 3 8 21 30 31 62 126 154 137 117 82 66 84 111 112 98 91 97 101 104 67 71 45 28 27 66 140 197 204 209 198 185 198 172 162 151 142 131 122 116 114 95 90 60 49 78 93 76 67 77 55 55 95 133 134 125 121 101 73 94 114 84 69 71 58 47 65 77 69 64 67 56 35 50 52 31 20 24 23 25 32 45 72 80 58 80 81 61 63 130 117 104 120 117 39 8 67 63 4 7 32 62 60 44 57 35 24 19 38 39 17 12 72 90 24 12 36 18 5 31 54 63 53 60 68 118 118 105 101 121 84 84 83 60 56 52 28 20 14 10 11 19 34 49 58 78 103 130 115 148 147 158 143 104 76 69 83 79 65 73 93 114 77 44 39 61 86 76 51 33 51 51 62 77 62 60 55 73 69 50 52 61 57 50 40 47 55 55 43 26 17 15 16 10 11 11 9 8 8 10 12 16 15 14 15 16 16 17 16 11 13 16 17 14 11 13 19 21 16 11 8 7 10 12 13 8 10 10 6 4 5 6 5 6 6 6 6 6 6 6 7 6 7 6 6 7 6 6 7 6 6 6 6 
6 6 5 6 6 6 6 5 6 6 6 6 6 7 7 6 7 6 7 8 9 8 5 2 10 31 65 87 107 131 150 159 150 109 77 76 89 94 98 100 108 114 122 73 61 46 37 27 42 90 147 188 213 206 197 209 181 168 157 143 127 112 104 102 111 90 59 55 77 87 78 77 77 66 61 81 93 85 95 103 103 93 91 113 127 91 65 74 64 55 67 78 68 69 72 61 42 73 51 33 30 19 24 38 56 74 86 76 86 87 76 87 143 145 122 108 117 63 8 54 62 16 7 22 64 48 28 64 46 33 26 44 48 31 20 62 96 32 4 25 24 8 20 56 57 65 80 98 129 124 122 113 117 97 99 95 68 59 53 33 22 18 12 12 22 40 56 64 70 85 115 135 174 152 131 114 98 84 79 78 61 51 67 97 81 48 30 32 37 53 80 97 74 69 58 63 77 48 53 54 62 51 42 57 68 64 66 60 37 42 40 32 21 16 15 17 12 13 12 10 8 8 10 11 13 12 10 11 13 16 19 19 18 15 11 10 6 7 9 17 16 13 8 7 7 11 11 10 7 8 8 5 3 5 6 6 6 6 6 6 6 6 6 6 6 6 6 6 7 6 7 6 6 7 6 6 
6 6 6 6 6 5 6 6 6 6 6 6 7 7 7 7 6 6 7 8 9 11 13 13 29 51 88 119 133 138 149 161 163 132 103 87 81 77 80 84 95 105 114 74 75 60 44 29 44 74 125 175 206 211 201 194 185 175 164 152 132 113 103 103 110 90 65 56 67 83 90 90 81 88 83 89 73 55 67 77 79 79 62 72 111 109 82 81 82 66 69 85 80 63 61 68 49 68 55 47 32 18 29 34 45 62 88 87 81 92 99 115 133 155 135 126 124 99 28 31 43 24 11 21 66 50 29 65 69 43 28 38 45 44 32 56 103 69 11 13 20 12 14 48 66 94 105 113 124 129 153 133 117 111 109 96 80 76 63 37 20 14 10 13 24 40 51 58 87 93 113 152 154 119 101 118 101 101 87 60 41 47 70 91 60 46 49 54 43 46 73 97 86 58 48 57 69 35 43 47 48 43 46 65 68 65 69 51 30 30 28 23 18 16 15 15 13 14 14 11 9 8 9 10 9 9 8 9 11 14 18 20 22 15 8 5 6 9 12 16 13 11 8 7 8 10 9 8 9 12 12 10 7 7 6 4 6 6 6 6 6 6 6 7 6 6 7 7 7 7 6 6 7 6 6 6 
5 6 5 6 5 5 6 5 6 6 6 6 6 6 7 7 6 6 5 4 7 13 23 31 52 73 98 113 126 139 144 137 166 149 126 106 91 77 68 62 66 81 93 73 104 81 39 20 40 70 125 177 203 213 205 181 183 176 168 161 140 119 110 112 125 119 94 63 58 86 102 86 87 108 107 106 77 49 61 69 76 59 42 40 69 114 116 82 92 90 86 92 90 59 42 52 67 56 43 51 32 20 38 29 30 50 87 90 77 99 121 141 123 151 140 150 128 127 61 20 27 22 11 17 63 54 30 49 83 48 24 27 35 49 38 48 106 127 35 7 13 14 12 39 71 116 112 106 105 125 173 145 110 108 94 77 77 90 68 33 16 9 7 14 27 38 47 55 63 113 152 171 129 105 96 121 132 111 72 39 43 76 90 73 68 60 70 82 85 92 84 57 58 36 43 72 89 41 49 48 43 45 58 74 65 62 57 28 32 30 27 23 20 17 13 10 10 11 11 10 7 7 8 8 8 8 9 8 9 11 15 18 16 12 10 12 17 19 14 9 12 11 9 9 10 12 10 8 14 17 19 17 14 11 7 5 6 6 6 6 6 6 6 6 6 6 7 7 7 7 7 7 7 6 6 6 
6 6 6 6 5 6 6 5 5 5 5 6 6 7 7 6 7 6 6 7 5 5 17 45 77 107 122 126 117 115 141 154 159 156 151 146 134 110 78 55 47 50 39 77 102 110 67 19 12 35 77 138 208 244 226 195 175 164 154 150 143 129 116 107 99 132 136 100 77 86 97 96 91 64 87 116 129 96 80 52 51 39 40 33 46 63 92 89 99 84 67 65 73 70 50 31 27 43 48 44 44 31 25 36 27 67 101 107 73 86 117 159 125 175 177 164 118 122 87 42 34 38 29 69 41 29 38 55 59 31 20 53 29 30 15 13 63 166 92 21 13 22 7 27 66 137 157 115 133 123 135 132 111 76 71 78 92 96 59 27 9 15 13 26 35 54 57 70 116 159 166 165 106 151 174 196 147 106 40 51 68 80 155 171 130 77 71 108 118 90 59 41 39 51 98 131 105 79 62 39 45 65 74 77 74 50 34 39 36 37 31 21 17 17 14 11 9 9 7 7 8 8 8 7 8 8 7 8 11 16 17 14 15 16 21 25 20 11 7 9 14 18 23 24 21 20 20 20 25 29 32 28 21 15 9 6 3 5 7 7 6 4 6 7 6 7 7 6 6 7 5 5 7 6 7 6 
5 5 6 6 5 5 6 5 5 5 6 6 7 7 7 6 7 6 6 7 6 5 13 33 76 119 142 143 129 128 150 153 145 152 138 115 109 116 98 71 69 57 20 20 51 94 91 47 27 18 16 38 100 169 202 210 180 174 157 140 132 123 101 80 64 84 105 99 76 65 72 88 63 52 53 68 95 94 98 106 85 65 46 36 57 86 97 81 63 81 82 65 64 80 80 67 48 33 30 37 41 33 24 18 24 64 101 108 90 93 117 153 135 177 186 172 133 148 100 56 27 46 43 57 33 21 45 56 57 32 28 54 21 36 32 17 57 130 98 47 52 55 29 33 47 100 121 113 133 136 145 138 112 76 74 90 102 87 44 22 10 13 13 31 39 53 60 83 127 165 157 145 116 159 144 118 63 65 66 107 137 165 181 106 45 46 53 51 32 20 25 34 79 118 152 111 51 41 49 38 40 63 71 64 57 46 38 43 37 31 23 17 17 19 17 14 9 8 8 7 8 7 7 7 9 9 7 8 11 13 11 9 11 13 15 18 14 8 6 7 9 13 18 20 19 18 18 19 21 20 19 17 15 13 8 3 9 8 7 6 6 6 6 5 7 7 7 6 6 6 5 5 6 6 7 7 
5 6 6 6 6 6 5 6 6 6 5 6 7 7 6 6 7 6 6 7 7 3 7 18 56 108 149 163 155 153 164 150 131 133 121 101 96 104 101 89 90 75 26 6 26 63 88 74 50 32 16 22 52 94 146 201 190 177 162 153 141 123 102 89 68 65 74 83 68 49 57 82 76 77 54 53 68 74 69 88 117 114 72 44 49 82 100 108 93 84 73 70 73 73 67 62 73 42 36 46 38 30 25 14 19 58 97 101 108 98 114 143 142 166 177 157 131 153 88 50 32 70 66 58 36 24 63 63 59 34 31 42 12 40 59 39 64 100 101 76 85 84 66 55 49 89 106 125 127 143 141 126 115 81 79 103 117 78 30 18 20 16 13 28 36 45 56 83 123 144 135 137 141 152 101 60 67 95 144 153 120 116 92 28 37 40 43 46 51 58 75 98 147 146 121 69 45 63 72 49 44 59 60 49 47 48 46 42 37 27 20 20 23 23 20 17 10 9 7 7 6 7 7 7 7 7 8 8 10 10 8 6 8 9 11 10 8 7 6 6 8 11 16 18 17 15 15 15 16 16 16 15 15 14 11 8 14 10 7 5 7 7 6 5 7 6 7 7 6 6 5 5 6 6 6 6 
5 6 5 6 6 6 5 6 5 6 5 6 7 7 6 6 7 6 6 7 7 5 6 10 25 68 117 159 174 170 168 146 124 107 105 117 110 91 89 105 115 100 48 10 20 35 65 85 64 52 36 37 54 67 100 159 197 165 156 171 160 126 116 128 109 84 65 60 56 55 64 78 78 85 68 73 75 80 54 48 99 144 126 84 46 54 76 126 127 93 69 70 70 61 55 58 86 63 51 48 35 29 25 18 20 57 97 97 119 104 117 148 148 153 162 143 128 157 80 47 63 107 80 72 54 44 70 56 62 37 22 22 6 38 75 84 78 89 97 92 83 91 90 76 68 106 115 140 117 144 138 113 121 90 83 102 118 78 26 18 15 10 10 23 37 50 68 91 105 135 151 155 133 91 60 61 129 135 156 116 60 43 35 27 60 55 56 78 108 111 120 154 181 121 69 57 80 110 99 66 54 51 45 42 46 55 51 39 33 24 21 27 31 24 18 16 9 8 6 6 6 6 6 7 7 7 8 9 9 9 7 6 6 9 8 6 5 6 8 7 10 13 16 17 16 11 10 9 10 16 21 20 16 15 19 21 14 9 6 5 6 7 7 6 6 6 6 7 7 6 6 5 6 6 5 6 
5 5 6 5 6 5 5 6 6 5 6 6 6 7 7 6 7 6 5 6 7 6 6 8 15 37 76 132 167 169 169 155 139 102 93 116 121 95 82 94 121 123 80 17 11 15 45 84 83 63 33 31 56 74 95 138 193 162 146 155 152 131 125 135 123 113 87 63 60 71 73 64 65 67 73 97 93 107 76 44 48 111 141 127 71 46 41 74 118 123 111 86 69 65 64 59 82 77 50 28 29 29 24 22 27 65 100 100 123 110 127 162 161 154 161 154 145 170 94 69 103 125 74 83 72 66 53 34 60 39 14 12 9 33 69 117 93 90 80 90 70 98 94 84 81 119 122 144 106 145 146 122 122 100 86 90 108 86 40 26 19 18 22 27 38 54 84 106 134 168 176 147 87 47 49 90 130 99 75 54 53 56 67 129 145 157 165 168 159 132 135 175 141 114 85 79 88 90 73 63 50 38 38 44 44 46 45 35 28 21 21 27 28 19 12 12 9 8 7 5 6 7 7 7 7 7 8 9 9 9 8 7 7 8 7 4 5 7 9 9 10 12 15 16 14 11 8 7 7 14 21 21 18 16 18 20 8 7 5 5 6 6 6 6 7 6 7 7 6 6 6 5 6 6 6 6 
5 5 5 5 5 5 5 5 6 6 6 6 7 7 7 6 6 7 6 6 7 8 7 7 20 32 56 110 152 163 174 172 168 128 97 95 105 100 78 60 76 122 134 57 13 5 21 60 88 87 51 29 40 55 75 116 178 177 154 125 118 131 127 111 110 125 120 94 78 79 67 48 62 59 73 96 98 119 112 76 59 95 128 150 135 99 66 63 104 111 118 121 120 107 80 57 70 90 64 30 25 26 26 33 29 61 90 99 115 111 128 162 171 166 164 168 151 151 96 89 119 109 61 81 83 83 39 29 64 45 16 12 17 34 61 117 119 107 64 61 54 105 102 93 92 121 119 139 107 141 147 131 116 103 93 85 98 100 66 47 41 36 37 30 40 62 117 154 196 183 131 97 72 80 84 100 81 97 109 122 146 118 96 152 167 159 142 130 134 129 112 100 73 98 98 78 70 59 46 40 35 30 41 48 35 31 39 35 31 24 22 23 21 14 11 10 8 7 6 5 6 6 7 6 8 7 7 8 7 6 7 7 6 7 7 7 8 9 9 10 9 11 14 17 17 16 13 12 12 16 19 22 23 21 16 10 5 5 5 6 6 6 7 7 6 7 6 7 6 7 6 5 6 5 5 6 
5 6 6 6 6 5 6 6 6 6 6 6 7 7 7 6 6 7 7 5 6 7 6 4 16 30 53 97 136 152 170 169 180 164 128 100 99 105 85 56 49 84 141 127 54 16 9 35 66 103 83 41 36 40 48 75 138 175 171 113 89 108 126 116 107 111 112 107 95 81 70 65 71 75 88 87 95 109 125 124 84 77 83 95 116 109 85 57 91 74 76 108 145 146 113 86 76 97 94 63 38 30 31 34 25 48 74 97 103 112 123 146 166 175 168 180 142 117 89 105 126 100 70 77 91 86 36 35 80 58 28 18 23 43 74 111 142 140 75 45 53 104 108 108 110 120 113 142 127 140 142 138 108 100 102 96 100 115 97 78 53 35 34 39 67 97 154 180 174 138 87 88 86 130 124 116 158 170 148 127 126 113 114 153 101 65 43 49 71 86 68 38 40 68 67 50 52 51 35 29 28 28 48 50 29 29 42 37 34 26 20 18 16 13 10 9 6 6 5 6 6 7 7 7 8 7 6 7 7 6 5 6 7 6 8 12 14 11 9 9 8 10 13 16 18 17 16 16 17 19 22 23 24 20 12 6 5 5 6 6 6 6 6 7 6 7 7 6 7 6 5 5 5 6 6 6 
6 6 5 5 5 5 6 6 6 6 6 6 6 7 7 6 5 8 7 6 6 7 5 2 2 22 49 90 121 139 154 146 170 177 163 131 116 116 106 87 63 45 84 154 115 48 11 26 61 108 95 58 70 76 62 59 94 155 178 120 72 80 123 149 113 85 77 94 99 86 89 106 106 127 126 91 92 78 94 118 122 99 90 76 92 99 97 64 98 94 73 60 78 117 130 114 96 94 102 93 62 47 33 15 24 42 64 100 99 119 122 134 159 182 176 197 145 105 98 132 143 109 96 79 94 77 31 39 102 69 39 24 21 53 97 112 139 167 111 52 71 105 108 106 125 116 107 149 149 145 142 146 102 97 112 109 105 123 120 105 68 35 38 64 114 122 127 112 89 95 99 136 95 115 124 156 160 135 89 73 84 98 101 88 58 35 32 41 35 30 34 37 35 56 49 36 40 36 26 29 32 33 52 51 30 37 53 39 30 23 16 14 14 12 8 6 6 5 5 6 7 7 7 6 7 6 5 8 8 6 6 6 7 6 11 19 20 14 9 9 6 7 10 13 14 14 12 12 14 19 24 23 18 14 8 6 8 7 7 7 7 7 7 7 7 6 6 6 6 6 6 5 5 6 5 5 
5 6 5 5 6 6 6 5 6 6 6 5 6 6 6 5 6 6 7 6 7 6 7 7 6 7 28 77 113 134 151 152 154 162 170 166 141 113 102 104 89 92 80 105 148 96 36 32 49 92 94 63 41 55 89 76 67 121 176 161 105 77 98 137 125 91 83 98 104 109 115 112 114 111 100 84 73 72 73 75 80 96 94 67 61 88 94 72 79 104 117 85 53 62 93 110 100 94 91 92 82 62 42 34 21 36 69 118 94 114 131 148 150 161 170 183 153 112 124 146 138 122 95 92 83 40 25 53 96 92 50 31 21 43 74 137 125 146 159 80 93 105 78 94 109 131 101 125 147 109 124 159 101 118 139 116 121 136 117 127 72 54 52 119 110 66 67 76 94 133 158 158 148 118 101 108 84 53 46 68 82 72 62 59 53 77 79 55 50 69 85 79 67 71 65 51 44 43 39 34 47 48 46 44 47 50 42 33 21 17 14 11 9 9 7 5 6 6 6 6 7 7 6 7 7 7 8 7 6 5 6 6 6 5 6 9 10 8 8 9 9 8 9 10 10 10 10 10 10 12 13 15 17 16 13 12 10 9 7 7 7 7 8 7 6 6 6 6 6 6 5 5 6 6 7 7 
6 6 6 6 6 5 6 5 5 5 6 5 6 5 5 6 6 6 7 6 7 6 6 7 6 6 23 62 98 126 146 144 153 151 152 158 150 125 100 86 95 101 84 89 118 93 56 60 53 86 87 61 37 46 86 92 69 101 159 191 155 100 83 97 123 117 119 120 119 119 112 98 79 84 84 79 76 79 73 63 59 73 80 71 65 76 77 61 59 71 100 109 79 57 77 113 90 74 67 79 89 75 48 32 25 30 56 102 103 112 128 147 142 164 175 182 163 139 144 144 114 111 97 95 87 43 25 46 80 77 57 48 24 40 67 108 107 141 155 105 99 103 103 80 114 133 102 121 140 106 117 143 113 115 126 132 114 112 140 158 123 48 110 111 60 46 51 106 178 182 164 136 109 84 66 62 43 30 31 49 59 53 47 46 60 82 100 103 117 139 136 116 102 74 54 55 58 52 48 49 57 54 45 37 34 33 28 21 19 15 11 8 7 7 6 6 6 7 6 7 7 6 6 7 7 7 7 7 6 6 6 6 7 6 6 7 9 9 8 10 9 9 7 7 7 7 8 9 7 7 9 13 17 21 20 18 8 7 7 6 7 7 7 7 6 7 6 6 6 6 6 6 6 6 7 7 
6 6 6 5 5 6 5 6 6 6 6 5 6 6 5 6 6 6 7 7 7 6 6 6 10 7 19 46 82 122 142 136 146 143 148 159 156 132 104 89 88 106 97 89 104 95 73 70 54 80 81 55 30 38 81 100 93 98 128 168 173 136 111 107 124 147 141 116 105 103 91 76 83 90 92 90 93 93 82 66 40 50 70 81 78 86 106 115 80 60 51 63 83 104 117 121 100 74 62 73 84 74 52 38 28 25 46 75 96 91 112 141 130 163 176 177 170 161 156 130 96 105 105 107 102 68 50 69 63 60 69 72 28 42 74 96 115 160 171 147 100 90 138 94 110 124 101 118 137 120 132 154 143 127 120 137 113 116 177 175 124 70 147 53 17 39 87 195 246 153 73 41 31 30 30 26 18 13 13 18 22 25 30 35 47 58 80 108 142 158 140 115 82 53 35 40 55 64 66 68 60 54 41 29 24 22 22 19 14 12 8 6 5 7 6 6 7 6 7 7 7 6 7 6 7 7 8 7 7 5 5 6 7 6 6 8 8 9 9 11 9 8 7 5 6 6 8 9 9 8 7 10 13 16 15 13 7 7 6 6 6 7 6 6 7 6 6 6 6 5 6 6 6 5 6 6 
6 6 6 6 5 5 6 5 6 5 5 6 6 6 5 6 6 6 6 6 6 7 6 7 10 5 12 37 78 127 147 132 141 145 156 162 150 131 121 120 96 115 109 93 96 99 81 61 64 92 102 70 41 48 81 96 109 101 101 116 141 159 156 147 113 140 126 95 92 101 101 99 114 105 99 95 93 88 80 75 42 47 67 78 61 50 61 80 108 100 82 68 68 88 109 118 138 116 99 97 86 64 43 34 28 26 41 48 74 66 97 130 130 164 174 178 174 165 152 118 102 115 114 114 114 96 86 99 60 55 83 97 35 49 95 112 110 156 178 173 107 80 133 119 105 114 92 92 97 87 101 115 156 147 136 138 134 154 175 135 91 89 71 11 46 137 216 246 142 48 6 3 4 6 9 9 8 6 7 6 6 10 17 20 17 16 20 33 46 47 39 31 45 38 29 27 38 54 57 48 44 38 30 21 17 18 19 20 11 9 6 5 6 6 6 6 7 7 6 7 6 7 6 7 7 7 7 7 7 6 6 6 7 6 8 8 9 10 10 12 11 10 10 9 8 8 8 8 9 9 9 9 8 7 6 5 6 6 5 6 6 6 7 6 6 7 6 6 5 6 6 5 6 6 6 6 
5 6 6 6 5 5 5 5 5 6 6 5 6 5 6 6 6 6 6 6 7 6 6 6 5 2 10 42 92 146 165 145 145 147 150 149 137 129 135 147 131 128 113 88 83 98 92 62 71 97 126 110 80 78 90 96 96 92 91 100 120 137 140 136 124 138 124 101 104 108 109 115 120 98 84 79 71 60 59 70 54 51 66 85 70 48 42 47 63 78 97 106 100 92 111 138 137 132 128 123 107 81 57 46 31 26 32 27 53 62 100 125 141 163 169 181 176 159 145 120 124 127 119 112 112 107 97 98 62 60 94 115 46 62 116 141 87 113 141 158 120 87 93 117 105 114 103 90 83 86 107 120 133 144 155 144 160 179 143 116 121 89 38 51 171 248 212 107 29 4 2 6 7 4 5 7 4 6 6 7 6 8 8 6 14 10 10 14 17 20 26 36 47 44 38 35 39 40 29 17 26 24 20 15 12 13 13 13 7 7 6 6 6 7 6 6 6 6 6 7 6 6 7 6 7 8 8 8 6 6 6 6 8 10 10 10 9 9 8 8 11 12 13 13 13 11 9 7 8 10 13 11 9 6 5 4 5 6 6 6 6 7 6 6 6 7 6 6 6 6 5 6 6 6 6 6 
5 6 5 6 6 6 5 5 5 6 5 6 5 6 6 6 5 6 6 6 6 6 6 6 5 3 15 54 107 160 187 180 159 143 129 126 129 133 138 144 151 131 121 103 85 100 103 73 54 66 108 125 109 96 91 99 99 92 102 122 118 98 93 105 113 117 112 110 110 106 101 104 118 94 79 74 64 51 51 61 56 43 48 67 74 70 65 59 71 76 77 84 103 120 120 117 138 134 127 118 110 98 77 61 36 26 22 21 42 70 112 131 149 154 153 173 172 152 144 132 136 128 115 112 118 117 102 90 52 63 94 114 59 74 125 171 111 102 102 114 117 101 70 98 78 90 96 82 75 93 120 127 115 127 148 136 156 180 149 159 102 62 119 193 205 146 71 20 2 2 5 10 8 5 6 8 7 7 8 6 6 9 8 4 6 6 6 8 9 14 27 42 47 36 36 48 53 40 21 13 22 19 16 13 11 9 7 7 6 6 6 6 6 6 6 6 7 7 6 7 7 6 7 6 7 7 8 7 7 6 6 6 10 12 13 10 8 6 6 6 5 6 9 12 14 15 13 11 7 12 17 16 10 6 6 6 6 6 6 7 7 6 6 7 6 7 7 6 6 6 6 6 6 6 6 6 
6 6 6 6 6 6 6 5 5 6 5 6 5 6 6 5 6 6 6 6 6 6 6 5 8 5 13 40 73 118 166 188 174 145 120 119 129 135 132 128 149 127 138 134 98 100 114 93 61 59 90 105 97 91 85 99 111 111 123 136 119 89 82 96 83 80 84 89 93 101 111 112 105 93 81 74 70 66 63 61 58 46 41 43 46 54 60 56 65 81 80 72 89 115 127 127 134 143 141 125 114 103 78 53 44 31 26 33 36 70 118 151 160 153 141 160 171 159 157 147 143 121 104 110 126 131 112 87 54 75 92 102 62 69 108 175 159 124 90 92 101 113 79 81 86 99 117 102 91 113 133 126 125 133 141 135 154 189 182 154 76 83 232 186 80 18 5 2 2 6 8 7 7 6 4 5 9 8 7 5 5 7 8 6 6 7 8 6 4 6 11 15 25 23 28 42 46 35 23 19 19 16 12 10 9 8 6 4 6 7 7 7 6 6 7 7 7 7 7 7 7 6 7 6 8 7 8 7 7 6 6 7 8 10 12 9 6 6 6 5 3 3 5 7 10 13 13 11 9 13 17 17 11 7 5 5 7 7 7 7 6 6 7 7 7 7 7 7 7 6 7 6 6 6 6 6 
5 6 6 6 6 6 5 5 6 6 6 6 6 6 6 5 5 5 6 6 6 6 6 6 8 2 4 14 27 59 117 164 184 153 127 126 132 134 126 120 154 127 148 148 97 93 123 121 110 93 104 93 81 84 82 95 107 123 140 136 119 102 95 96 105 89 83 77 70 86 108 109 77 75 69 63 71 82 78 66 65 72 79 74 68 81 100 103 98 98 105 121 119 87 66 70 69 107 144 153 148 136 102 70 51 42 39 53 32 61 115 173 176 163 144 158 175 177 177 161 151 117 95 102 123 130 111 83 72 100 96 89 55 54 78 152 161 135 94 94 96 121 97 69 65 79 107 101 96 126 140 124 140 156 152 155 170 212 193 79 74 124 206 51 10 3 11 5 7 10 7 3 6 5 5 9 5 5 7 9 7 7 6 3 4 7 8 9 11 15 15 14 12 23 32 29 23 20 17 14 14 10 7 6 7 7 5 5 7 8 8 7 7 7 8 8 7 6 7 7 7 6 7 7 7 8 8 7 7 6 7 6 6 9 9 7 5 6 8 8 9 7 4 5 6 7 6 4 8 12 15 15 11 8 7 6 7 8 8 7 7 6 7 8 7 6 7 6 7 6 7 6 7 6 6 6 
6 6 6 6 6 6 6 6 5 6 6 6 6 5 6 5 5 5 6 5 6 5 6 6 7 5 6 13 21 32 61 101 151 149 137 129 129 120 108 108 121 123 135 143 122 93 90 105 117 109 87 107 95 126 106 95 96 119 125 118 115 101 92 101 120 119 113 93 77 87 104 107 83 88 79 78 95 98 89 88 77 72 70 70 75 90 100 95 78 88 96 98 97 89 71 55 52 75 107 128 130 123 117 114 98 72 58 76 59 61 93 165 187 191 180 178 171 173 181 154 131 110 82 85 123 141 120 105 60 94 138 116 66 50 71 120 150 136 104 95 96 111 115 64 60 77 107 111 110 145 167 139 146 160 165 172 198 206 140 69 73 160 68 7 1 11 7 5 9 4 7 4 6 3 6 12 28 21 15 14 16 16 16 16 7 4 6 5 4 16 23 10 17 14 13 22 11 14 11 11 12 6 7 9 6 7 7 4 7 7 6 7 7 7 6 6 6 6 6 7 6 6 6 7 7 7 8 8 8 8 8 7 6 6 7 7 7 7 8 8 7 7 7 6 6 6 6 8 8 9 11 15 15 11 8 7 9 8 7 7 6 6 6 7 7 7 6 7 7 6 6 6 6 7 7 7 
6 5 6 6 6 6 6 6 6 5 5 5 6 6 5 6 5 5 5 6 6 6 7 6 8 5 4 7 10 15 25 41 86 119 135 122 117 118 114 111 109 101 111 127 116 86 74 82 91 92 90 114 113 135 114 95 99 100 97 102 107 104 99 102 119 123 129 121 107 110 123 122 103 99 100 112 122 114 108 115 104 98 96 92 84 84 79 67 60 71 90 106 105 97 100 109 101 94 89 99 126 146 139 121 150 131 102 89 97 88 107 160 190 195 186 184 177 180 185 157 131 120 91 80 106 140 141 124 69 91 143 150 106 69 72 117 128 130 117 113 107 112 117 78 66 82 104 112 116 147 173 164 159 173 183 193 208 192 121 62 67 92 19 2 4 7 5 16 12 4 2 7 10 32 47 62 48 40 33 32 36 37 36 36 21 14 12 9 7 10 13 9 9 13 15 21 11 16 11 5 9 4 6 6 6 9 9 8 7 8 9 8 7 7 7 7 6 6 7 7 6 7 7 7 7 7 7 7 7 7 7 7 6 6 7 7 8 7 8 8 7 7 7 6 6 6 7 8 10 12 15 17 14 12 9 7 6 7 7 7 6 6 7 7 7 7 6 6 7 6 6 6 6 7 6 7 
5 5 6 6 6 6 6 6 6 6 5 6 6 6 6 6 6 6 6 6 6 6 7 6 8 7 8 11 14 16 20 23 47 87 125 127 118 107 104 109 104 83 77 89 90 73 67 72 75 80 98 121 131 138 124 104 108 91 91 102 103 99 97 98 100 105 121 129 123 124 132 134 118 95 95 114 111 97 94 97 102 109 123 124 110 104 100 91 79 88 114 139 129 104 106 128 130 133 120 102 101 119 137 141 160 165 138 108 145 128 127 152 188 193 185 188 182 182 186 159 129 113 96 90 101 129 146 141 89 84 115 138 121 89 81 114 118 130 131 132 115 108 111 93 77 91 104 109 118 143 173 187 175 183 194 206 209 177 107 54 61 53 2 2 8 7 3 16 8 18 21 41 48 115 99 49 30 26 24 29 38 46 53 59 46 35 24 18 13 7 10 24 27 40 46 46 34 39 26 8 9 8 8 9 13 13 8 8 5 6 7 7 6 7 8 10 7 7 6 6 6 6 7 7 7 8 8 7 7 8 7 7 6 6 7 7 7 7 7 7 7 7 8 7 6 7 7 8 11 15 17 14 11 10 8 7 6 6 6 6 6 7 6 7 7 7 7 6 6 6 6 5 7 6 7 7 
6 6 6 6 6 6 6 6 6 5 5 5 6 5 5 5 5 6 6 6 6 7 7 7 8 10 13 17 23 29 31 31 31 51 84 113 118 97 87 99 98 80 65 65 70 69 65 64 77 81 109 121 132 125 130 116 103 85 97 117 108 95 99 101 89 88 101 114 111 110 118 120 120 88 84 99 96 87 83 78 81 95 120 128 117 115 123 125 93 96 114 136 128 104 102 117 129 162 168 133 99 102 127 149 152 164 154 137 166 164 166 180 188 192 189 194 191 189 193 166 139 104 101 120 121 121 133 141 110 92 88 84 90 100 102 112 128 132 134 131 116 104 99 93 87 107 115 110 118 142 168 188 189 194 196 199 204 181 112 56 47 40 2 4 12 12 9 14 36 32 44 93 101 95 56 15 5 4 6 11 18 28 46 62 67 58 42 33 22 9 20 68 97 109 120 115 99 96 66 28 16 20 22 21 22 15 4 5 9 9 8 7 7 7 9 10 7 7 7 6 6 7 7 8 8 7 8 8 8 8 7 8 6 7 7 7 6 7 6 7 7 7 7 6 6 6 6 7 12 18 18 12 7 8 7 5 7 6 5 5 5 5 6 6 7 7 7 6 6 5 6 5 6 7 6 7 
5 6 6 6 6 6 6 5 6 6 6 6 5 5 6 6 6 6 6 6 7 7 7 6 7 9 12 13 14 19 22 22 18 25 39 70 97 96 82 80 77 76 69 62 66 72 69 57 77 82 112 112 121 108 121 113 91 74 87 114 112 105 110 114 101 94 101 110 105 99 99 95 95 88 97 103 97 99 102 90 91 90 98 107 105 108 113 109 76 86 102 112 110 109 118 132 121 146 163 153 138 141 153 161 170 167 160 165 150 170 185 198 195 198 194 204 202 200 206 182 170 129 122 138 133 124 125 125 100 105 94 59 63 99 107 98 137 130 126 124 119 107 90 88 90 116 126 120 127 150 170 181 196 201 195 192 209 198 120 49 24 19 1 12 16 19 26 38 72 59 91 118 115 41 18 2 3 3 3 4 7 12 27 47 59 67 61 54 37 14 29 98 156 155 170 174 169 151 111 64 38 41 37 27 23 14 7 11 26 20 14 9 9 9 8 7 7 7 6 6 7 7 8 9 8 8 8 7 7 7 7 7 6 7 7 8 7 7 6 7 6 7 7 7 6 6 7 6 10 17 20 15 11 11 10 7 8 7 6 4 4 5 6 6 7 7 7 6 6 6 6 6 6 6 6 6 
5 6 6 6 6 6 6 6 5 6 5 5 5 6 5 6 5 6 6 7 6 7 6 6 7 8 9 8 6 8 10 11 13 19 22 31 64 92 83 64 56 63 59 51 56 76 89 87 78 78 103 104 112 97 107 100 94 70 68 91 109 111 111 112 106 102 108 117 114 112 103 90 81 108 136 136 125 130 136 128 126 103 96 106 118 128 124 109 100 127 151 146 125 114 115 119 88 104 127 139 138 144 165 186 188 179 179 201 168 189 195 192 201 202 196 205 204 205 213 192 199 172 144 124 121 127 120 100 78 103 110 71 61 86 87 79 134 125 120 114 121 112 88 87 86 107 129 137 143 161 178 180 191 199 192 188 205 192 101 26 8 7 2 22 16 18 49 93 83 70 86 59 51 1 1 6 8 7 6 5 3 3 12 26 39 56 66 67 51 22 28 77 144 141 169 186 198 174 141 96 67 59 48 29 21 17 17 25 30 22 13 9 9 9 7 6 6 6 6 6 6 7 7 8 7 7 7 7 7 7 6 6 6 8 8 9 7 7 7 7 7 7 7 7 7 6 6 6 7 13 19 21 20 18 16 12 10 10 8 7 7 8 7 8 7 6 6 6 6 5 6 6 6 7 7 6 
6 5 6 6 6 6 6 5 5 5 6 5 5 6 6 5 7 7 6 6 6 6 7 7 7 6 7 7 7 6 8 9 12 20 18 16 37 69 77 67 53 51 45 41 49 70 97 116 90 81 92 100 107 102 99 90 94 77 64 77 99 103 100 104 106 103 110 119 125 132 123 103 97 133 160 159 164 172 171 167 147 125 119 128 133 138 133 123 146 167 177 154 120 92 77 68 53 60 74 82 72 71 99 143 156 154 157 176 197 225 226 212 209 206 197 207 206 207 218 202 212 193 147 111 112 121 106 85 96 92 101 92 84 82 81 95 135 131 124 105 108 106 85 96 87 91 125 162 166 168 183 188 191 193 187 188 195 162 71 11 5 8 4 19 11 29 78 109 63 95 179 233 226 56 0 0 7 5 4 5 3 2 5 12 26 39 49 59 55 31 27 45 114 121 162 182 198 177 156 114 79 70 65 49 32 26 26 29 21 17 10 8 8 7 7 6 6 6 7 6 7 7 6 6 6 7 6 7 7 7 6 6 7 8 9 9 7 7 6 7 7 7 8 7 7 6 6 6 6 8 14 17 20 21 20 20 15 14 15 14 12 10 9 7 6 6 7 6 6 6 6 6 6 6 7 7 
5 6 6 6 6 6 6 6 5 5 6 6 5 6 5 5 7 7 7 7 7 6 7 7 6 4 3 6 7 7 6 9 10 16 15 13 26 47 68 82 57 48 45 47 51 60 82 106 108 89 87 99 106 107 99 86 82 79 71 77 95 95 94 107 116 111 113 119 129 143 137 112 96 120 126 135 166 184 176 169 151 143 146 142 120 105 105 104 143 134 117 95 74 57 45 40 48 33 26 30 26 22 35 62 91 89 80 84 164 215 235 231 221 216 205 214 213 215 228 213 214 192 143 117 122 115 95 88 146 91 83 104 113 95 96 138 143 140 131 97 93 94 81 104 94 81 122 182 183 172 188 199 200 195 189 190 188 142 56 9 6 14 4 7 10 61 107 80 74 177 243 241 243 149 27 0 7 3 4 7 8 3 3 7 23 27 33 43 51 41 29 32 101 119 171 184 196 178 162 121 77 72 86 80 54 38 28 21 21 18 14 11 9 8 7 7 7 8 8 9 8 8 7 6 7 6 6 6 6 7 7 6 6 8 9 9 8 7 7 6 7 8 8 8 7 7 6 5 6 6 8 11 15 17 21 26 19 19 19 18 15 10 7 4 7 7 6 6 5 6 5 5 6 7 6 7 
6 5 6 6 6 6 5 6 6 5 5 6 6 6 6 6 6 5 5 5 7 6 7 6 7 6 6 5 6 5 7 7 8 13 12 12 22 47 63 60 54 51 49 83 70 65 53 74 87 94 114 91 82 83 103 92 76 76 79 84 91 99 111 118 118 106 102 111 121 123 118 118 103 100 97 104 125 149 155 149 128 120 98 76 76 90 92 81 75 60 49 49 50 41 27 16 14 12 10 9 7 7 8 11 20 27 19 13 51 142 215 236 240 228 222 224 229 220 215 219 200 197 174 143 117 104 112 136 193 133 73 104 143 118 132 178 155 123 97 92 86 71 79 109 106 80 88 152 209 196 177 195 201 191 189 167 190 154 42 11 8 11 6 0 27 97 107 87 89 249 245 232 227 255 75 4 7 6 5 5 4 4 5 6 16 30 40 40 38 30 25 31 109 131 150 188 199 189 172 115 80 88 77 62 60 46 27 21 19 19 18 18 15 11 9 8 10 15 14 13 16 9 4 7 32 17 7 6 7 6 6 6 8 8 10 10 9 8 7 7 7 7 8 7 8 7 6 6 6 7 6 7 11 15 17 15 12 14 13 10 5 3 5 7 6 6 6 7 7 6 6 6 5 6 5 5 
5 6 5 6 5 6 6 6 6 5 6 6 5 6 6 6 6 6 6 5 6 6 6 7 7 6 6 5 6 6 6 6 8 11 11 11 19 42 65 72 50 47 52 99 100 94 66 67 83 69 88 97 89 56 67 86 89 89 93 99 107 114 119 121 106 101 103 113 118 114 108 107 104 105 106 114 130 139 130 110 81 66 54 61 94 121 116 91 79 62 51 55 61 50 26 11 10 10 11 13 14 12 14 15 17 22 15 5 6 27 89 160 230 240 230 217 222 226 224 229 232 213 206 180 138 124 128 122 164 163 108 99 121 119 138 169 149 118 100 101 105 102 101 104 93 93 99 129 175 199 194 190 198 183 181 166 185 144 40 11 6 7 3 4 39 108 109 85 119 223 238 242 254 189 43 2 5 6 7 5 4 4 5 6 13 27 38 42 45 34 25 27 83 124 169 204 190 167 158 122 88 96 96 86 66 42 26 25 21 18 16 15 13 10 9 9 18 18 17 21 21 10 16 41 29 14 6 5 7 7 6 7 8 7 8 8 8 8 8 8 7 8 7 7 8 7 6 5 9 10 11 10 10 11 13 13 17 16 14 10 9 7 7 8 5 5 6 6 6 6 6 6 5 5 6 6 
6 6 5 6 6 5 5 5 6 6 5 5 6 6 6 6 6 6 6 5 6 6 7 7 7 7 6 6 5 5 6 6 6 8 9 11 19 41 71 93 71 54 45 71 85 89 67 62 56 53 80 116 115 61 51 74 87 89 96 108 122 130 129 126 109 107 112 119 121 117 114 114 133 127 116 112 123 134 128 114 99 98 106 128 147 143 119 98 88 78 66 56 42 27 14 9 12 11 11 13 14 15 15 17 27 26 23 16 6 4 29 87 187 238 247 218 220 229 227 225 222 201 214 194 137 129 135 105 114 149 109 72 81 94 120 157 160 131 115 108 99 104 109 97 83 93 105 121 157 196 203 188 197 175 173 168 179 128 36 12 9 5 2 9 57 119 108 83 79 147 223 252 228 71 4 1 4 6 7 7 5 4 5 7 13 24 34 41 48 39 25 24 60 98 149 191 183 165 151 116 121 108 104 97 67 37 26 27 22 18 15 13 13 11 12 13 15 26 25 18 16 16 21 35 13 6 2 4 7 7 6 6 7 8 7 7 7 7 7 8 7 7 7 8 7 7 7 6 6 12 17 16 11 11 13 15 18 13 9 7 9 10 8 6 7 6 6 6 6 6 5 5 6 6 6 6 
6 6 5 6 6 6 6 5 6 6 6 5 6 5 6 5 6 6 6 5 6 6 7 7 7 7 7 6 5 5 5 4 5 5 8 13 22 42 74 102 103 71 43 41 45 53 53 53 49 74 100 114 121 93 69 68 77 84 97 112 128 136 133 125 122 119 118 122 124 124 124 125 151 143 127 109 111 128 137 136 134 143 162 173 152 111 78 64 55 46 34 20 9 3 5 10 19 14 10 8 8 8 10 11 16 14 17 24 23 16 17 26 103 194 247 227 225 232 225 219 217 216 230 201 145 140 150 131 86 119 100 79 93 97 111 156 159 141 141 129 94 87 98 95 77 74 88 123 160 188 200 200 202 175 171 174 172 113 33 11 11 5 3 14 63 114 101 80 62 86 134 131 91 8 2 11 5 6 7 7 6 4 5 6 13 24 32 43 50 38 25 23 56 82 131 172 180 173 156 123 134 96 83 78 51 28 23 23 24 20 16 15 15 14 15 16 17 32 32 21 19 21 14 8 2 2 3 9 13 10 7 6 5 6 7 7 7 7 8 8 8 8 8 8 8 7 7 6 7 16 27 25 16 14 17 20 12 8 4 4 6 7 7 5 7 7 6 6 6 6 5 5 6 7 6 6 
5 6 6 6 5 6 6 6 6 5 6 6 6 5 6 5 6 6 5 5 6 6 7 6 6 7 7 7 6 6 5 6 8 7 9 14 24 40 66 90 100 85 63 43 39 41 48 50 70 108 110 90 95 111 93 71 78 89 104 118 128 133 126 116 127 122 118 120 123 123 120 117 107 115 113 101 99 113 123 123 133 129 132 140 127 87 47 27 19 12 7 3 4 7 12 18 24 15 8 5 6 6 6 7 6 6 7 8 17 26 21 9 42 135 225 236 230 233 230 225 217 241 235 186 141 128 137 149 88 111 110 110 136 128 112 137 145 138 155 150 105 88 103 110 91 68 76 115 154 183 204 208 210 185 178 180 165 104 34 11 9 4 4 14 57 103 95 88 67 52 57 48 25 5 4 7 6 5 6 6 6 5 5 6 13 21 33 48 52 32 20 25 70 92 142 171 171 166 152 132 101 75 70 68 45 28 24 23 26 22 19 19 17 15 13 12 16 19 21 21 19 10 4 2 4 5 10 17 18 12 8 6 5 6 7 8 7 7 7 8 7 8 8 8 7 7 6 6 10 22 34 32 21 15 16 18 11 9 7 7 7 8 7 7 7 7 7 7 6 6 6 6 6 6 6 6 
5 6 6 6 5 6 5 5 5 6 5 6 6 5 5 5 5 6 6 6 6 7 7 7 7 7 6 6 5 6 6 7 14 13 14 16 23 37 58 76 85 87 85 54 48 44 59 61 74 103 100 84 84 112 99 80 72 89 110 119 123 126 121 115 124 122 120 122 124 119 109 100 95 110 118 113 120 143 154 151 143 140 139 134 111 69 28 8 11 9 9 10 10 12 17 22 19 12 8 9 13 16 18 19 18 22 16 5 6 20 29 21 31 100 203 244 232 226 230 228 223 247 227 175 139 117 119 140 128 131 127 121 143 150 130 135 166 149 147 136 108 101 122 137 129 98 94 112 136 180 210 201 211 195 186 184 158 100 40 11 8 5 5 12 47 93 100 105 75 52 65 85 50 18 7 3 7 5 5 6 7 5 5 7 10 19 35 55 49 22 16 35 96 100 138 164 172 169 134 103 78 83 90 78 52 37 32 30 22 20 18 18 15 11 8 7 9 12 13 11 9 9 9 11 8 9 12 14 11 6 3 5 7 8 8 8 8 7 8 8 8 8 8 9 8 7 6 7 6 16 25 25 19 14 15 15 17 17 17 14 12 10 10 11 7 7 7 7 6 6 7 6 7 7 6 7 
5 5 5 6 5 5 6 6 6 5 6 5 5 6 5 6 6 5 5 5 6 6 7 7 6 6 6 5 6 6 7 9 15 15 15 15 21 36 62 83 82 91 92 52 46 43 64 65 64 81 85 87 78 104 100 85 70 95 119 124 119 119 120 118 121 124 125 124 121 117 108 102 129 141 145 146 163 191 196 181 142 153 143 103 58 30 12 6 12 13 14 11 8 6 11 16 18 14 14 24 39 53 60 63 56 54 48 33 25 29 31 22 36 74 168 238 231 221 229 223 242 234 227 205 174 158 155 147 168 143 137 127 136 154 150 164 178 166 145 121 107 115 135 153 140 113 110 120 132 172 207 195 206 201 193 185 154 102 49 13 7 6 5 8 33 78 95 104 80 54 71 93 63 23 10 5 5 4 4 7 6 4 5 9 15 21 39 58 44 16 21 63 103 96 134 170 192 189 129 84 105 120 104 62 38 31 27 25 15 13 12 11 11 7 7 6 8 14 15 10 11 20 22 17 7 8 9 10 7 4 5 8 12 12 10 9 7 7 7 7 8 8 8 8 8 8 7 7 3 9 14 15 14 14 16 15 18 20 21 17 13 9 9 10 7 6 7 6 6 7 7 7 7 7 7 6 
5 6 5 6 6 5 6 6 5 6 5 6 6 6 6 6 6 5 6 6 6 6 6 7 6 6 5 5 5 7 8 10 11 13 13 13 17 37 70 96 87 94 97 49 46 40 60 52 64 76 79 81 62 89 95 89 82 111 137 134 120 115 116 116 118 123 125 120 114 114 113 111 128 136 138 139 158 173 155 122 134 131 96 42 13 9 14 17 20 12 5 3 7 12 16 21 24 21 23 41 70 97 117 126 100 82 83 96 90 65 34 14 29 45 130 226 231 225 234 224 219 183 195 212 190 187 181 143 150 110 122 133 130 135 138 169 154 169 158 129 123 130 141 148 110 86 99 131 139 165 201 205 199 203 195 183 149 104 56 16 6 6 4 1 20 61 77 86 81 57 60 66 77 50 26 3 3 3 5 7 5 3 7 12 25 29 45 62 42 14 32 103 88 96 159 202 212 202 141 103 146 148 89 26 10 12 10 7 9 8 7 7 7 6 7 8 11 5 5 14 21 17 11 8 6 8 11 13 13 12 14 19 15 15 11 8 6 6 6 8 8 8 9 8 8 8 7 7 8 10 12 13 14 15 16 15 13 15 17 15 10 7 5 6 6 6 5 6 6 7 7 7 7 7 7 7 
6 6 6 5 6 5 6 6 6 6 6 6 6 6 5 5 6 5 5 6 5 6 6 7 7 6 5 6 6 7 7 6 4 8 14 20 23 32 57 88 90 98 85 64 57 56 53 53 57 67 74 75 79 88 87 79 73 104 125 116 104 110 117 114 118 119 119 117 120 123 117 108 99 93 108 138 153 141 117 98 103 90 48 14 7 19 21 14 15 5 7 12 11 27 54 40 16 13 9 9 19 45 85 114 109 95 79 89 100 95 63 17 21 18 81 195 238 219 221 211 191 197 205 207 198 184 172 167 152 121 116 128 129 137 157 164 147 146 163 150 137 131 120 136 107 103 90 101 142 178 196 212 184 207 208 192 154 111 59 12 6 6 8 5 4 26 63 71 78 74 62 68 69 54 40 23 3 6 5 3 4 5 13 28 37 48 60 44 17 20 58 100 55 135 173 207 182 121 86 116 171 104 43 18 12 10 9 9 6 7 9 8 8 8 8 7 6 9 16 24 21 11 4 2 8 12 14 14 17 23 23 17 10 8 6 7 6 7 8 8 8 8 7 6 6 6 7 7 7 10 13 17 15 12 13 18 18 13 11 9 8 6 6 6 6 6 6 6 7 7 7 6 7 6 6 6 
6 5 6 6 6 6 6 6 5 5 5 6 6 5 6 6 6 6 5 6 6 6 6 6 6 6 6 6 7 7 6 6 7 6 6 8 13 24 53 86 96 98 82 64 54 52 54 63 59 67 75 73 77 82 81 73 66 82 96 96 88 88 99 109 112 118 122 119 120 123 121 116 114 101 98 109 118 113 99 86 73 58 37 28 24 25 20 15 7 4 17 27 48 60 37 17 8 5 1 4 9 14 37 83 102 103 93 91 95 100 78 30 21 13 60 171 229 220 212 201 200 195 196 195 183 167 161 164 163 151 137 125 124 148 177 186 163 160 171 151 137 120 97 109 131 108 82 86 131 164 173 178 205 199 177 153 125 106 73 24 6 5 6 5 3 16 42 55 75 75 63 63 60 51 50 41 25 17 8 7 10 12 17 29 52 57 44 19 13 41 72 68 52 151 193 178 120 88 95 141 124 61 23 19 21 15 10 8 10 10 10 9 8 7 8 8 8 8 10 10 6 4 10 18 20 18 16 15 15 15 12 10 8 7 6 6 6 7 7 8 8 8 7 6 7 6 7 7 8 10 14 18 18 17 16 17 18 15 13 13 12 10 9 11 8 7 6 7 7 7 7 7 6 7 6 6 
6 6 5 6 6 6 6 6 5 6 5 6 5 5 6 6 7 6 6 6 5 6 6 6 6 5 5 6 6 6 6 6 8 3 3 7 15 30 57 85 98 92 76 63 58 55 53 52 64 72 76 74 76 82 79 72 65 66 74 80 76 74 85 104 103 113 122 123 123 126 133 137 131 117 101 94 98 96 87 80 61 52 42 46 38 29 13 8 2 13 52 65 86 62 21 21 9 2 7 30 66 52 16 31 80 102 105 97 92 101 97 54 24 12 36 136 213 226 204 193 201 194 197 201 188 164 156 164 166 184 164 128 125 159 188 200 180 174 170 147 138 121 93 111 97 123 130 115 99 100 137 200 183 164 133 104 76 76 69 30 8 3 4 4 2 6 20 37 61 71 70 72 65 57 62 59 60 44 25 21 24 24 27 38 57 41 21 9 21 64 79 49 91 175 192 160 117 111 111 105 47 29 23 27 22 9 6 12 11 10 8 7 6 7 8 7 8 7 7 6 5 6 13 23 17 11 8 9 9 6 4 4 6 7 7 7 7 7 7 6 7 8 7 6 6 7 7 8 8 10 12 14 17 20 20 17 19 17 17 18 18 17 16 16 8 8 7 7 6 7 6 6 6 6 6 5 
5 6 6 6 5 5 6 5 5 6 6 6 6 5 6 5 7 7 6 5 6 6 6 6 5 6 5 6 6 6 6 5 5 3 7 15 26 37 56 76 90 84 71 62 68 72 60 44 58 64 68 65 71 80 83 78 72 69 71 76 77 74 81 94 91 103 115 116 114 115 127 135 130 131 117 105 104 100 89 87 65 71 61 56 32 23 8 5 21 41 91 92 75 41 69 138 213 160 108 70 71 40 6 15 54 84 105 104 92 98 104 77 32 14 19 99 192 231 197 192 198 195 205 218 199 160 141 148 153 190 179 138 134 154 174 189 183 166 154 132 135 127 110 139 170 112 63 73 130 166 156 148 136 122 99 73 47 53 62 33 10 5 4 7 2 1 9 24 31 45 52 64 61 52 55 51 59 63 55 45 42 39 41 50 42 18 12 23 44 65 72 63 124 157 147 122 109 114 93 46 27 32 31 23 10 3 6 12 10 8 7 6 6 8 9 8 6 7 11 18 22 18 12 9 10 7 5 6 5 3 3 4 6 6 7 7 7 7 6 6 7 7 6 7 6 6 7 7 8 9 9 9 12 19 21 16 7 7 7 9 9 8 8 8 8 8 7 7 8 7 6 6 6 6 5 6 
5 5 6 5 6 6 6 6 5 6 5 5 6 5 5 6 7 6 6 6 6 6 5 6 7 6 5 5 5 6 4 4 5 5 10 17 24 32 48 66 88 92 80 60 62 80 78 59 48 55 58 55 62 73 81 80 79 81 80 77 76 78 73 68 72 77 85 87 82 81 88 98 106 121 116 105 105 94 88 98 78 89 81 75 31 17 9 18 59 76 98 91 64 53 179 254 249 220 104 20 11 11 5 13 34 62 95 109 92 85 94 82 38 18 7 64 157 223 187 192 197 195 209 219 196 151 130 134 134 169 173 149 143 147 159 180 172 152 145 134 134 127 114 141 145 119 87 83 103 123 158 207 147 123 85 61 50 63 70 38 11 7 7 11 10 4 5 15 41 48 46 54 57 52 55 47 50 75 84 71 65 61 54 50 27 12 22 55 66 61 80 110 161 162 144 123 112 108 105 68 51 40 22 8 4 7 8 6 8 8 8 8 8 10 11 9 5 9 18 29 31 23 11 4 10 13 14 9 6 6 7 6 6 8 8 9 7 7 7 7 7 7 7 6 7 7 6 7 9 9 9 7 9 15 16 13 10 9 8 9 9 8 8 8 6 7 8 8 8 8 6 6 6 6 6 5 
6 5 5 5 6 5 6 6 5 5 5 6 5 5 5 5 7 6 6 6 6 6 5 6 6 6 5 6 6 6 5 5 7 5 7 10 15 25 48 76 96 107 96 64 48 62 77 73 63 69 70 62 58 64 69 67 77 83 79 69 69 72 59 42 40 41 45 48 48 50 53 58 69 84 81 75 80 75 79 110 114 113 108 122 52 20 17 55 86 88 85 79 71 88 252 238 246 248 185 40 19 32 2 0 22 47 81 102 87 74 82 73 40 27 2 39 121 203 171 187 192 195 208 215 194 160 148 154 128 150 163 158 151 148 161 181 168 147 162 161 145 128 109 122 106 110 110 115 117 110 132 184 213 168 95 62 64 76 65 29 9 12 11 15 18 14 10 12 97 83 57 50 50 49 54 48 41 60 67 58 55 49 34 22 17 19 43 72 73 77 113 148 129 110 98 99 101 81 78 57 35 21 8 5 8 12 9 5 8 8 8 8 9 9 9 8 7 13 20 22 17 12 10 11 9 15 16 9 5 7 8 7 11 12 11 10 8 8 7 7 8 7 6 6 6 7 7 6 8 12 14 13 12 12 13 11 13 10 7 6 6 5 5 6 7 6 7 7 8 8 6 5 6 6 6 5 
6 5 5 6 6 6 5 5 6 6 6 5 5 6 5 6 6 5 6 6 6 6 6 6 6 6 6 6 8 8 7 8 7 6 5 8 13 25 49 78 91 99 103 85 61 57 64 63 73 80 80 68 59 58 59 56 67 69 64 57 59 64 49 29 26 23 22 26 30 31 31 32 35 45 42 42 55 56 76 128 154 154 145 164 72 32 30 88 88 87 94 73 62 76 233 239 237 252 235 47 12 37 6 12 16 40 71 91 81 75 81 65 42 38 2 24 87 174 141 165 183 195 212 217 198 170 160 160 131 143 164 172 160 160 173 178 167 141 174 181 147 127 112 116 88 101 116 131 123 96 99 136 218 199 121 75 70 63 40 14 17 24 18 15 24 31 25 23 90 69 38 29 27 27 33 27 20 26 26 25 26 21 14 12 25 40 64 71 72 95 120 119 97 78 77 96 105 59 40 25 13 7 6 9 11 8 6 8 7 8 8 8 7 8 8 8 11 15 18 15 9 9 11 15 8 10 9 6 5 6 7 8 13 11 10 9 8 8 7 6 8 7 6 6 6 7 6 6 7 13 19 21 17 16 18 21 29 22 16 12 11 10 11 13 8 8 7 7 8 7 6 6 5 6 6 5 
5 5 6 5 5 6 6 5 6 5 6 5 6 5 6 5 6 5 6 5 6 6 7 7 7 6 6 6 8 10 10 9 8 6 7 12 17 24 39 56 72 77 99 113 99 77 62 53 56 67 72 63 55 55 54 51 57 54 50 49 56 60 46 30 33 25 20 21 25 22 18 17 17 25 22 27 45 51 78 144 167 180 165 170 74 44 43 98 71 83 125 86 44 27 149 235 246 238 152 22 5 25 9 0 16 41 69 83 80 84 92 68 43 46 3 17 67 148 114 141 177 196 218 221 195 161 138 130 136 146 174 185 170 173 180 169 157 127 166 180 140 126 122 124 114 102 90 95 96 80 86 121 161 191 143 93 70 45 22 10 32 40 24 13 27 47 47 40 38 30 15 14 17 18 20 16 13 14 15 19 23 20 25 39 49 64 77 70 72 96 94 61 87 88 105 114 101 37 23 19 20 11 7 9 9 5 6 9 7 8 9 8 8 8 9 10 16 17 18 17 15 14 13 13 14 10 7 7 7 6 7 10 7 6 5 5 5 6 6 7 8 7 6 7 7 7 6 6 8 14 21 25 21 19 26 37 34 26 18 12 10 9 10 13 10 9 7 6 6 6 6 6 6 5 5 5 
5 6 6 6 6 6 5 5 6 6 5 6 6 6 5 5 5 5 5 6 6 6 6 7 7 7 7 8 8 7 8 8 6 9 10 13 18 21 34 56 77 78 77 82 93 84 66 57 52 54 60 65 67 65 67 72 72 68 60 46 40 41 41 39 39 31 22 18 18 20 20 21 23 14 16 31 43 53 95 157 192 181 167 134 61 48 68 91 96 120 114 87 50 9 13 70 113 77 24 7 4 3 6 8 13 44 77 85 89 89 76 63 55 32 8 15 50 136 113 147 174 194 223 221 193 153 132 148 161 171 165 149 159 183 183 162 141 121 139 173 156 117 116 136 117 101 89 86 84 80 88 102 151 160 137 86 65 45 20 19 37 45 58 43 46 38 73 89 80 48 32 31 31 31 29 26 22 17 24 33 41 35 29 45 59 71 74 70 54 52 54 60 112 88 57 47 34 22 31 43 36 11 7 9 8 6 5 7 9 9 8 7 7 8 10 11 8 7 8 9 11 11 11 10 10 15 13 6 6 11 11 4 5 5 5 7 7 8 6 7 7 6 7 7 7 7 6 7 6 10 15 21 25 28 27 24 13 10 7 6 7 8 9 10 7 7 7 6 6 6 5 5 6 6 6 6 
5 5 5 6 6 5 5 6 5 5 6 6 6 5 6 6 5 5 6 6 6 7 7 7 7 7 7 8 7 7 7 8 5 7 6 9 14 20 36 62 76 75 76 88 97 87 78 84 62 64 63 62 64 70 79 84 76 69 53 36 28 24 23 22 21 18 15 14 17 20 20 20 17 15 17 30 56 97 148 187 206 186 162 125 53 43 65 99 104 117 107 95 67 15 2 6 6 5 3 3 7 7 6 5 16 36 67 81 81 72 57 43 38 30 13 17 41 115 101 144 176 188 218 239 218 163 132 150 165 161 151 147 160 178 179 166 152 121 123 150 152 128 114 115 123 111 97 83 62 48 50 61 114 136 140 109 84 50 19 19 19 28 36 29 28 27 62 84 108 108 106 91 69 61 60 53 55 45 48 48 40 26 21 42 44 33 22 29 40 50 36 23 44 34 25 36 43 38 44 48 16 5 6 7 5 7 6 8 7 7 7 7 8 8 7 6 7 7 8 10 13 16 19 21 30 25 22 23 18 10 5 6 6 6 6 7 8 8 8 7 7 6 7 7 7 7 7 7 5 8 11 13 15 17 15 14 10 8 8 7 8 8 8 8 6 7 7 7 6 6 6 5 6 5 6 5 
6 6 6 6 5 6 6 5 6 6 5 6 6 6 6 6 6 5 5 6 6 6 6 6 7 7 7 8 7 6 6 6 6 6 5 5 10 16 31 51 73 73 74 83 86 72 72 89 94 93 82 66 61 68 75 75 66 58 43 29 20 18 18 18 15 14 14 14 17 19 20 20 16 22 36 57 92 137 175 193 211 192 163 124 55 49 76 112 106 103 91 91 84 41 8 2 2 3 6 10 12 7 4 3 22 38 70 88 74 60 53 45 41 23 6 13 38 100 93 145 187 210 224 219 195 158 138 142 166 145 135 148 164 165 159 155 145 117 109 125 133 127 113 99 77 83 92 98 81 54 36 32 43 60 76 69 56 27 10 18 19 20 13 12 13 22 45 57 60 89 112 102 86 89 95 88 74 63 63 58 44 25 18 35 48 38 34 60 93 109 85 63 46 31 16 18 19 14 11 8 5 2 8 7 4 6 6 7 8 8 7 8 9 8 7 6 9 10 14 16 22 26 30 32 27 25 23 20 11 3 5 11 8 8 7 7 7 7 7 7 7 7 7 7 7 7 7 7 6 7 7 8 9 11 12 9 11 11 10 10 10 8 5 4 6 6 6 6 6 7 6 5 6 6 6 6 
5 6 6 6 6 5 5 5 5 6 5 5 5 6 6 6 6 6 5 7 7 6 7 6 7 7 7 7 6 6 6 6 5 7 6 7 9 12 18 30 56 64 69 69 63 53 55 71 112 114 98 73 61 65 63 53 46 42 33 25 21 20 20 21 17 16 16 16 18 23 28 31 36 46 70 104 125 138 160 187 206 199 168 125 61 57 76 98 97 90 80 74 68 49 21 7 8 9 9 10 7 3 6 11 31 51 89 98 71 60 63 57 38 8 2 20 62 98 74 130 190 219 219 194 156 124 129 145 167 135 125 150 165 151 134 135 125 113 108 110 112 118 114 100 73 70 76 88 90 72 52 39 18 21 24 25 23 11 8 32 34 25 5 7 11 26 44 49 78 112 139 132 119 113 100 81 65 54 49 42 40 33 27 42 58 63 74 96 95 88 74 72 66 46 21 15 10 4 4 2 5 2 8 9 5 6 6 7 8 8 8 7 7 8 9 10 12 16 21 27 29 29 30 29 22 24 15 7 7 19 26 21 10 9 7 6 6 6 6 6 7 7 7 7 7 7 6 7 5 6 7 7 9 14 14 12 10 9 9 9 8 7 5 5 7 6 7 7 6 6 6 6 6 6 6 6 
6 6 6 5 5 6 5 5 6 6 5 5 5 6 6 5 6 6 6 6 6 6 6 7 7 6 6 6 6 6 6 6 5 7 6 7 9 9 11 19 32 53 63 58 54 53 57 66 88 96 90 71 63 65 57 43 36 32 29 24 20 18 17 17 17 15 14 14 18 29 40 50 70 79 102 127 140 149 169 193 210 212 177 121 58 54 62 69 94 92 91 84 71 55 29 8 1 2 4 7 4 2 7 17 40 66 97 93 69 63 58 44 14 4 16 65 93 79 46 104 189 220 204 177 131 101 131 169 166 131 118 140 153 138 127 130 121 117 114 110 111 122 120 103 94 86 85 91 89 72 51 38 23 14 10 8 9 5 7 36 41 30 4 9 15 39 66 75 95 122 151 161 155 133 105 86 70 62 57 50 58 74 84 111 118 103 81 64 35 19 14 21 15 13 3 2 2 1 4 5 13 4 8 12 8 8 6 8 6 7 8 7 6 7 11 13 17 20 22 23 23 20 18 16 20 14 5 2 15 37 34 16 10 9 7 6 6 7 7 7 8 7 8 7 7 6 6 6 5 6 6 7 10 13 14 12 5 6 5 5 6 6 7 7 7 7 7 7 6 6 5 5 6 6 6 6 
6 6 6 6 6 5 6 6 6 5 5 5 5 6 5 6 6 6 6 6 7 6 6 6 6 6 7 6 6 7 6 6 4 7 6 6 8 8 12 18 25 49 63 59 59 66 72 75 71 79 78 66 62 63 55 42 35 31 27 25 21 18 16 15 18 16 14 14 20 32 47 58 77 98 122 140 162 186 195 191 214 225 192 133 64 55 62 74 95 86 88 91 88 83 56 25 8 3 5 5 4 3 10 23 56 79 91 78 65 58 36 17 7 22 69 105 85 47 32 106 191 242 196 121 90 109 167 179 159 130 114 123 134 131 132 140 135 124 118 117 122 133 126 100 87 88 90 88 78 63 50 44 24 13 4 2 6 3 3 23 39 27 2 8 20 46 79 86 108 130 159 183 199 196 197 204 187 177 173 160 158 153 146 171 152 91 37 21 12 9 7 11 8 10 5 5 7 15 35 44 25 11 12 15 10 8 6 6 5 8 11 10 9 11 13 15 20 18 16 13 10 9 9 9 8 4 5 12 18 14 8 6 8 7 6 7 8 8 8 9 8 7 7 7 6 7 7 7 8 8 8 7 8 9 9 7 8 8 8 7 7 6 6 6 7 7 7 7 6 6 5 5 6 6 6 6 
6 6 6 6 5 5 5 6 6 6 6 5 6 6 5 6 6 6 6 6 6 6 6 6 7 7 6 7 7 6 6 6 4 7 7 6 8 8 10 15 24 43 55 57 66 76 85 93 90 91 83 68 62 63 59 50 38 33 27 23 19 15 15 17 17 15 17 21 28 40 54 64 73 96 129 156 174 185 186 184 213 229 216 170 83 55 65 98 101 78 69 73 81 91 77 47 23 9 6 6 5 10 23 44 76 93 87 66 57 43 22 13 29 55 97 85 51 28 28 103 152 194 128 67 65 112 174 153 140 128 117 113 120 130 137 140 138 126 120 124 129 134 122 97 96 83 67 55 49 54 65 76 35 21 9 4 9 7 5 21 29 19 2 4 16 34 70 76 102 118 133 148 168 177 186 199 221 175 155 147 133 89 52 56 64 24 2 7 14 20 15 17 4 8 5 7 11 23 45 50 23 13 15 13 9 10 8 9 12 12 12 11 12 13 15 15 20 16 12 8 7 7 8 9 8 12 21 24 14 5 3 7 7 7 7 7 8 9 8 8 7 7 6 6 7 7 8 9 12 12 10 7 6 6 6 4 10 12 15 16 14 9 6 4 6 6 6 6 6 7 6 6 7 6 7 7 
5 5 6 6 6 6 6 6 5 6 6 6 6 5 6 6 6 6 6 7 6 6 6 6 6 7 6 7 6 6 6 6 4 8 9 8 7 7 6 9 19 31 42 52 68 81 95 111 120 111 92 73 66 68 68 64 44 36 26 20 14 11 11 13 12 15 19 28 40 55 67 76 86 96 128 160 159 143 156 189 208 228 232 199 94 47 55 106 112 81 69 71 78 89 85 65 45 21 14 13 14 24 41 64 86 103 88 61 48 28 18 24 59 67 77 51 33 24 23 76 96 91 49 52 75 92 130 127 122 126 122 113 116 130 136 131 127 120 124 128 126 124 115 98 99 79 58 48 49 56 63 66 52 32 13 4 6 6 4 20 14 13 2 2 11 20 61 72 99 119 136 157 183 188 171 157 126 61 37 53 65 38 12 15 16 6 6 26 43 40 26 23 14 21 18 20 23 25 29 20 11 8 14 11 7 14 17 17 20 15 10 9 10 13 14 13 18 15 13 10 11 12 13 13 15 26 27 14 9 12 12 7 8 7 7 7 8 7 6 6 7 6 6 6 7 9 9 11 13 12 10 7 4 5 5 5 7 12 20 25 23 16 10 6 6 6 6 6 6 6 7 7 7 7 7 7 
5 5 5 5 5 6 6 5 5 6 5 6 6 5 5 5 6 6 6 6 7 7 6 6 6 6 6 6 6 6 6 6 4 6 6 6 6 5 6 6 14 28 38 58 55 77 85 102 99 90 81 75 67 60 62 69 55 33 23 19 12 13 16 16 15 19 26 36 51 69 75 75 89 116 136 116 122 126 172 204 221 218 249 229 145 56 30 62 126 97 67 60 71 84 84 78 62 46 31 28 31 42 60 80 90 80 73 44 37 21 31 42 58 61 28 35 34 48 20 21 26 22 33 52 65 89 113 116 136 103 88 107 128 127 119 117 103 116 120 112 106 109 110 102 94 76 55 42 36 34 40 46 39 41 25 7 3 7 6 6 8 3 3 3 6 26 62 84 104 104 100 104 131 156 132 90 52 25 11 7 3 3 8 14 19 18 33 67 74 85 41 38 56 60 40 22 21 20 13 12 15 17 16 16 24 35 34 25 13 10 6 3 5 12 20 23 17 14 11 18 29 23 21 31 31 22 15 12 13 13 10 6 8 8 9 9 8 7 6 5 6 5 7 8 8 8 8 8 6 6 6 6 6 6 7 8 5 6 7 9 13 14 11 8 7 6 6 6 6 6 7 8 6 7 7 7 
5 6 6 6 6 6 6 5 6 5 5 6 6 5 5 6 5 5 5 6 6 7 7 7 6 6 6 6 6 6 6 6 6 6 7 6 5 5 7 8 11 26 40 67 63 74 63 66 51 45 43 47 50 52 56 62 54 37 27 24 18 15 15 15 19 22 27 32 42 58 72 75 88 110 136 127 131 135 151 178 214 228 246 242 195 108 45 27 75 95 104 88 69 66 76 85 76 65 50 41 45 60 75 84 77 65 50 25 32 28 50 75 87 97 52 50 45 58 29 34 21 21 32 45 69 111 131 109 107 91 87 103 121 119 108 103 89 102 109 104 100 102 97 86 74 62 49 39 31 25 23 24 26 33 30 15 6 3 4 4 5 4 8 8 3 14 54 97 106 65 43 50 63 62 61 65 70 64 63 49 23 14 26 43 65 68 85 86 64 48 20 19 80 67 38 24 32 36 29 27 37 27 20 21 26 25 18 13 3 13 28 34 31 26 20 16 11 17 26 30 28 29 31 31 26 22 19 18 21 22 19 15 13 12 9 6 6 6 6 7 5 5 5 5 6 6 6 6 7 6 6 5 6 6 6 6 6 6 5 5 8 11 12 11 10 9 8 7 6 7 7 7 7 7 7 7 
5 6 5 6 6 6 6 5 6 5 5 6 6 6 5 6 6 6 6 5 6 7 6 6 6 6 6 6 6 6 6 6 6 6 5 5 5 6 9 12 13 24 37 66 65 72 55 51 58 58 59 61 56 47 43 45 42 34 26 23 22 17 15 19 18 18 18 23 36 53 64 66 95 100 123 121 124 138 119 143 175 217 226 239 238 179 90 26 33 58 83 81 70 70 82 89 86 79 67 61 70 83 81 71 46 43 31 18 41 43 67 100 145 149 78 62 59 69 28 25 12 18 27 32 57 111 126 89 79 82 87 99 108 107 96 89 78 89 98 100 102 103 95 84 67 61 51 41 30 19 14 10 9 11 18 22 20 22 20 12 10 6 11 15 8 8 26 49 101 78 48 29 23 25 25 22 26 27 35 36 21 15 20 27 16 37 70 48 29 19 26 40 50 53 41 31 35 41 40 39 32 21 15 16 15 8 6 10 35 50 62 50 27 11 6 3 9 15 24 22 14 14 19 19 27 28 27 28 31 30 27 23 14 11 8 5 6 6 7 7 5 5 5 5 5 5 6 6 6 6 6 6 7 7 7 8 17 16 13 11 11 13 15 15 15 14 12 11 9 8 8 7 7 7 7 7 
5 5 5 6 6 6 5 6 6 6 5 5 5 6 5 6 5 6 5 6 6 7 7 7 6 6 7 6 7 6 6 6 7 7 5 5 6 9 13 16 18 25 27 48 47 61 53 57 78 84 89 81 58 35 26 27 32 28 18 15 17 13 11 19 29 25 25 37 59 76 77 70 80 76 98 109 120 145 95 110 163 226 231 243 253 212 149 67 45 45 50 59 66 71 77 87 97 97 100 112 118 98 61 33 29 30 22 20 65 80 112 158 183 171 86 64 78 84 27 11 4 12 21 26 49 100 113 82 69 84 96 97 95 96 91 83 83 90 97 99 104 106 98 88 76 69 57 43 28 17 11 8 8 5 8 12 16 27 27 10 9 1 3 14 22 26 29 28 41 57 50 25 24 46 49 31 20 12 12 18 22 24 27 27 53 106 153 82 36 12 17 17 21 32 35 29 28 35 40 41 22 20 22 21 15 11 20 37 61 56 38 17 4 1 5 8 23 22 22 26 26 14 7 10 23 24 26 25 24 22 18 15 9 9 8 8 7 7 6 6 6 6 6 6 5 7 7 7 6 6 6 7 8 8 9 10 23 25 27 25 23 21 20 19 17 16 15 14 11 9 8 7 8 7 6 6 
5 6 6 5 5 6 5 6 6 6 6 6 5 6 5 6 5 5 6 6 6 6 7 6 6 7 7 6 6 7 7 7 8 8 6 6 7 8 10 12 19 20 16 29 29 46 49 62 74 76 80 74 59 42 36 38 43 38 25 18 20 18 19 31 42 43 50 66 82 86 77 66 63 60 85 104 122 147 87 90 118 182 200 230 243 219 194 139 80 52 36 41 43 42 58 83 99 107 130 149 130 77 34 16 40 40 31 33 99 129 171 220 173 163 89 71 87 88 31 10 4 8 18 35 67 105 106 80 69 91 106 97 88 92 93 88 98 101 102 100 102 102 97 90 85 75 57 36 20 12 8 7 6 8 12 10 11 29 41 26 13 6 7 11 18 26 32 26 27 30 30 34 51 75 78 65 53 39 35 41 45 53 63 66 112 144 141 57 30 25 49 44 21 21 23 21 21 27 31 31 18 24 30 26 19 21 34 50 30 18 6 1 2 6 14 19 30 33 24 33 61 38 7 4 11 12 13 11 9 9 8 6 9 10 11 11 9 8 8 8 8 7 7 7 6 7 7 8 5 6 6 8 9 9 9 9 13 18 23 25 24 22 20 19 15 16 14 14 12 10 8 6 8 7 6 6 
6 5 5 6 5 5 6 6 6 5 6 6 5 6 6 5 6 6 5 5 6 7 7 7 6 7 6 7 6 7 6 7 6 5 5 5 5 5 5 3 12 12 9 23 26 44 50 65 70 60 54 55 56 53 49 48 48 41 31 28 30 32 41 54 62 71 86 93 90 76 68 65 73 70 83 82 95 114 83 84 99 146 179 219 250 247 236 209 159 101 57 47 39 30 36 55 79 86 102 108 82 51 42 50 51 53 57 73 151 170 190 209 165 161 113 80 65 52 19 7 8 7 18 52 88 97 74 53 63 89 108 101 89 92 97 97 101 104 106 105 103 104 101 98 89 80 59 35 19 11 9 9 4 9 14 14 17 30 33 21 6 8 14 14 9 12 23 26 30 25 29 45 72 82 71 54 44 41 50 66 81 93 92 79 107 105 71 33 32 43 60 43 14 13 19 23 16 11 14 15 10 16 19 14 12 14 15 14 7 3 2 4 13 22 25 25 26 34 18 20 55 53 17 5 4 5 6 6 6 7 7 7 11 12 12 11 9 8 8 9 11 10 10 9 8 8 8 7 6 7 8 8 8 9 8 9 8 10 14 14 13 13 11 10 11 11 11 10 9 9 8 7 8 7 8 7 
5 6 6 5 6 5 5 5 5 6 6 6 6 6 6 5 6 6 6 6 7 7 7 6 7 6 7 7 7 7 7 6 4 6 8 10 12 11 8 6 9 9 6 22 29 48 49 59 58 50 45 47 48 48 47 49 47 38 38 43 44 49 60 68 76 80 87 88 77 66 62 65 71 77 79 57 61 69 73 78 112 139 164 184 220 250 246 240 213 162 106 73 51 37 25 20 26 26 29 31 28 28 43 67 71 72 94 125 208 213 212 203 185 179 141 86 38 18 8 5 11 12 29 64 80 60 37 28 44 72 101 105 96 97 100 101 95 100 106 107 104 99 96 93 86 82 66 43 24 14 10 8 8 10 11 12 14 13 11 9 9 7 12 16 13 17 26 31 13 22 36 47 57 63 51 36 33 36 47 66 96 122 105 66 27 33 29 52 59 48 27 9 4 11 24 21 11 10 12 7 9 12 12 9 7 8 6 3 2 3 11 25 37 36 33 32 25 21 13 12 24 35 22 10 6 6 6 5 7 9 9 10 10 10 9 8 7 7 8 8 10 11 10 9 9 8 8 7 7 8 9 10 11 11 11 11 9 11 12 11 9 9 7 6 8 9 9 9 9 8 8 7 7 7 7 8 
5 5 5 5 6 5 5 6 5 6 6 6 5 6 6 6 6 6 6 6 7 6 7 6 7 7 7 7 7 7 7 7 8 10 16 23 28 28 24 21 15 11 6 21 28 43 38 43 56 61 69 75 69 65 70 83 76 64 70 80 76 79 90 89 48 39 35 35 37 36 35 36 39 63 74 51 51 49 66 68 52 65 84 87 129 196 219 240 242 243 219 173 142 129 111 91 63 66 72 85 102 119 133 139 137 121 132 153 226 235 245 232 210 194 156 91 27 9 7 9 9 17 41 70 64 36 24 27 30 57 93 105 102 100 102 101 93 100 106 105 95 84 75 71 76 78 69 49 29 17 9 5 5 9 12 14 17 20 43 85 85 39 19 20 22 21 19 14 34 53 72 63 40 25 23 27 49 54 53 49 66 98 91 55 81 66 38 61 41 20 9 8 9 16 20 12 11 29 32 9 8 11 10 8 5 6 7 9 8 16 35 55 52 32 19 18 18 5 7 11 6 8 11 5 8 8 7 5 5 6 7 6 6 7 7 7 7 7 7 6 6 6 7 8 7 7 7 6 8 10 11 13 15 16 17 18 11 12 13 14 14 12 10 8 7 8 7 7 8 8 9 8 7 7 7 7 
6 5 5 6 6 5 6 6 5 6 5 5 6 5 5 6 5 6 5 6 6 6 6 5 7 7 7 7 6 6 6 6 6 8 7 7 8 13 16 16 8 10 21 36 41 36 33 38 45 52 53 45 39 48 71 90 106 106 104 99 84 62 66 93 78 65 55 58 61 54 42 35 29 39 41 39 51 68 75 76 70 55 49 50 66 114 170 190 221 234 226 213 205 176 157 162 151 138 158 144 122 143 160 152 144 154 182 222 245 246 235 228 202 180 124 48 16 10 6 10 7 21 33 41 46 31 16 16 34 58 85 103 118 116 99 88 91 98 95 90 87 80 79 89 73 73 64 44 28 18 10 5 6 5 14 22 14 10 23 39 66 54 36 24 30 42 34 20 26 42 53 45 38 39 43 44 46 50 47 64 82 92 102 75 56 55 42 30 27 12 5 12 8 8 15 23 27 37 38 27 23 17 10 7 5 5 5 4 10 23 38 34 17 6 4 6 4 6 5 4 5 7 9 8 6 7 6 7 7 6 7 7 7 7 6 7 7 7 6 7 6 6 7 7 7 7 6 6 7 6 7 8 6 8 11 13 12 9 10 14 16 13 13 14 11 9 8 7 7 8 7 5 6 5 5 5 
6 6 6 5 5 5 6 6 5 5 5 6 6 5 6 6 5 5 6 6 5 6 6 5 7 7 7 6 6 6 6 6 6 5 6 6 6 6 5 4 8 14 25 30 27 25 35 50 51 46 37 31 34 44 58 66 69 86 99 103 93 73 68 79 69 66 64 63 57 48 42 40 30 35 34 34 45 56 56 56 40 33 39 49 55 79 114 133 169 202 201 173 176 201 209 200 191 171 184 170 144 159 179 182 194 206 225 245 251 241 229 221 167 155 108 39 14 11 7 9 18 24 23 26 43 37 17 9 34 65 93 104 111 110 102 97 87 98 99 92 90 86 84 90 80 74 59 39 25 17 10 4 9 9 15 19 13 12 21 34 49 63 55 35 42 70 71 48 30 35 35 29 28 34 38 36 41 45 40 49 54 56 58 38 33 37 45 42 26 14 15 17 10 9 12 19 29 36 32 21 18 13 7 4 4 7 10 12 15 20 23 16 8 3 2 4 6 6 7 6 7 10 13 13 6 6 6 6 7 7 6 7 7 7 7 7 6 7 7 6 6 6 6 7 7 7 7 7 8 8 9 8 9 9 10 11 14 12 14 17 17 13 13 15 15 13 9 8 7 7 6 6 7 6 6 6 
5 5 5 6 6 5 6 6 6 5 6 5 6 6 6 5 6 6 5 6 6 6 5 5 7 6 6 7 6 6 5 6 6 6 6 6 6 3 3 6 22 27 28 22 16 18 31 44 43 35 27 30 44 61 64 61 59 66 64 53 50 51 60 75 62 60 60 56 48 40 37 38 31 29 26 30 46 51 47 47 41 43 62 77 69 61 67 70 102 146 155 111 100 149 186 171 183 153 157 156 157 173 167 157 193 214 234 239 233 220 202 187 150 133 85 26 10 13 10 10 30 38 31 27 36 31 15 11 33 68 98 103 103 102 98 99 92 109 107 96 93 92 86 87 81 72 54 35 24 17 11 6 11 15 16 16 15 12 13 21 49 75 81 61 62 92 105 90 50 44 40 37 39 41 42 44 48 47 38 34 30 30 36 26 28 25 34 33 18 19 27 24 25 24 19 15 15 12 10 8 13 9 6 5 7 11 16 20 13 11 8 6 3 3 5 7 7 8 8 8 7 10 14 15 6 6 7 6 6 6 7 7 6 6 7 7 6 6 7 7 6 6 6 6 7 7 7 7 8 8 9 10 10 12 12 12 13 13 16 20 19 16 15 18 18 18 17 14 11 8 7 7 9 8 8 8 
6 5 6 5 6 6 5 6 6 5 5 6 6 6 6 5 6 6 5 5 6 6 5 5 6 6 7 7 6 6 6 6 7 5 5 7 7 8 12 21 32 27 18 14 19 33 40 39 35 33 34 47 66 79 72 60 53 54 48 43 44 48 61 82 65 63 58 53 47 41 39 38 41 31 23 29 43 47 42 42 46 52 73 85 72 61 59 53 78 113 131 93 61 85 125 128 89 90 108 116 131 153 140 126 129 153 174 182 185 179 161 140 131 98 53 15 9 14 13 17 32 45 44 40 39 25 14 18 33 66 94 96 93 92 89 88 100 116 112 94 91 91 83 75 73 63 48 32 21 16 12 9 12 16 19 23 27 18 11 16 44 55 70 79 74 70 78 91 89 87 103 125 118 88 79 90 73 68 51 37 27 28 36 38 43 30 25 25 31 45 52 39 23 22 12 8 12 14 12 15 9 8 8 8 11 13 14 16 9 7 5 4 6 7 7 6 7 8 8 7 6 7 10 10 6 6 6 6 6 6 7 6 6 6 6 6 6 6 6 6 7 7 6 7 7 7 7 7 7 8 8 10 12 14 16 16 16 15 18 22 22 18 17 17 17 21 25 23 16 11 8 7 8 7 7 6 
6 6 6 5 6 6 6 6 6 5 6 6 6 6 6 5 6 5 6 6 5 6 6 6 6 6 6 5 6 6 5 5 6 5 5 7 7 8 14 23 18 14 8 11 29 53 57 45 32 38 46 53 59 58 47 37 28 39 57 82 93 78 70 80 79 86 87 80 68 57 53 53 56 41 26 26 35 34 28 32 51 57 71 74 72 85 94 83 60 67 85 76 49 49 73 92 82 113 133 101 79 85 83 89 97 106 111 117 127 138 129 113 97 58 28 13 14 18 16 27 31 42 46 52 52 28 14 21 43 65 79 80 81 81 76 79 92 102 94 81 83 85 75 66 63 57 45 29 18 12 11 10 10 15 20 33 41 26 16 21 25 17 27 55 54 33 39 72 84 86 116 149 120 62 49 69 72 74 70 54 42 39 41 47 58 49 32 36 65 83 70 58 38 27 12 14 34 35 18 10 11 11 11 10 10 10 9 8 8 7 6 6 8 7 6 4 6 6 6 6 7 6 5 6 6 6 5 6 6 6 7 7 6 6 6 6 7 6 7 7 7 7 7 7 6 7 7 7 6 6 7 9 11 13 17 18 23 21 21 24 24 21 17 15 13 20 25 23 15 8 7 8 7 6 6 6 
5 6 6 6 5 6 6 6 5 5 6 5 5 5 6 6 6 6 6 6 5 6 6 6 5 5 5 6 5 6 5 5 7 6 8 9 8 6 7 11 12 10 10 13 25 39 41 34 25 32 39 38 35 29 25 21 18 25 40 68 80 65 57 68 90 108 123 114 89 72 65 65 54 41 26 23 26 26 22 26 30 36 47 46 48 63 66 48 48 37 41 53 47 39 47 65 116 144 139 90 68 72 72 87 114 100 84 82 99 116 115 106 84 48 28 23 25 21 17 32 38 58 70 68 53 22 13 24 50 56 59 63 71 71 69 74 74 79 73 70 81 86 74 63 64 56 43 30 18 12 10 9 11 13 18 27 31 24 18 21 23 10 9 25 30 25 43 85 123 101 97 98 64 26 21 40 36 47 66 64 56 52 45 52 64 61 41 37 60 65 52 54 51 41 35 41 53 41 17 6 17 14 11 9 9 7 7 6 6 6 6 6 6 6 6 6 6 5 6 7 7 6 6 6 6 6 6 5 6 6 7 7 6 6 6 6 6 6 6 6 6 7 6 7 7 7 7 7 6 7 6 7 8 11 13 15 21 20 20 23 25 24 20 17 13 16 17 14 9 5 6 8 7 7 6 6 
6 5 5 6 6 5 6 5 6 6 5 6 6 6 6 6 6 5 6 5 6 6 5 5 5 6 5 6 5 5 6 6 6 9 10 9 8 7 6 7 13 15 17 17 20 23 25 26 30 35 37 35 32 30 30 29 32 32 32 38 46 46 53 71 91 102 107 97 80 66 56 51 37 35 26 22 23 24 24 28 29 33 41 43 42 48 45 29 58 49 44 49 55 54 59 76 84 93 90 78 101 115 107 126 120 94 75 79 101 115 108 97 93 61 42 31 26 19 19 40 59 91 94 71 46 23 16 27 40 41 46 61 78 76 72 80 73 73 69 76 96 98 81 70 69 55 39 26 19 12 9 8 11 11 12 11 13 22 31 31 35 30 32 40 49 55 74 94 99 61 32 23 15 8 7 10 14 23 45 48 48 50 45 61 63 56 47 42 40 36 32 36 32 32 37 39 31 24 21 19 17 13 9 7 7 7 7 6 4 5 5 5 4 5 6 7 5 5 5 7 7 6 5 6 5 6 6 5 6 6 6 7 7 6 6 7 6 6 6 6 7 7 7 6 7 7 7 6 6 7 7 8 8 8 10 12 17 18 22 22 22 21 20 20 16 14 12 10 9 8 8 8 8 7 7 7 
6 6 6 6 5 5 6 5 6 6 6 6 6 5 6 5 6 6 5 6 6 5 6 6 6 5 5 5 5 5 5 6 5 8 8 5 5 7 10 11 9 11 16 19 22 26 33 38 52 53 53 49 48 48 47 43 49 56 58 60 68 72 74 83 90 81 69 60 58 53 41 28 27 31 28 22 23 23 22 26 27 22 24 28 29 39 47 42 56 64 52 42 47 57 69 87 74 81 88 96 121 114 87 104 99 77 68 87 115 121 102 84 95 71 48 27 18 16 23 53 80 102 84 55 46 37 26 25 28 30 41 69 93 89 80 89 88 81 77 91 116 114 91 77 71 52 32 22 17 12 9 6 9 10 9 3 5 30 61 59 37 61 86 98 102 102 87 70 46 24 7 7 19 29 20 6 16 21 33 29 31 39 43 69 57 48 60 68 49 37 35 28 45 31 24 16 6 4 10 13 12 8 7 6 7 7 7 6 7 7 6 6 5 4 4 4 6 5 5 6 5 3 4 6 5 6 6 5 5 7 6 7 7 7 7 6 6 6 6 6 7 7 7 7 7 7 6 6 5 7 8 9 8 9 10 12 20 25 27 24 20 16 17 17 21 16 11 11 14 13 11 8 10 10 9 9 
6 5 5 6 6 5 6 6 6 6 5 6 5 6 6 5 6 6 5 5 6 6 6 5 5 6 6 6 7 7 6 6 6 5 5 6 7 6 7 6 7 7 12 21 32 42 50 55 68 64 62 65 66 63 59 58 50 54 65 81 94 96 86 77 72 58 51 53 53 49 42 39 34 52 36 27 25 17 20 20 20 22 22 18 23 40 48 38 36 50 59 45 37 67 99 93 107 59 95 115 98 70 82 107 115 78 87 117 140 89 71 74 70 73 48 24 26 22 26 76 89 92 72 63 76 59 36 36 24 22 45 83 93 91 99 103 107 95 90 110 111 95 86 67 61 38 19 14 13 9 6 6 10 10 5 3 13 74 122 99 73 85 125 152 127 91 68 54 50 13 11 10 53 21 22 18 18 31 43 60 60 34 31 63 57 45 59 79 70 60 53 39 35 21 9 3 2 4 9 10 5 5 4 6 7 6 7 8 8 7 7 8 9 8 6 3 4 3 2 2 4 4 5 6 1 5 7 6 6 6 6 6 7 7 8 7 6 6 6 7 7 6 6 6 6 7 8 8 6 7 8 8 7 8 12 16 30 37 40 33 23 18 15 15 17 17 17 15 13 11 9 8 8 8 8 8 
5 6 5 6 6 6 6 6 5 6 5 5 6 6 5 6 6 5 6 6 6 6 6 6 6 5 6 6 6 7 6 6 7 6 6 7 6 4 4 6 7 10 9 8 11 22 40 53 47 54 63 69 67 60 59 60 63 53 41 35 38 46 52 55 69 70 70 72 73 67 53 39 64 76 58 50 44 27 23 23 38 38 34 31 37 47 47 40 37 42 54 52 38 47 74 90 84 44 61 70 74 67 85 108 105 97 128 170 173 123 94 84 85 52 28 37 63 55 48 85 107 113 113 114 105 69 42 41 32 29 47 85 113 124 125 124 117 102 87 87 69 47 39 26 2 1 2 2 2 2 7 12 3 3 3 7 43 142 203 173 129 123 126 129 88 28 15 36 65 46 35 31 72 82 98 101 102 106 115 137 141 108 96 122 108 96 101 87 44 21 16 13 4 3 11 22 34 51 65 65 74 69 63 58 52 45 39 36 44 46 50 59 65 67 60 55 28 25 20 14 10 6 4 2 7 8 7 6 4 6 5 5 6 7 6 7 6 7 7 8 7 6 7 6 7 7 7 7 5 6 7 8 7 7 10 13 25 31 33 28 22 19 17 17 16 15 12 11 11 9 8 7 8 7 6 7 
5 6 6 5 6 6 5 6 5 6 5 5 6 6 6 5 6 6 6 5 5 6 5 6 5 5 6 6 6 7 6 6 6 7 6 6 5 4 5 5 2 8 9 6 8 17 26 27 33 43 52 49 35 26 24 27 28 42 63 77 81 78 76 77 101 103 94 83 86 97 99 91 56 62 50 53 64 62 71 84 70 63 44 34 38 37 34 36 33 34 42 40 27 28 50 72 63 53 67 66 73 77 91 108 91 97 129 156 120 101 95 94 60 42 39 61 77 68 76 109 113 125 151 156 111 58 34 30 25 21 22 40 68 72 55 47 50 45 37 35 25 15 15 9 13 13 10 8 6 6 6 5 9 5 2 12 63 155 190 154 133 119 103 114 114 68 66 132 158 174 144 113 117 149 165 175 159 137 130 146 154 143 139 151 119 107 108 88 51 43 62 70 62 61 69 77 76 74 71 60 44 39 33 26 21 14 9 7 3 4 7 10 14 15 13 10 15 14 14 14 14 13 15 16 12 12 10 6 4 5 6 7 6 6 7 7 6 7 8 8 7 7 7 7 7 7 7 6 5 6 7 8 8 7 9 10 17 22 24 24 23 21 18 15 13 10 8 7 8 8 8 7 8 8 6 7 
6 6 5 6 6 6 5 6 5 5 5 5 6 5 5 6 5 6 6 6 6 5 6 6 6 5 6 6 6 6 6 6 6 6 6 6 6 5 8 9 10 14 18 23 31 34 28 20 37 45 48 38 24 17 20 26 45 64 83 81 62 53 59 70 88 107 124 127 121 111 94 79 63 65 53 49 54 58 68 80 67 58 37 27 28 22 17 24 19 25 33 32 28 33 44 50 49 77 93 79 75 76 85 104 124 106 103 108 69 74 84 85 44 67 90 100 89 91 125 137 101 117 156 151 84 39 25 15 19 20 18 29 51 47 29 23 12 14 16 23 22 21 27 20 16 13 9 6 7 9 8 6 10 3 4 29 95 164 171 141 149 146 126 123 129 113 121 167 193 209 175 130 109 116 130 155 141 122 123 137 139 133 138 143 118 107 113 111 91 92 97 86 63 53 46 40 31 27 25 20 17 15 12 10 8 4 3 3 4 3 3 2 4 4 3 3 4 5 6 7 8 10 12 14 13 11 9 7 5 5 6 6 7 7 7 7 7 6 6 7 7 7 7 7 7 7 7 6 5 5 6 6 6 6 7 10 11 14 18 22 22 21 14 9 7 8 9 8 7 6 7 9 8 7 8 9 
5 6 6 6 6 5 6 6 5 5 5 6 6 6 6 5 5 5 6 5 6 5 6 5 6 5 6 6 6 7 6 5 7 6 6 6 6 7 10 14 21 18 18 23 27 26 24 25 25 31 35 32 28 31 40 48 81 85 79 60 41 37 49 64 108 122 141 146 126 97 78 73 82 87 80 61 55 52 46 46 33 31 22 20 25 22 20 28 17 22 29 42 52 52 44 38 51 97 106 89 82 90 102 119 143 105 86 94 67 79 81 73 76 101 111 124 117 127 148 105 83 106 153 139 71 41 33 16 6 10 12 18 28 23 13 12 13 18 21 29 30 30 31 18 4 7 7 5 3 5 8 9 0 0 13 69 148 177 161 143 116 134 158 160 149 153 177 195 210 166 128 101 107 86 96 122 114 121 142 147 125 103 96 93 83 72 77 79 72 77 73 46 21 14 10 6 3 4 5 4 9 7 6 7 6 7 7 7 10 10 9 8 6 7 7 7 7 7 7 7 5 5 5 6 7 7 7 7 6 4 5 6 7 7 7 7 6 7 7 6 6 7 6 7 8 8 8 7 6 6 6 5 5 5 7 9 11 13 16 18 20 19 13 8 7 11 14 12 9 6 7 8 7 7 8 9 
5 5 6 5 5 6 6 6 6 6 6 5 6 6 6 6 6 6 5 6 6 5 6 5 6 6 6 6 6 6 6 6 7 7 6 6 6 8 11 14 12 8 8 8 6 4 9 20 37 43 49 52 56 63 68 69 60 54 51 56 69 87 102 110 146 140 133 125 109 95 100 111 120 114 98 63 42 35 22 21 21 18 15 17 26 40 50 57 42 30 27 43 57 44 33 39 48 87 91 96 101 115 119 121 99 87 90 95 77 90 112 119 138 131 109 133 134 126 128 69 85 112 162 150 90 70 61 32 8 8 10 14 16 12 10 12 17 23 23 28 28 27 24 10 12 11 11 9 7 6 4 3 0 12 50 122 178 163 131 126 133 146 184 209 200 195 193 176 160 86 62 64 112 70 57 54 102 125 137 115 78 52 46 51 42 44 55 55 44 47 39 16 10 8 9 12 13 16 21 18 9 8 6 6 7 8 8 9 6 7 8 8 7 5 5 4 6 6 6 7 6 6 7 6 4 4 6 7 7 5 5 6 6 6 6 7 7 7 7 6 6 6 6 6 7 8 8 8 7 6 5 6 5 6 7 9 15 16 15 15 17 19 18 15 13 17 20 18 11 6 7 9 7 7 8 9 
5 6 5 6 6 5 6 6 6 6 6 6 6 6 6 5 5 5 6 5 6 5 5 6 5 5 6 6 6 7 6 5 7 6 5 6 6 7 9 10 6 7 8 7 4 3 9 20 36 40 43 44 47 50 45 38 40 30 23 31 57 92 119 129 124 124 123 122 120 114 108 104 82 62 54 38 33 34 29 37 25 20 22 28 38 61 68 53 50 39 27 31 39 29 28 41 44 69 65 86 92 102 101 95 81 93 105 92 91 112 153 169 159 152 114 130 120 105 132 100 123 146 190 184 128 108 94 62 25 12 7 9 9 8 11 15 18 24 22 24 23 28 29 14 7 4 3 6 8 8 6 5 20 59 119 168 180 152 132 145 146 163 186 208 222 205 160 127 92 49 44 63 136 101 67 42 61 80 72 44 25 14 17 32 42 62 98 109 98 100 87 52 21 17 16 15 12 11 9 5 10 8 6 5 5 5 6 7 7 8 9 11 11 10 9 9 9 8 8 7 6 6 5 5 6 6 7 7 8 6 6 8 8 7 6 7 6 7 7 7 6 6 6 7 7 8 8 8 7 7 6 6 6 6 7 8 13 14 16 18 19 23 24 22 21 21 21 17 12 9 8 10 9 8 8 8 
6 5 6 6 5 5 6 6 5 6 5 5 6 6 6 6 5 5 6 6 6 6 5 5 5 5 6 6 6 7 6 6 6 6 6 7 6 5 5 5 6 7 7 6 7 11 17 20 25 29 32 33 39 41 35 27 19 22 34 56 85 109 117 118 164 148 119 100 103 122 127 120 87 56 51 47 44 39 27 37 26 24 38 51 57 69 53 17 25 35 31 26 31 33 33 43 68 81 62 78 74 82 92 94 103 105 98 73 102 131 148 127 121 133 94 96 86 90 158 152 174 186 219 213 161 133 116 86 86 40 18 12 5 2 4 6 12 17 14 12 11 16 21 10 6 6 9 8 5 1 5 13 54 119 175 174 150 126 126 151 167 227 233 214 219 190 128 98 81 62 60 77 139 124 87 52 67 91 82 55 46 45 56 84 109 110 106 76 47 49 46 25 18 12 11 11 10 14 15 12 11 8 6 4 3 1 1 1 0 0 1 3 5 8 8 8 9 9 8 8 8 8 7 7 8 6 6 6 6 5 6 9 9 8 7 6 6 6 6 6 7 6 7 6 7 7 7 8 7 7 6 7 7 6 7 8 8 12 17 20 24 27 28 27 26 23 19 14 12 10 11 12 11 8 7 7 
6 6 6 6 6 6 6 6 6 6 6 6 6 6 6 6 5 6 6 5 6 6 6 6 6 6 5 6 6 6 6 6 7 6 5 5 6 6 6 5 6 7 7 7 14 25 29 24 22 25 28 28 29 31 31 28 17 33 46 68 101 104 109 146 124 106 113 124 117 116 119 110 87 65 63 59 53 53 43 38 39 44 48 68 82 56 22 13 73 70 72 36 49 70 28 31 51 52 48 50 63 69 74 83 106 113 107 104 107 90 67 62 67 44 48 58 58 89 141 158 191 201 210 213 209 188 152 123 114 88 66 48 25 7 1 5 10 13 14 10 8 9 11 12 8 6 5 6 5 6 23 54 125 150 151 136 132 135 155 195 209 220 179 184 162 138 80 80 83 85 100 113 109 109 113 111 105 114 134 138 120 118 138 161 183 167 125 73 38 28 31 34 49 53 58 65 71 78 83 85 88 81 71 69 69 64 52 42 39 31 21 11 7 6 4 0 0 3 1 1 5 6 5 7 4 5 9 11 6 3 5 7 8 12 7 5 7 4 7 8 7 6 7 8 8 8 7 7 8 8 8 6 5 5 7 8 9 11 14 17 22 31 37 38 29 25 20 16 13 11 9 9 8 8 7 7 
6 6 6 6 6 6 6 6 6 6 6 6 6 6 6 6 5 5 5 6 5 6 6 6 6 5 5 6 5 6 6 6 6 6 6 5 5 5 6 5 4 8 12 14 19 24 23 20 21 22 23 25 30 38 43 43 35 59 75 90 108 96 82 95 86 76 87 100 94 89 88 77 73 60 61 48 37 38 34 35 31 41 57 65 48 22 16 28 83 93 125 106 106 91 31 32 35 43 46 53 67 74 76 78 91 103 89 61 41 29 26 33 21 15 26 39 42 74 138 169 178 191 208 220 225 217 187 160 119 108 100 91 63 29 13 10 11 13 11 9 7 7 7 5 7 5 6 9 4 7 34 83 155 164 164 158 156 158 176 201 208 199 148 144 124 108 79 102 118 124 144 145 116 97 103 114 146 137 139 147 131 114 139 190 200 183 143 95 65 56 59 64 63 62 65 67 71 75 82 90 69 70 74 80 90 93 89 83 80 84 85 77 67 57 46 38 19 10 2 2 5 3 2 5 11 5 4 5 5 6 6 6 4 4 6 6 3 6 13 6 7 8 9 8 7 6 5 6 4 6 6 7 6 6 6 8 8 10 13 15 20 26 29 29 24 22 19 16 13 11 8 7 8 7 7 6 
6 6 6 6 6 6 6 6 6 6 6 6 6 5 5 6 6 6 6 6 6 6 5 6 5 5 6 6 6 6 6 6 6 5 6 6 6 6 6 7 10 12 16 18 17 14 13 12 15 21 29 33 37 44 54 61 52 68 71 76 86 77 62 64 81 70 71 72 64 63 66 59 43 35 38 31 30 44 48 53 44 37 38 34 16 8 22 50 95 106 142 124 102 70 34 54 87 85 63 43 47 66 86 99 84 92 72 38 20 14 22 41 18 23 49 67 62 84 135 163 185 198 215 230 241 239 218 198 157 120 97 102 104 74 32 11 17 14 12 10 8 9 9 7 7 8 10 7 3 18 80 157 212 192 180 177 171 177 193 203 204 183 140 136 123 111 103 135 147 148 158 156 129 114 131 155 150 141 127 124 113 86 89 129 134 135 132 119 98 76 56 43 26 23 23 25 23 20 21 24 24 20 18 18 22 28 35 40 43 58 80 97 114 129 143 150 97 81 50 25 12 3 0 0 0 0 6 11 12 11 12 11 9 7 13 15 3 3 10 3 6 7 7 8 7 7 6 6 7 7 8 7 7 6 6 6 6 9 11 13 15 16 16 16 12 13 13 13 12 10 9 8 7 7 7 7 
6 6 6 6 6 6 6 6 6 5 6 6 6 6 6 6 7 6 6 6 6 6 6 6 5 5 5 5 5 6 6 6 5 6 6 6 6 6 7 8 14 14 14 13 10 8 10 15 25 39 50 45 33 30 35 44 60 52 37 36 46 55 67 89 92 82 77 68 60 60 62 56 35 29 37 41 53 72 67 57 37 14 6 10 21 54 107 140 128 127 128 82 43 25 19 50 104 125 120 92 79 72 60 51 56 48 30 17 12 10 15 32 37 54 101 138 142 159 195 209 206 214 221 227 236 239 230 218 210 155 108 103 111 94 49 19 16 14 10 6 5 6 8 8 8 10 8 1 5 51 153 221 196 161 146 143 140 151 171 174 177 162 142 145 146 140 131 141 151 155 174 190 190 198 208 210 188 185 146 116 107 83 60 63 55 41 26 17 12 8 5 1 3 1 1 1 2 2 4 7 3 3 3 3 2 2 1 1 1 1 2 2 4 15 31 45 94 153 213 237 238 193 117 65 8 4 0 1 1 2 4 2 4 3 14 28 15 2 3 9 6 5 5 6 7 7 6 5 8 8 6 5 5 6 7 8 9 10 12 13 13 12 10 8 8 10 10 10 10 9 9 8 6 7 7 6 
6 6 6 6 6 6 6 6 6 6 6 6 6 6 6 6 6 6 6 6 5 6 6 6 5 6 5 5 5 5 6 6 6 6 6 5 5 7 9 12 11 10 9 9 9 12 21 30 56 57 50 32 17 12 14 17 18 24 37 55 59 48 50 66 76 80 84 80 72 72 69 57 40 39 56 65 70 72 48 30 10 12 29 61 98 133 129 96 79 78 72 46 33 37 47 70 66 87 88 72 74 93 106 112 75 59 46 53 59 46 46 67 103 117 150 180 188 202 218 222 221 224 223 220 224 233 233 227 230 213 183 146 112 77 45 26 12 11 11 9 6 6 7 9 9 6 1 1 27 116 204 218 194 172 172 179 180 199 222 219 227 215 211 205 216 222 217 192 186 191 197 188 166 149 122 89 98 94 70 67 89 86 65 61 48 48 57 75 90 86 68 52 46 40 29 17 11 7 3 2 2 2 8 14 15 11 8 7 4 5 5 3 2 2 3 3 1 8 9 11 34 88 144 176 191 143 81 29 5 2 2 5 1 2 10 35 45 13 1 7 9 6 4 5 7 9 7 4 6 6 6 6 7 9 10 11 14 15 15 16 15 14 12 10 14 14 13 12 9 7 6 6 6 6 7 8 
6 6 6 6 6 6 6 6 6 6 6 6 6 6 6 5 6 6 6 6 6 6 7 7 5 6 6 6 6 6 6 6 5 6 6 5 5 7 9 12 9 9 9 10 14 22 31 37 52 38 23 13 13 20 25 25 29 25 26 26 21 22 45 79 61 73 82 79 77 83 82 70 56 55 73 78 71 66 51 44 71 87 101 100 98 102 88 61 47 43 40 41 50 63 68 65 72 92 91 80 85 98 104 104 71 68 78 107 122 103 102 136 187 176 167 160 162 175 194 203 237 239 234 224 220 227 227 222 222 227 216 182 138 90 40 12 7 6 8 9 9 8 8 9 7 1 2 29 107 202 229 199 172 180 192 198 202 215 221 212 225 210 212 184 184 195 213 183 169 162 151 127 103 98 91 75 64 55 50 69 88 70 47 45 45 39 41 56 79 98 104 102 100 104 103 93 82 70 52 39 20 12 5 2 2 1 6 10 9 9 7 6 6 6 5 5 1 4 3 2 2 6 17 33 65 97 133 119 69 27 10 4 4 3 3 23 59 33 1 4 10 7 5 8 13 16 15 13 12 12 12 13 14 14 13 13 14 13 13 14 14 13 13 14 16 16 13 12 9 7 7 6 6 6 6 8 
6 6 6 6 6 6 5 6 6 6 5 6 5 6 6 6 6 5 6 6 7 7 7 7 6 6 6 6 6 6 6 5 5 6 5 6 5 6 8 9 9 9 9 10 17 29 32 30 28 24 21 25 40 56 58 52 42 31 22 18 20 35 55 66 71 88 96 90 88 97 97 84 81 69 82 87 84 86 83 90 104 120 116 95 82 75 59 48 20 19 29 57 77 83 94 95 91 98 92 88 104 118 116 110 99 115 140 169 181 163 164 196 175 165 145 130 130 152 184 209 225 232 234 229 226 226 222 214 208 208 197 191 186 153 84 32 15 8 2 2 5 6 6 6 4 2 23 99 197 232 211 187 187 208 209 192 194 201 196 183 201 195 215 174 152 145 186 176 135 113 96 84 73 73 81 84 48 48 60 82 86 68 62 69 46 34 21 17 24 39 55 63 63 76 91 104 113 119 117 113 86 59 32 17 8 3 1 1 3 4 5 6 7 7 7 6 11 14 9 2 1 2 1 1 1 8 34 85 133 136 86 41 19 8 1 9 37 39 15 12 12 11 10 13 18 24 27 28 22 19 16 14 13 12 12 11 10 8 7 9 9 10 12 16 15 14 13 12 11 9 9 9 7 7 7 7 
6 6 6 6 6 6 6 6 6 6 6 5 6 6 6 5 6 6 6 7 7 7 7 8 6 6 7 6 6 6 6 6 6 5 7 6 6 5 6 6 7 9 6 7 17 30 30 22 25 34 50 68 81 83 68 56 55 39 28 29 51 88 89 59 88 113 130 122 118 116 102 82 79 61 71 86 89 85 72 73 84 80 58 44 46 39 23 14 25 31 55 101 100 77 89 103 98 96 84 86 115 135 129 118 147 173 189 191 187 165 155 166 164 165 150 126 114 121 144 170 191 206 220 226 229 231 226 216 195 206 210 208 217 215 170 120 59 30 8 2 5 8 9 7 2 12 59 160 224 199 165 165 162 184 164 130 132 142 137 131 154 158 204 165 122 99 144 150 114 90 93 119 126 117 114 113 71 84 96 88 72 78 102 119 79 60 32 12 3 1 1 2 2 2 5 8 17 33 54 73 108 108 117 128 111 63 23 6 1 0 1 1 2 4 6 8 2 19 20 5 5 13 11 3 3 1 0 0 10 42 96 135 87 46 18 11 17 24 17 14 17 18 18 17 20 23 26 30 21 15 9 6 5 7 8 9 9 7 5 7 8 9 13 18 19 18 17 16 15 13 11 10 8 8 8 7 
5 5 5 6 6 6 6 6 6 6 6 6 6 6 6 6 6 6 6 6 6 5 6 6 6 7 6 6 6 5 5 5 3 3 4 5 5 6 7 7 8 3 4 12 23 25 23 21 32 33 40 51 55 45 32 23 23 28 44 64 62 51 54 69 99 100 103 105 100 90 81 80 73 68 76 85 67 51 47 49 45 38 35 36 38 37 34 30 47 52 67 84 63 74 67 84 78 78 94 121 143 152 158 164 174 174 192 207 194 162 141 141 131 127 109 95 105 133 144 133 159 180 196 197 199 210 216 213 207 217 220 212 207 207 195 182 143 117 73 13 3 2 12 7 4 32 98 157 147 103 91 104 100 92 78 80 114 161 169 148 152 166 221 197 131 120 126 133 117 109 107 103 100 113 127 125 119 126 94 105 102 97 75 88 95 93 97 89 63 38 18 5 8 5 7 11 9 3 3 5 4 16 31 47 81 121 124 99 84 51 18 4 0 3 3 2 3 37 21 3 5 6 1 11 6 9 8 4 2 2 10 26 78 102 79 41 15 42 15 2 7 9 18 17 12 21 28 17 24 24 19 14 9 9 8 6 9 9 10 10 11 15 18 20 25 24 25 24 21 16 11 8 6 7 8 6 
6 6 6 6 6 6 5 6 5 6 5 6 6 6 6 6 5 5 5 5 5 5 5 5 6 6 6 6 5 5 5 5 4 5 5 5 6 6 7 7 8 4 5 11 19 20 20 19 20 21 23 23 19 15 16 18 28 38 49 52 46 47 63 83 64 79 94 99 93 88 89 94 76 58 44 36 33 39 48 47 44 46 54 63 64 56 53 55 56 63 75 84 62 79 75 87 99 106 122 142 157 162 164 165 171 171 178 182 172 157 154 160 127 132 125 113 120 142 152 147 156 168 177 182 194 216 229 228 237 230 215 200 188 184 178 172 169 158 126 47 13 2 4 3 10 38 88 109 86 57 56 71 102 72 55 75 129 168 151 117 122 142 206 196 147 141 148 157 169 152 135 120 118 133 137 125 91 117 114 114 85 96 90 83 86 74 71 100 144 134 95 82 26 10 1 1 4 6 7 9 7 4 2 5 10 22 41 61 109 140 160 125 58 14 1 0 1 17 25 12 5 7 10 2 5 6 8 8 9 5 2 3 12 43 92 112 72 50 9 2 3 7 7 10 16 9 7 22 24 26 26 24 20 17 13 10 11 12 14 16 19 20 20 21 20 19 17 15 12 8 6 4 7 9 8 7 
6 6 6 6 6 6 6 6 6 6 5 5 5 6 6 6 5 5 5 5 5 5 5 5 6 6 6 6 6 5 6 6 6 5 6 6 6 7 7 6 6 5 6 10 13 14 15 16 24 27 31 27 19 13 16 22 34 45 52 51 49 53 63 70 54 74 96 101 98 102 103 98 85 66 50 45 45 55 65 66 61 65 76 85 75 60 59 67 59 68 72 73 57 88 93 104 95 106 121 134 147 160 167 168 147 158 174 187 182 159 130 108 131 143 144 138 143 162 173 172 183 190 194 197 213 233 240 239 224 229 235 232 208 170 137 121 119 131 143 84 38 6 8 10 20 50 82 77 55 46 54 68 102 78 74 106 148 159 142 123 116 130 182 187 164 169 168 176 186 172 154 138 130 135 128 110 120 121 126 124 59 45 45 54 68 76 63 41 53 103 140 141 151 121 72 28 7 2 2 2 9 5 3 4 4 2 3 8 14 41 91 143 180 172 112 61 19 5 2 2 1 3 13 9 4 4 5 7 10 9 7 6 7 11 26 60 119 146 65 9 0 9 13 16 20 14 14 33 22 25 27 27 26 23 18 15 8 8 9 10 12 12 12 11 11 10 8 7 6 6 6 6 7 9 9 9 
6 6 7 6 6 6 6 6 6 5 5 6 5 6 6 6 6 5 5 5 5 5 5 5 5 5 6 5 6 6 6 6 6 6 6 6 6 7 6 7 7 7 9 13 13 13 15 17 26 30 35 36 30 25 27 34 37 41 44 49 58 61 56 47 59 81 103 109 117 123 108 86 64 50 49 54 51 49 55 62 66 68 76 82 69 50 49 59 56 57 54 54 44 81 88 99 96 110 127 137 151 163 159 150 148 140 131 134 147 156 139 118 148 154 159 158 162 177 190 193 203 206 207 207 212 217 211 201 205 204 200 186 152 116 96 95 91 99 123 93 52 9 4 3 14 43 66 58 51 57 68 78 103 98 105 129 147 145 137 132 137 140 171 172 167 178 171 178 168 161 155 153 147 131 113 98 89 97 125 154 93 46 17 22 35 52 66 34 7 18 56 63 106 128 137 115 81 51 20 2 2 6 9 10 9 7 4 0 1 0 3 15 56 126 176 186 108 61 18 1 2 1 5 0 6 4 3 4 6 6 6 8 6 8 8 4 37 94 115 82 24 14 20 28 26 28 32 22 19 18 17 15 15 15 15 14 9 8 7 7 7 8 9 10 6 6 6 4 4 5 7 8 8 10 14 15 
6 6 6 6 6 6 6 6 6 5 6 5 5 6 6 6 5 6 6 5 4 5 5 5 5 6 5 6 5 6 6 6 6 6 6 6 6 7 6 6 7 9 13 17 18 18 20 24 26 24 26 28 32 35 39 44 34 31 33 44 55 56 49 43 59 88 116 126 133 128 99 68 67 55 48 45 43 50 59 59 35 41 60 78 76 59 51 56 48 42 40 44 37 63 61 67 95 103 111 122 134 143 130 113 113 117 121 132 156 178 177 162 169 172 177 180 183 186 187 185 198 204 206 204 201 200 195 188 193 193 191 175 140 107 94 98 88 75 85 72 58 17 8 2 11 40 64 64 67 76 85 90 100 95 92 103 128 143 131 112 139 148 174 167 161 163 154 176 154 136 126 137 142 119 87 70 48 72 88 103 93 80 37 49 33 28 42 67 45 7 1 3 14 34 65 97 131 137 89 41 10 4 2 2 5 5 6 9 7 5 3 1 0 4 33 76 183 206 143 48 9 1 3 5 12 9 8 9 7 4 4 6 2 6 11 1 1 6 54 105 89 37 19 25 33 36 28 12 13 11 8 7 7 7 8 10 10 8 7 7 7 8 9 8 5 5 6 6 6 7 8 10 14 15 17 18 
6 6 6 6 6 6 6 6 5 5 5 5 6 6 6 6 5 6 6 6 5 5 6 6 5 5 6 6 5 6 7 6 5 6 6 6 6 6 6 6 6 7 11 15 17 19 21 24 23 22 21 24 29 29 31 30 20 26 39 52 56 49 45 48 68 102 135 142 131 114 89 64 53 43 28 16 18 34 36 20 13 24 49 78 87 75 61 54 42 35 37 51 45 59 44 47 42 39 38 49 70 96 107 106 115 142 176 193 196 195 187 178 195 195 198 204 201 186 174 169 179 183 186 191 193 196 196 196 204 198 186 168 146 128 123 125 94 66 62 55 56 29 20 11 7 30 50 57 63 69 77 93 99 96 88 88 110 140 137 116 114 140 173 162 153 142 131 166 168 133 107 113 134 122 86 60 62 65 59 66 65 53 20 53 81 70 43 51 84 43 2 3 3 5 4 2 13 56 117 158 123 45 4 1 6 6 6 11 10 6 6 8 6 0 0 3 1 62 161 238 222 85 8 1 1 1 7 13 11 6 7 10 12 6 7 10 17 7 20 31 104 106 60 24 25 31 21 16 9 8 6 5 5 5 5 7 6 6 7 7 8 9 8 7 5 7 9 11 12 13 16 18 22 19 16 15 
7 6 6 6 6 6 6 6 5 5 5 5 5 5 5 5 5 5 6 6 6 5 6 5 6 6 6 6 6 6 6 6 6 6 7 8 8 8 8 8 6 6 7 9 11 14 16 15 14 14 17 18 17 14 15 19 26 42 58 61 54 49 49 49 81 101 119 116 110 105 95 84 71 52 38 32 33 35 27 14 19 29 46 60 66 63 54 46 43 35 37 54 45 53 34 35 37 34 41 63 101 142 172 189 192 200 203 192 179 177 193 207 205 201 200 201 188 167 157 158 155 155 157 166 174 176 171 167 206 171 127 101 101 116 129 135 104 76 66 48 43 18 11 4 0 7 15 24 37 42 57 86 106 112 105 96 104 127 138 131 105 127 150 144 147 131 107 133 168 151 121 110 135 149 123 93 76 51 56 99 100 57 2 7 19 57 77 91 144 145 57 5 1 5 12 10 2 1 8 24 122 192 165 42 1 0 7 0 11 10 7 7 6 6 4 1 6 4 1 16 122 190 143 65 5 1 0 8 9 6 7 8 9 15 14 15 19 16 20 11 46 108 104 39 14 13 11 9 8 7 7 7 7 5 5 7 7 7 7 9 11 12 11 10 9 12 15 16 17 17 20 22 20 15 11 11 
7 6 6 6 6 6 6 6 5 5 5 5 6 5 6 5 6 6 6 6 6 6 6 6 6 6 6 6 5 5 5 5 6 7 7 8 9 9 9 9 11 9 7 7 8 11 12 10 14 15 16 13 8 10 22 38 58 71 72 55 46 51 57 54 83 81 76 74 84 102 111 110 78 48 40 50 41 20 12 14 38 41 39 35 34 40 43 42 50 39 37 47 34 39 22 24 26 34 59 102 143 165 172 179 191 192 195 196 194 191 192 194 195 187 179 173 156 138 139 149 156 153 156 166 175 167 150 136 143 131 120 122 140 143 115 82 66 55 59 43 36 13 10 4 6 6 7 17 37 47 68 110 122 121 108 97 102 118 127 122 121 122 124 121 143 131 90 99 124 141 124 101 118 152 148 123 105 49 44 89 123 123 31 7 3 5 23 40 65 151 181 95 19 5 1 8 14 7 0 0 2 88 219 206 86 14 0 1 2 3 6 6 5 5 7 10 28 3 3 1 3 22 118 166 94 32 1 0 5 8 10 9 9 17 10 7 6 8 16 8 2 22 63 53 12 2 4 2 8 6 6 7 7 6 7 8 6 5 5 6 7 10 11 12 15 17 18 18 14 13 13 14 14 10 8 8 
6 6 6 7 6 6 6 5 5 5 6 6 6 6 6 6 7 6 7 7 6 6 6 6 6 6 6 6 6 5 5 6 6 6 7 7 8 10 11 12 13 10 11 17 20 18 17 19 17 20 18 10 11 25 55 80 89 77 64 62 68 70 59 46 58 61 74 90 94 92 102 120 92 53 47 43 28 13 35 41 50 34 23 29 51 68 57 38 41 33 29 28 23 19 20 25 41 68 97 120 143 157 165 178 181 189 194 189 186 187 191 193 188 177 165 156 146 141 147 157 166 160 159 167 178 174 162 153 131 123 141 167 159 124 90 68 69 52 42 43 34 18 7 2 3 16 10 11 12 26 48 101 107 112 105 114 104 105 132 113 110 130 116 99 118 133 114 92 105 113 113 84 112 114 133 136 132 59 36 86 98 115 137 42 8 1 2 8 12 47 130 198 139 33 0 1 2 11 11 2 0 3 54 177 198 107 40 16 2 3 1 10 9 5 3 9 30 6 4 5 1 1 12 64 181 135 49 2 0 5 12 9 9 10 8 7 10 8 6 5 2 1 7 25 27 9 2 6 8 6 7 9 9 8 6 7 6 8 7 5 6 6 9 12 16 14 12 9 7 7 10 11 9 9 7 7 
6 6 6 7 6 5 6 6 5 5 5 6 6 6 6 6 6 7 6 6 6 7 7 6 6 6 6 6 6 6 6 6 6 6 6 6 7 8 10 10 8 16 19 14 12 19 25 24 25 23 22 25 40 70 99 112 74 80 81 72 58 48 41 38 42 66 85 86 93 116 128 126 100 64 39 19 23 55 75 52 36 32 36 53 74 72 49 30 22 16 10 6 5 11 29 50 71 105 124 126 144 167 174 171 184 187 186 180 170 162 162 166 165 161 162 165 167 166 168 173 171 180 191 195 193 187 181 176 158 148 159 172 146 108 86 75 72 61 58 53 34 14 9 15 29 46 29 14 7 14 21 48 49 66 79 92 99 114 134 126 98 110 115 118 127 124 105 91 94 104 106 82 75 70 85 101 128 99 42 25 38 59 121 200 71 24 2 4 5 1 15 59 211 224 65 0 3 11 8 11 4 1 0 23 92 140 119 85 36 9 5 2 2 9 5 17 10 5 8 6 6 6 1 3 9 148 217 87 4 1 4 6 6 11 17 12 4 3 6 6 2 2 4 9 15 16 9 3 5 5 9 9 5 6 7 6 7 6 6 6 6 6 9 11 11 10 9 7 8 9 8 7 5 7 8 8 
6 6 6 5 6 6 6 6 6 6 6 6 6 6 6 6 6 6 6 6 6 7 7 7 5 6 6 6 6 6 6 6 6 6 6 6 6 6 8 8 9 15 15 9 11 20 18 10 7 9 18 35 57 72 72 70 70 72 66 50 39 41 51 59 71 91 101 103 123 147 137 104 79 35 22 28 55 104 84 58 48 51 57 62 52 30 12 4 3 6 11 18 28 41 54 63 68 100 110 100 117 153 163 153 169 166 166 168 159 149 150 156 173 175 180 188 191 187 182 178 167 190 206 201 185 182 182 184 166 157 161 155 123 97 89 88 79 74 66 47 21 7 9 20 26 35 23 12 10 19 15 18 11 27 53 61 63 69 81 113 104 99 93 91 106 126 120 92 92 104 101 84 57 60 58 53 61 106 90 30 13 11 23 91 169 104 26 4 7 6 1 1 31 151 134 41 0 2 8 10 15 10 0 1 16 59 77 62 93 84 37 0 4 0 1 7 10 8 13 7 7 8 0 2 0 13 79 179 95 20 2 2 7 7 10 11 8 6 5 5 4 6 4 1 7 18 18 9 1 2 8 10 4 5 8 6 5 7 6 7 7 9 12 14 10 8 6 8 10 10 9 6 10 12 13 12 
5 6 6 6 6 5 6 6 5 6 5 6 7 6 6 6 6 6 7 6 7 7 6 7 5 5 5 6 6 7 6 7 7 6 5 5 6 6 7 7 8 9 10 10 10 10 9 8 17 27 50 73 75 63 53 50 69 56 41 37 47 68 87 96 98 94 95 104 113 102 78 61 56 28 38 69 82 91 47 50 56 53 43 27 11 4 4 8 24 38 56 68 74 76 72 65 84 109 108 97 113 145 153 147 149 147 155 171 172 163 167 181 192 195 199 200 198 190 181 178 184 197 195 176 163 161 167 165 156 150 143 124 102 98 95 84 82 71 48 21 7 4 9 14 14 16 18 14 20 39 36 39 20 24 45 53 52 35 23 48 75 88 87 61 58 100 125 98 87 109 103 86 46 66 65 55 31 46 85 69 21 6 6 8 84 135 104 24 4 11 12 3 3 29 121 136 16 1 1 2 9 6 5 2 3 19 52 81 30 91 103 105 27 4 0 0 9 2 6 6 8 12 8 11 5 0 1 65 130 107 26 2 3 6 6 9 13 10 5 6 4 6 6 4 6 10 19 26 8 1 5 10 7 6 9 6 6 7 8 8 9 13 16 18 12 11 11 12 16 18 16 14 24 22 19 13 
5 6 7 6 6 6 5 6 6 6 6 6 5 6 6 6 7 7 7 7 7 7 7 7 6 6 6 6 6 7 7 6 7 5 5 5 6 7 7 8 4 8 12 11 7 8 20 36 53 71 86 82 67 58 57 58 60 55 52 61 82 101 104 97 85 82 86 89 74 53 50 61 68 67 82 75 56 56 24 33 29 26 19 14 17 30 48 64 88 94 92 75 61 62 72 79 111 122 116 109 119 131 137 142 148 149 163 183 188 180 186 201 188 191 196 193 190 189 190 192 203 193 171 151 147 155 156 150 152 150 133 106 96 106 96 64 67 41 16 6 7 14 19 21 22 16 26 24 37 66 86 108 71 59 63 64 76 59 17 10 20 45 72 54 30 44 85 104 75 96 99 86 36 46 63 84 58 21 34 79 49 14 13 8 4 57 124 84 16 1 7 12 2 24 41 79 90 54 2 2 4 8 8 1 0 3 20 70 47 13 24 108 145 65 13 3 1 2 8 6 7 11 7 8 10 6 1 3 31 123 113 20 1 4 10 12 8 6 7 9 7 6 7 8 5 1 10 27 27 6 1 7 9 7 7 7 6 8 9 9 10 12 15 18 20 19 18 20 25 27 28 28 25 21 15 10 
6 5 5 6 6 6 6 5 6 5 6 6 6 6 6 6 7 7 7 6 7 7 6 6 6 7 6 6 6 6 6 7 6 6 6 6 6 8 9 9 8 6 4 5 15 33 49 56 59 75 74 56 49 57 61 55 54 66 78 87 91 90 84 77 74 75 74 67 61 62 75 89 89 73 60 47 49 50 23 26 19 25 36 54 79 96 93 81 64 56 51 52 60 72 77 78 82 86 88 93 107 115 125 145 154 158 169 180 179 171 172 181 186 190 192 191 191 196 198 199 173 154 136 135 145 156 155 150 143 141 123 100 97 107 88 50 37 16 6 11 27 37 43 49 54 26 40 41 63 94 93 91 109 111 100 79 87 95 59 31 13 13 23 34 24 19 44 86 70 67 74 85 51 30 31 55 70 47 27 50 66 26 10 12 1 3 41 100 64 13 1 4 6 36 16 17 49 90 50 6 1 3 12 13 7 1 2 18 106 56 1 2 60 160 118 33 1 0 6 5 6 9 5 10 6 7 5 2 2 26 87 124 23 1 1 9 7 6 9 7 9 6 6 7 5 2 4 9 39 18 4 3 6 6 6 9 7 7 8 8 8 8 10 12 20 19 19 21 24 27 27 27 14 12 9 7 
5 5 6 5 6 6 6 6 6 5 6 5 6 6 6 6 7 6 6 7 7 6 7 7 7 7 6 6 6 6 6 6 6 6 5 6 6 6 8 9 11 3 2 13 36 49 41 32 45 46 42 36 41 51 55 50 48 59 67 67 64 64 69 72 71 63 53 47 54 68 74 71 68 42 27 39 70 51 33 45 51 62 81 97 96 78 51 34 23 24 37 61 85 87 72 61 58 65 71 83 97 105 122 149 152 158 162 164 161 161 164 170 182 183 183 183 188 192 184 172 138 130 130 146 159 157 150 148 124 119 115 104 92 87 67 41 21 17 26 48 64 61 66 75 81 45 69 67 89 107 73 41 90 121 126 110 96 104 118 102 58 36 21 21 19 13 21 48 55 40 43 54 59 26 16 20 41 61 46 27 48 50 27 32 20 1 3 44 80 50 13 1 28 34 13 2 2 29 71 74 17 0 0 8 9 8 1 1 29 128 105 3 1 54 125 149 52 10 0 0 8 11 5 10 4 16 12 5 1 1 30 106 93 24 0 2 10 10 8 6 7 8 7 5 6 6 5 1 23 31 16 1 3 7 6 8 6 7 8 7 7 8 8 10 16 16 16 20 24 25 21 16 9 8 9 9 
6 5 5 5 5 5 5 6 5 6 6 5 5 6 6 6 7 7 7 7 6 6 6 7 6 7 6 6 6 6 6 6 7 6 5 5 5 6 7 8 2 1 13 47 53 25 11 14 16 8 5 7 11 13 20 26 40 40 39 40 48 60 71 77 72 62 52 50 48 47 46 48 33 35 39 52 74 41 49 83 92 96 94 74 43 21 14 15 38 51 76 92 81 59 49 51 66 75 78 78 83 87 101 123 149 156 160 158 157 166 177 180 161 160 161 166 176 178 157 135 143 143 159 181 179 156 139 137 114 107 111 106 83 60 42 31 17 34 70 100 98 77 74 86 59 48 100 92 103 125 107 77 66 96 126 155 132 117 146 143 118 120 83 35 11 4 8 21 28 25 26 19 34 20 19 20 24 39 67 37 31 46 26 25 36 18 1 11 68 94 42 6 6 3 2 6 2 2 20 79 81 25 3 0 8 11 3 3 0 61 187 99 0 3 18 97 228 93 19 0 3 6 5 13 11 5 3 13 9 0 4 20 136 86 19 0 7 7 5 11 3 8 10 6 7 11 9 2 5 37 31 3 1 7 6 7 5 6 7 7 7 9 11 12 17 15 17 22 28 27 17 10 9 10 11 9 
6 6 7 7 6 6 6 6 6 5 6 6 6 6 6 6 7 7 7 7 7 6 6 6 7 6 7 6 6 6 6 6 4 5 5 6 7 6 5 4 3 12 33 28 6 3 15 22 10 5 4 10 13 19 34 52 69 67 65 68 80 94 87 71 51 53 61 68 61 48 41 41 31 41 50 57 67 85 105 115 101 83 61 41 27 26 45 73 92 99 92 66 49 49 58 67 84 77 70 73 86 109 132 144 143 158 162 159 168 183 185 173 175 161 160 170 170 172 169 157 164 166 162 152 142 134 123 115 104 104 87 63 39 21 25 50 41 61 112 113 102 82 101 106 75 87 110 115 118 152 166 129 116 95 92 122 151 147 127 115 109 121 177 119 58 11 6 11 31 30 29 23 22 23 24 23 17 17 44 78 46 35 45 15 22 42 18 0 7 80 96 32 1 3 9 12 8 3 0 12 66 87 39 2 1 6 15 5 1 1 52 144 84 3 1 0 20 169 180 39 3 0 6 7 6 9 7 2 11 9 4 0 25 126 92 5 1 3 7 7 3 6 7 7 6 7 7 7 2 16 29 19 6 2 5 7 6 7 8 7 7 8 11 14 12 15 22 24 23 17 11 7 9 8 8 6 
5 6 6 6 6 6 5 5 5 6 6 6 6 6 6 6 7 7 7 7 6 6 6 6 7 6 6 6 6 6 6 6 5 4 5 5 6 6 7 7 7 12 7 2 5 18 24 21 14 18 30 50 64 67 68 72 85 83 84 90 91 81 64 52 46 62 85 95 90 72 50 36 38 49 65 83 100 103 90 73 75 58 48 53 65 78 93 107 93 78 60 49 45 50 59 70 75 82 94 107 122 139 154 161 159 167 167 161 166 178 178 171 167 160 167 176 171 171 171 163 150 151 145 134 123 116 107 101 102 91 56 29 24 33 56 88 81 96 120 98 89 96 129 129 96 111 125 118 114 137 147 123 128 113 91 91 132 180 167 121 113 110 168 158 117 44 19 14 24 25 25 25 27 27 24 20 23 17 23 45 43 45 48 21 19 37 34 7 1 31 72 72 7 3 3 8 5 10 5 0 8 51 92 48 6 1 7 10 13 0 4 64 94 30 1 4 2 19 95 172 78 0 0 4 2 8 6 7 6 6 2 4 1 52 120 59 4 2 18 11 10 10 8 6 7 9 7 4 1 7 14 14 8 4 4 7 6 7 6 6 6 6 8 9 10 11 12 13 13 10 8 6 7 6 6 7 
6 5 6 6 6 6 5 5 6 6 6 6 6 6 6 6 6 7 7 6 6 6 7 6 6 6 6 6 6 6 6 6 5 5 5 4 5 7 8 10 8 7 2 2 27 39 25 19 30 37 50 66 77 75 65 57 57 56 62 66 59 45 41 47 67 97 117 102 76 60 52 44 61 76 88 86 78 74 70 68 79 68 70 88 104 98 82 72 55 46 45 54 63 69 80 90 97 114 135 147 151 157 161 166 170 169 166 165 168 170 167 160 159 158 170 176 168 165 168 163 148 147 140 125 116 108 100 93 83 56 23 20 49 85 102 110 125 135 136 101 98 128 163 146 123 131 122 96 93 124 157 168 137 143 114 81 100 163 193 170 160 125 146 159 170 125 77 49 32 29 25 25 30 32 26 20 24 22 13 19 35 44 45 36 13 17 42 29 10 3 25 69 56 6 0 3 11 5 7 3 1 6 53 119 45 1 2 7 11 7 0 5 58 56 11 1 0 2 8 93 185 98 16 1 1 7 6 6 4 8 7 6 1 0 56 129 51 2 12 19 20 15 9 4 3 6 7 6 5 3 5 9 10 7 5 7 6 6 6 6 5 6 8 8 10 10 8 7 6 7 8 8 8 8 7 8 
6 5 6 6 6 6 5 5 6 6 6 6 7 6 6 6 7 7 7 7 7 6 7 6 6 6 7 6 6 6 6 6 5 6 6 6 7 7 9 9 6 2 5 31 51 28 12 18 26 30 33 31 32 31 26 19 20 23 28 26 24 27 48 72 93 100 90 64 48 51 65 75 112 109 87 54 33 36 54 73 94 88 88 89 74 50 33 28 46 56 74 91 97 101 112 127 139 150 155 148 140 138 142 144 164 161 162 168 172 169 159 153 161 160 167 169 160 157 160 152 146 144 137 123 110 101 92 84 63 29 13 42 115 144 123 108 143 152 154 132 137 171 180 142 143 151 130 95 89 115 154 185 170 166 131 93 93 133 179 197 188 158 145 139 158 169 144 102 58 45 31 27 30 34 29 20 19 34 20 12 23 30 33 48 18 4 19 45 36 0 0 23 88 41 6 0 7 7 4 13 6 1 1 60 99 34 4 2 4 18 7 0 8 41 15 0 5 7 3 1 52 179 114 25 0 0 6 6 8 8 11 8 16 2 3 90 128 16 1 17 17 19 17 9 5 4 5 5 6 5 4 6 9 9 7 6 7 7 7 8 9 11 13 14 16 14 13 12 11 12 12 13 12 10 10 11 
5 6 6 6 6 6 6 6 6 6 6 6 6 6 6 6 6 6 6 6 6 6 6 6 6 6 6 6 6 6 6 6 5 6 8 9 8 7 7 7 5 2 15 37 25 6 5 13 17 24 29 29 31 37 38 35 25 27 26 22 28 47 71 87 72 57 44 48 65 84 93 92 73 60 42 36 49 76 97 105 81 72 60 49 34 26 32 45 77 94 107 104 100 105 117 127 136 142 135 121 115 122 132 137 160 156 159 170 176 177 171 166 171 163 163 161 153 155 152 139 130 130 124 113 100 89 76 67 43 26 35 96 154 135 116 135 158 157 159 162 168 197 183 140 148 164 158 133 118 119 130 143 209 177 136 111 117 138 153 155 144 150 145 141 129 137 129 104 67 53 36 28 31 32 28 20 16 43 36 13 15 16 17 39 45 8 1 26 37 9 0 2 30 76 41 3 0 11 7 8 7 8 1 1 47 87 43 0 4 5 11 7 5 9 18 9 2 11 3 4 2 32 119 135 19 3 0 6 13 7 7 11 12 16 1 17 98 87 2 5 10 18 24 24 19 13 7 3 6 6 5 5 6 9 8 6 7 7 9 10 12 15 18 20 17 18 19 19 18 16 14 13 14 12 10 11 
5 6 5 6 6 5 6 5 6 6 6 6 7 6 6 6 6 6 6 6 6 6 6 6 6 6 6 6 6 6 5 6 4 7 9 9 9 7 6 6 6 9 22 19 4 2 7 4 3 8 12 16 23 37 51 58 53 49 41 39 51 68 67 57 45 50 64 87 103 103 90 79 60 61 66 78 94 99 85 65 65 53 43 38 38 45 65 89 98 108 111 108 111 120 121 113 95 106 113 110 115 134 151 159 158 159 162 167 176 185 188 184 177 166 161 157 153 157 151 133 120 123 118 108 96 84 73 64 20 42 95 153 152 108 119 188 181 168 157 169 171 198 185 153 145 152 157 149 138 140 148 152 185 184 167 140 129 132 129 118 115 109 98 128 118 109 93 79 50 43 33 28 30 31 26 19 16 40 43 15 10 10 8 18 50 23 2 6 18 21 11 1 1 30 60 33 5 1 9 5 6 8 11 0 3 57 95 22 1 3 5 13 1 19 43 27 1 5 12 10 0 2 31 108 107 37 0 1 9 9 4 10 6 12 9 2 36 151 10 6 11 15 19 22 25 25 22 16 7 5 3 4 5 6 7 8 6 7 8 8 10 11 13 15 14 15 18 18 17 15 12 10 11 10 9 8 
6 5 6 6 6 6 6 5 6 6 6 6 7 6 6 6 6 6 6 6 6 6 6 6 6 6 5 6 6 6 6 5 6 8 9 8 7 5 6 6 6 15 18 8 1 6 8 3 4 5 8 13 21 35 49 59 54 48 43 45 52 54 46 38 59 93 127 124 100 85 81 81 68 92 117 120 103 84 69 60 56 47 43 49 60 71 86 102 111 110 110 119 127 122 102 83 59 82 104 110 116 132 147 152 141 151 159 162 172 187 186 177 172 164 162 159 158 162 156 134 125 128 124 113 103 94 83 75 31 89 157 171 148 129 155 211 189 177 161 169 166 201 189 159 150 139 145 150 147 162 181 179 155 174 179 156 130 120 117 114 114 92 64 96 90 88 75 62 36 35 31 28 28 27 24 20 17 30 41 16 5 8 6 5 25 30 14 2 7 26 21 3 1 1 24 66 21 0 3 7 5 11 7 8 1 10 62 75 8 3 7 5 3 27 74 40 1 7 8 6 11 2 1 21 116 94 29 0 1 10 7 7 8 5 7 9 12 136 40 21 16 18 20 17 15 20 28 32 17 11 6 5 7 7 7 7 5 6 7 7 6 6 8 10 9 10 11 12 11 10 8 8 8 8 7 8 
6 6 7 7 6 6 6 6 6 6 6 6 6 6 6 6 6 6 6 6 6 6 6 6 6 6 6 6 6 6 5 5 6 7 8 6 5 5 5 7 8 12 6 2 6 6 4 9 4 5 8 16 24 29 33 35 37 35 36 40 39 35 38 46 98 134 146 109 74 75 97 113 119 140 147 115 75 56 57 64 47 39 39 48 61 71 86 100 121 107 98 100 93 69 46 33 45 72 100 105 101 107 115 117 120 140 155 160 169 180 173 154 161 159 162 162 161 166 160 137 130 131 127 117 108 100 92 85 87 154 183 148 143 173 194 195 178 179 168 176 170 207 190 158 164 145 159 174 165 169 174 151 167 150 141 143 143 129 114 109 104 104 69 77 52 57 59 52 34 35 32 28 25 24 24 22 14 22 41 17 2 7 7 2 9 30 30 2 2 23 24 10 2 0 9 35 58 12 0 4 8 6 7 12 1 2 29 101 44 2 1 10 2 13 54 41 1 7 9 6 10 5 0 1 25 117 110 13 1 6 11 7 2 10 2 7 2 91 87 29 17 28 35 23 10 8 14 24 34 22 11 7 10 13 10 6 7 8 8 7 6 6 7 8 8 8 7 7 7 7 7 7 7 7 8 8 
6 6 5 5 5 6 5 6 6 6 6 6 6 6 6 6 6 6 6 6 5 5 6 5 6 6 5 5 5 6 5 6 7 6 4 4 4 5 6 7 8 5 4 5 5 6 5 5 3 10 8 3 8 13 16 22 29 24 30 48 50 37 51 96 154 129 96 83 87 87 107 148 149 132 95 65 59 67 60 45 34 30 45 57 50 69 114 135 102 78 77 89 71 36 27 39 80 102 92 74 80 85 81 86 120 160 168 148 150 159 153 145 148 164 160 151 164 168 158 153 146 138 131 127 124 126 135 146 167 175 171 155 154 175 194 200 185 179 192 204 194 187 193 197 192 161 163 165 177 146 153 163 147 147 129 125 139 125 100 96 87 97 86 68 58 41 36 47 40 36 29 24 24 26 27 24 17 21 19 11 7 7 7 4 6 15 28 4 1 6 22 30 1 7 1 9 45 41 3 2 7 6 4 13 5 0 3 64 89 22 1 8 5 6 19 34 2 7 9 6 6 8 6 2 3 21 116 93 1 1 17 8 5 8 11 1 0 11 63 39 13 16 30 39 28 16 9 4 21 22 20 16 13 10 9 7 7 7 7 7 8 8 9 9 10 6 6 8 9 8 7 8 12 11 9 9 
5 5 6 5 5 5 6 6 6 6 5 6 6 6 6 6 6 6 6 5 5 6 5 5 6 5 6 5 5 6 5 5 6 6 5 4 4 5 6 6 7 6 4 5 7 7 6 5 9 7 2 2 8 14 21 28 38 37 62 76 64 88 129 123 119 103 82 74 100 138 144 119 97 73 55 56 65 64 51 41 45 33 39 57 87 137 144 98 77 82 81 60 31 23 48 90 101 69 59 67 59 51 71 107 178 163 139 133 141 137 137 158 160 156 142 140 155 153 141 143 153 152 151 148 140 139 155 174 191 183 171 160 166 184 194 193 190 185 191 195 183 180 187 187 190 165 163 157 167 142 144 145 155 154 136 127 133 115 89 82 81 70 54 52 53 37 29 39 38 33 27 22 22 23 23 21 17 19 16 10 6 7 7 6 4 11 24 5 2 4 19 31 5 9 2 1 16 43 21 1 4 5 4 10 7 5 0 26 84 45 7 2 3 7 14 22 3 8 9 7 6 9 8 4 1 4 37 139 47 4 6 10 12 14 10 6 2 1 37 24 20 15 18 24 26 30 30 22 9 16 22 21 15 12 13 17 5 5 6 6 7 6 6 7 6 5 5 6 6 6 10 13 12 10 8 7 
6 6 6 6 6 6 6 6 6 6 6 6 6 6 6 6 6 5 5 5 5 5 6 6 5 5 5 6 5 5 5 5 6 5 5 5 5 6 6 6 6 6 4 5 7 6 6 5 7 4 5 11 12 15 24 32 40 30 20 25 63 116 130 114 72 62 76 110 127 125 109 89 85 71 68 81 90 88 83 84 83 72 89 116 123 121 99 64 75 82 73 50 43 56 79 91 58 38 43 50 37 48 107 163 158 140 119 122 137 130 132 154 131 122 114 131 161 163 159 171 154 156 161 162 155 156 176 202 196 180 163 163 177 188 191 188 194 188 187 186 180 187 193 183 185 170 159 142 144 130 132 126 152 148 133 121 115 95 70 63 98 70 40 31 41 40 32 31 35 32 26 20 19 19 18 16 16 15 12 8 6 6 7 6 3 8 23 7 4 2 12 25 16 7 3 0 2 36 44 5 1 7 4 7 8 9 0 3 48 67 22 1 5 13 17 18 4 8 9 7 6 9 8 6 3 0 1 75 109 45 1 15 21 26 18 19 17 2 25 22 7 5 8 8 6 13 25 30 11 8 6 7 7 7 8 10 10 9 7 7 7 7 5 4 8 8 6 8 10 10 12 14 9 8 6 6 
6 6 6 7 6 7 6 6 6 6 6 6 6 6 6 6 6 5 6 5 5 5 6 6 6 5 5 6 6 5 5 5 5 5 6 6 6 6 6 6 6 5 6 6 7 7 6 5 4 6 16 18 13 16 25 28 12 6 6 43 120 115 52 23 26 59 107 142 131 90 73 87 99 98 102 113 121 118 114 111 99 109 140 151 119 91 93 101 88 86 74 67 85 106 89 57 39 53 59 43 41 83 131 135 102 118 113 103 120 138 138 139 122 124 126 144 169 168 159 168 164 161 162 161 155 155 173 193 170 161 155 164 174 180 184 187 184 175 171 170 178 193 192 171 162 159 147 123 112 110 115 113 136 129 117 105 93 73 54 45 78 83 66 38 33 39 37 29 32 30 25 19 16 16 15 14 13 11 9 8 7 7 7 7 4 8 23 8 6 2 7 13 29 4 2 6 1 18 43 18 1 7 5 6 8 11 6 0 16 72 51 3 1 6 14 8 4 7 8 7 6 8 8 7 10 9 1 7 79 113 26 4 9 17 21 25 30 9 26 28 11 9 13 14 6 5 14 24 38 22 13 10 10 10 9 10 10 8 6 5 6 6 6 6 5 3 3 6 12 13 11 7 6 6 6 6 
7 7 6 6 7 6 6 6 6 6 6 6 6 6 6 6 6 6 6 6 6 6 6 6 6 5 6 5 6 5 5 5 5 5 5 6 6 5 5 5 5 5 6 7 7 6 5 5 9 11 12 10 7 16 21 13 2 5 41 95 78 36 14 5 41 125 155 116 110 109 105 120 133 124 127 145 148 130 117 117 138 140 130 106 98 112 122 116 88 93 91 86 92 94 77 55 51 62 54 54 90 124 109 81 90 107 99 89 115 145 135 114 106 131 151 169 188 186 176 180 189 176 165 161 158 155 159 166 147 152 162 169 169 166 174 186 175 161 155 158 171 184 172 141 123 137 135 115 93 94 101 107 125 113 102 93 78 62 46 36 24 57 82 64 38 32 34 32 29 28 24 17 13 12 12 11 10 8 8 8 8 7 6 7 4 8 22 8 8 3 5 5 23 9 3 7 3 6 28 29 3 5 6 6 7 8 9 2 1 56 75 15 1 1 16 7 3 5 6 6 6 7 7 7 9 4 8 2 14 81 96 2 2 5 16 19 31 22 39 51 34 19 19 25 15 7 9 14 33 29 27 23 14 8 6 9 10 8 7 7 10 15 17 19 14 13 13 13 12 11 8 5 6 6 7 9 
6 6 6 6 6 6 6 6 6 6 6 6 6 6 6 6 6 6 6 6 6 6 6 6 5 5 5 5 5 5 5 5 4 5 5 6 6 6 5 5 5 6 6 7 7 6 5 5 11 8 5 3 7 16 12 2 2 46 109 87 20 0 12 53 168 193 142 96 112 127 127 148 142 127 129 138 123 102 116 154 175 140 102 94 114 130 117 95 93 93 95 96 93 82 70 62 49 39 41 84 131 103 70 81 85 85 84 104 143 146 111 89 115 147 173 186 197 192 180 185 189 175 166 166 167 166 163 165 143 156 168 168 164 162 170 179 178 162 156 161 168 168 149 119 103 126 131 121 91 86 90 104 114 99 93 87 72 57 44 30 13 21 42 56 46 37 38 39 25 25 22 15 11 9 8 9 9 7 7 7 8 7 6 6 4 7 18 7 9 5 5 3 10 18 9 3 2 4 26 35 8 2 7 8 9 5 8 4 1 29 73 33 3 1 22 14 4 6 7 6 8 7 7 7 10 3 14 9 2 28 103 58 6 1 9 10 20 23 45 60 69 45 45 53 40 24 25 33 31 30 27 22 17 13 12 14 12 10 8 8 11 17 21 24 30 33 31 20 10 7 7 8 6 6 8 9 
7 6 7 6 7 7 6 6 6 6 6 6 6 6 6 6 6 6 6 6 6 6 6 6 5 5 6 5 6 5 6 5 5 4 5 5 6 5 5 5 6 6 6 6 6 5 5 5 7 5 3 6 12 11 9 9 61 111 81 16 2 17 85 198 199 128 79 86 111 111 111 125 99 101 98 89 86 101 131 159 124 106 98 116 136 127 112 113 111 101 101 108 109 93 75 65 62 54 73 117 112 65 54 85 80 75 86 121 143 117 96 105 161 172 172 172 165 141 124 133 162 157 161 168 171 166 165 168 143 150 154 153 159 169 173 169 169 154 154 161 157 146 129 109 111 127 124 117 79 72 73 94 97 82 80 80 67 56 42 25 26 14 19 33 37 37 39 37 24 24 22 14 10 8 8 8 8 7 6 7 7 7 7 6 5 6 15 6 9 6 6 4 5 21 10 2 4 5 32 51 24 1 8 8 10 5 8 5 2 9 54 56 5 0 14 11 4 5 7 7 7 7 8 8 13 8 20 17 12 14 61 131 40 6 5 7 11 7 24 31 33 22 23 28 21 15 15 15 20 18 12 7 5 8 9 6 8 6 4 4 4 7 9 10 15 18 17 11 6 5 6 8 7 7 7 7 
6 7 7 6 7 6 6 7 6 6 6 6 6 6 6 6 6 6 6 6 6 6 6 6 6 5 6 5 5 5 5 5 5 4 5 6 5 6 5 6 6 7 6 6 6 5 5 6 5 5 7 9 9 4 13 47 96 62 20 3 21 101 176 176 70 37 37 62 83 109 113 84 82 92 82 72 110 180 186 138 100 126 134 119 110 105 105 109 122 119 120 119 106 87 80 83 81 89 121 126 89 73 83 85 95 97 102 109 99 78 97 159 136 128 120 127 133 115 109 129 143 149 158 167 164 153 151 155 136 137 133 134 155 180 179 162 143 133 140 149 139 122 110 102 126 127 111 100 60 51 54 79 80 66 69 74 63 53 40 21 30 24 30 30 21 22 29 26 23 24 21 14 9 8 7 8 8 7 6 6 7 6 7 7 7 5 14 4 8 4 6 6 8 15 7 7 6 1 37 74 40 1 5 5 10 6 9 6 2 1 44 79 9 3 8 11 5 5 7 7 7 7 7 9 9 5 20 18 20 8 39 83 107 26 13 20 17 1 14 14 27 15 13 20 28 32 21 5 15 25 27 15 7 6 7 7 8 7 6 5 5 7 9 10 6 6 5 4 7 9 9 6 7 6 6 6 
6 7 6 6 6 6 6 5 6 5 5 5 5 6 6 6 6 6 7 8 7 7 7 6 5 5 5 6 6 5 6 6 6 6 6 5 5 5 6 5 7 6 5 5 5 5 5 6 8 2 8 8 4 4 55 87 46 9 1 9 103 177 122 40 12 21 32 47 74 92 84 66 80 71 59 105 203 198 122 94 99 127 122 99 103 113 112 112 129 128 119 106 102 101 99 95 105 125 126 105 97 110 117 110 109 120 116 101 102 124 145 153 90 97 105 101 120 97 100 113 137 146 141 143 151 136 125 142 125 133 133 140 162 163 149 145 129 119 123 130 119 108 104 103 111 120 81 74 61 55 51 67 58 54 58 61 49 39 31 25 26 24 23 24 24 23 20 19 25 20 18 17 13 8 6 8 6 7 6 7 7 6 7 7 6 6 7 8 7 6 6 7 6 9 7 8 6 2 49 76 23 5 4 9 8 8 8 8 4 1 18 67 33 1 7 10 5 6 6 7 6 6 7 10 9 9 9 10 8 7 10 17 77 85 22 3 15 5 1 24 24 14 12 15 21 29 30 17 4 14 25 21 12 7 7 7 6 7 8 7 6 6 7 8 8 8 7 7 8 10 9 8 9 7 6 7 
6 7 6 6 6 6 5 5 5 5 5 5 6 5 6 6 6 6 6 7 7 7 6 6 5 5 5 5 6 5 5 5 6 5 6 5 5 6 6 6 7 6 6 5 5 6 6 6 5 7 7 2 9 46 65 26 4 0 9 90 155 94 20 0 10 21 35 47 54 52 47 46 49 75 110 156 175 120 72 75 115 129 127 112 107 111 115 119 120 113 107 103 98 94 97 101 118 111 118 131 127 108 107 119 123 130 121 103 118 148 142 110 63 67 83 99 118 110 117 132 133 131 123 129 136 117 105 118 120 125 117 120 141 143 137 151 119 110 114 117 109 103 99 92 105 116 76 66 59 59 56 70 49 45 49 53 47 39 32 23 24 23 21 22 24 21 19 18 22 18 16 13 11 7 6 6 6 7 7 6 6 7 6 6 7 7 8 7 7 7 6 7 5 8 6 9 3 2 52 70 17 3 5 8 7 8 7 8 4 1 13 60 37 1 5 7 6 7 7 7 6 6 7 8 7 8 8 8 6 1 1 3 27 70 43 14 11 5 10 24 28 21 18 18 20 28 39 44 8 7 8 15 18 15 9 6 6 7 7 6 6 7 8 8 10 9 9 8 9 9 8 6 8 7 6 7 
6 6 6 6 5 6 5 5 6 6 6 6 5 6 6 5 6 6 7 7 7 7 6 6 6 5 6 5 5 5 5 6 5 5 6 5 5 6 6 6 7 7 6 6 6 6 6 7 6 3 7 5 27 82 28 4 0 23 95 111 68 19 7 14 32 41 45 40 28 21 31 51 66 106 141 123 69 41 64 121 133 119 115 119 114 113 118 119 116 110 109 116 113 106 112 125 128 137 135 116 108 116 132 139 127 127 124 125 132 126 95 64 81 88 110 142 140 137 134 140 110 111 114 122 121 100 94 109 100 116 109 106 125 126 124 148 113 106 107 104 99 98 91 76 94 108 74 62 59 60 61 69 43 35 37 45 42 37 30 23 21 19 19 21 21 20 17 15 17 14 12 9 8 6 7 7 7 6 7 7 6 7 7 7 7 7 7 7 6 7 6 6 5 9 6 11 2 2 57 58 8 1 5 8 7 8 8 7 6 1 8 53 43 3 2 6 8 8 7 7 7 7 6 6 6 6 9 12 11 6 1 1 3 50 63 29 6 5 16 14 16 15 13 12 13 16 30 55 32 13 2 4 9 10 8 7 7 7 7 7 6 7 7 8 8 9 8 7 8 8 8 7 6 6 6 6 
6 6 6 5 5 5 5 5 6 6 5 6 6 5 6 6 6 6 7 6 7 6 6 6 6 6 5 6 5 5 4 5 6 6 6 5 6 5 6 6 7 7 7 7 7 7 6 6 9 1 1 24 83 29 3 0 20 110 101 51 8 2 5 21 26 29 27 22 20 26 46 73 113 93 61 35 32 65 108 128 102 75 79 107 116 117 120 115 110 115 124 127 121 117 125 140 124 150 148 121 122 150 145 114 129 116 121 137 117 80 65 77 104 122 145 166 130 126 113 103 97 111 124 118 104 91 93 106 83 113 109 99 114 117 115 132 113 108 104 97 93 96 87 64 73 98 79 63 62 58 59 66 42 33 32 39 39 35 28 21 17 15 15 17 20 19 15 12 14 12 9 6 5 6 7 7 7 7 7 7 7 6 6 6 7 7 7 7 6 6 7 7 6 8 6 10 1 7 56 40 3 0 5 8 7 8 9 6 7 1 5 44 46 5 1 7 6 6 6 7 8 7 6 7 7 7 9 14 15 12 7 5 1 22 42 33 6 2 13 7 6 8 7 7 8 6 10 28 48 31 15 8 7 6 7 8 8 7 7 7 7 6 8 8 7 6 7 9 10 12 13 14 10 8 8 8 
6 6 6 5 6 6 5 5 6 5 5 6 6 6 5 5 6 5 6 6 6 6 6 6 6 6 5 6 5 5 5 4 6 5 6 5 6 6 6 6 7 7 7 8 7 7 6 6 6 0 6 43 61 3 2 21 130 101 22 8 4 9 5 5 10 17 26 35 53 73 82 85 63 37 23 26 59 111 108 62 45 37 59 99 114 114 117 114 107 120 126 116 108 120 137 147 160 133 115 128 147 146 125 106 122 110 107 105 86 70 85 116 114 138 150 144 102 113 107 93 116 126 126 106 88 88 94 91 87 115 106 82 87 102 106 114 111 105 101 93 90 96 85 61 56 88 85 73 74 62 63 66 47 35 32 40 37 31 25 19 15 13 11 15 17 17 12 10 10 11 8 5 5 6 7 7 6 7 7 6 7 7 6 7 7 7 7 7 6 7 6 6 6 7 6 7 1 18 49 23 1 3 6 9 7 7 9 6 7 3 2 37 41 4 1 7 5 5 6 7 8 9 8 8 8 7 7 9 10 10 7 4 3 1 14 35 13 2 7 5 8 8 6 6 8 4 1 8 25 32 34 26 19 15 10 7 8 8 7 7 7 7 7 7 7 8 9 12 15 18 21 25 19 17 15 13 
5 6 6 6 5 6 5 5 5 6 6 6 5 6 5 5 5 5 6 6 6 6 6 6 5 5 5 6 6 6 5 5 5 5 5 5 6 6 6 6 7 7 7 7 7 6 6 6 1 6 37 35 4 2 38 125 128 22 1 5 6 7 9 6 10 21 32 37 41 44 39 33 20 17 31 61 86 89 61 28 35 50 85 113 112 105 109 114 112 126 131 119 121 145 167 170 153 122 106 116 116 102 102 119 92 100 91 72 68 86 103 105 145 157 146 119 97 116 124 114 130 119 102 84 78 95 102 90 102 109 90 64 61 81 97 101 101 94 91 88 86 90 81 59 52 82 86 80 89 70 69 68 49 36 33 37 33 27 22 19 12 9 9 11 15 16 11 8 8 9 8 6 5 7 7 6 7 7 7 7 6 7 6 7 7 7 7 6 7 7 7 7 7 5 7 5 5 37 39 12 1 5 8 8 6 6 9 7 6 2 2 31 32 3 4 6 6 6 6 7 8 8 8 9 9 8 6 7 8 10 9 8 9 2 6 39 28 2 2 6 9 9 5 4 7 6 4 3 11 22 29 25 22 21 15 7 9 9 8 7 7 6 7 7 8 7 8 11 13 15 19 24 20 18 17 18 
6 6 5 6 6 5 6 6 6 6 6 6 6 6 6 6 5 5 6 6 6 6 6 6 5 5 5 6 6 6 5 6 5 5 6 6 6 7 6 7 7 7 7 7 6 5 5 4 3 27 42 11 1 34 111 106 3 3 4 19 13 4 5 9 35 37 31 21 16 13 13 15 28 20 36 83 107 85 56 43 76 110 130 120 108 104 108 116 116 127 137 145 157 168 160 146 87 100 110 102 89 86 90 96 82 88 88 78 79 95 107 110 161 148 122 98 109 117 122 117 112 90 82 80 81 96 112 107 105 85 74 66 62 73 90 90 91 84 82 81 77 79 71 55 59 75 73 71 95 72 66 60 45 31 31 34 29 22 21 19 12 8 6 9 13 14 11 8 6 7 8 7 7 8 7 6 7 7 6 7 6 7 7 7 8 7 6 7 7 7 7 7 8 4 10 3 8 56 30 6 3 7 9 9 7 5 8 7 6 3 5 31 27 3 5 5 9 10 9 9 7 6 8 9 10 11 11 10 11 13 13 13 12 4 5 34 44 13 6 7 15 16 17 9 4 5 6 3 9 13 15 17 18 19 15 9 10 9 9 9 7 6 6 7 8 6 6 6 7 8 11 16 14 14 17 21 
6 6 6 6 6 6 5 6 6 6 5 5 5 6 6 6 5 5 5 6 6 5 6 6 4 5 4 6 6 6 6 6 5 5 5 6 6 6 6 7 6 6 7 7 6 6 4 3 16 50 12 2 17 177 98 3 2 6 23 10 15 16 23 31 28 14 2 0 3 8 13 23 17 21 55 115 129 93 83 106 132 160 147 110 101 110 116 123 113 117 133 159 172 152 110 80 82 80 74 65 69 83 93 92 104 89 92 108 102 95 125 179 153 124 101 91 132 128 121 114 89 72 81 95 89 90 111 122 93 63 65 83 78 77 86 82 88 80 77 77 72 70 61 49 64 67 56 56 86 65 56 46 38 27 28 32 25 20 19 21 11 8 6 8 13 13 10 7 5 6 7 8 8 8 7 6 6 7 7 6 6 6 7 7 8 8 6 7 7 7 7 7 7 3 11 1 9 66 21 2 4 8 8 9 7 5 8 7 6 4 7 34 26 4 8 5 12 12 12 9 6 5 7 8 13 14 14 12 10 9 9 8 10 7 1 22 51 33 16 9 34 42 46 24 5 5 8 1 2 7 15 23 25 20 12 8 9 9 10 8 7 5 6 7 8 5 4 5 4 3 7 11 14 15 19 22 
5 6 5 5 6 5 5 6 6 6 6 6 6 6 7 6 5 5 5 5 6 6 6 6 6 5 6 5 5 5 6 7 6 6 6 6 7 6 6 6 7 10 4 4 9 3 1 11 37 11 2 27 134 89 0 1 16 27 29 16 6 8 14 17 5 7 14 20 19 25 28 19 10 33 76 73 60 35 52 88 130 118 99 76 63 66 87 110 126 141 147 135 113 94 82 78 76 74 79 96 116 123 114 102 94 105 106 98 106 135 160 168 106 117 128 136 145 140 112 86 85 81 91 93 94 120 130 99 74 70 76 77 121 98 100 79 88 71 70 75 76 69 58 64 59 63 40 36 70 78 48 35 32 31 29 28 24 21 19 19 14 11 7 6 7 11 11 7 7 7 7 7 8 7 8 7 6 7 7 7 7 7 7 7 7 7 7 6 7 6 6 6 7 2 10 2 11 45 13 2 7 7 6 3 2 4 8 10 6 4 10 41 36 9 7 9 4 5 8 8 5 2 3 8 5 5 4 5 11 20 27 27 13 12 1 1 8 45 17 6 6 32 54 52 45 24 6 2 4 8 9 11 16 23 22 15 11 13 15 10 3 2 3 6 5 5 5 4 5 10 18 27 23 20 16 15 
6 6 6 6 5 5 5 6 6 5 6 6 6 6 7 6 5 5 5 6 7 7 6 6 6 6 5 6 5 6 6 7 6 6 6 6 6 6 6 5 5 9 7 4 5 2 5 17 12 5 21 84 84 0 3 7 16 13 8 4 6 11 13 12 8 8 10 10 10 12 12 6 9 66 73 39 18 20 62 64 46 39 34 41 57 76 92 98 97 117 127 113 97 92 87 81 81 93 110 118 109 98 88 85 82 94 105 115 136 161 163 150 128 135 137 130 126 120 105 91 86 94 107 107 109 124 113 74 69 65 76 91 140 107 103 82 88 86 94 92 82 73 71 80 66 59 35 31 56 65 46 36 33 31 29 27 23 20 17 18 14 12 7 6 9 11 12 10 8 7 7 8 8 7 7 7 6 6 6 7 6 7 6 7 7 7 7 7 6 7 6 6 6 4 9 3 21 36 10 3 8 8 9 8 8 9 7 1 10 10 12 27 25 14 20 20 19 19 22 25 22 14 6 2 11 11 11 13 17 24 33 40 33 23 8 1 1 27 18 12 4 18 25 25 36 41 26 13 3 2 4 7 16 25 20 12 11 12 15 16 14 10 5 2 6 6 7 9 11 14 18 21 19 19 18 16 
6 5 6 6 6 5 6 5 6 5 6 6 6 6 7 6 6 6 6 6 7 7 7 7 6 6 6 6 5 6 6 7 6 6 6 6 7 6 6 5 5 8 7 5 4 5 9 14 2 23 93 92 7 4 1 12 14 7 2 2 7 13 12 9 11 12 11 9 10 7 4 4 26 78 36 13 10 34 83 49 44 41 47 59 71 73 63 56 88 106 110 93 84 89 91 83 93 99 102 91 78 73 80 88 94 110 129 139 144 147 134 115 139 148 151 139 122 110 100 91 89 102 111 106 112 120 102 72 68 79 106 126 152 102 96 87 94 105 113 107 92 81 82 88 74 50 29 27 40 47 42 37 37 34 29 26 22 19 16 14 14 8 5 5 8 9 10 11 8 7 8 8 8 7 7 7 7 6 7 6 6 6 6 6 6 6 6 6 7 6 6 6 7 6 5 5 37 22 8 8 14 15 16 17 21 25 17 6 1 4 11 28 19 8 22 38 24 21 21 26 33 33 23 16 19 17 15 18 20 23 31 41 45 38 36 21 2 8 11 14 5 16 18 11 16 32 36 29 7 4 4 6 13 17 21 23 24 17 13 16 21 22 15 9 2 3 6 10 15 16 14 12 10 10 10 12 
6 6 6 6 5 6 6 6 6 6 6 6 6 6 6 6 6 5 6 6 6 6 6 6 7 6 6 6 6 6 7 6 5 6 6 6 6 6 6 6 8 7 5 5 7 10 10 6 11 80 89 17 2 2 18 2 10 7 6 8 11 9 8 9 4 7 7 7 7 1 0 11 55 56 16 15 29 67 86 59 62 77 99 106 95 78 67 65 110 108 96 82 77 83 86 83 89 82 72 67 74 89 101 106 100 124 147 146 135 130 131 130 143 147 143 126 111 102 99 95 101 112 113 108 109 102 85 75 76 112 144 139 128 86 91 92 99 114 115 110 101 94 94 86 77 41 25 27 29 33 37 34 41 36 30 26 22 17 14 13 14 8 5 6 7 7 9 11 7 7 7 6 8 7 7 6 6 6 7 7 7 7 6 7 7 7 7 6 7 6 7 6 9 7 1 6 47 10 5 13 12 15 20 23 30 43 42 30 8 1 8 38 27 2 7 24 22 18 13 12 17 29 36 38 20 15 15 20 22 22 28 38 41 31 53 60 30 12 11 10 7 23 32 19 7 10 26 35 23 10 2 3 7 10 18 28 38 27 18 18 25 32 32 30 14 10 7 6 8 10 10 8 6 6 8 9 
6 6 6 6 5 5 5 6 6 6 5 6 6 6 6 6 6 7 7 6 6 6 6 6 6 6 6 6 5 6 7 7 6 5 6 6 6 7 6 6 9 6 5 5 6 9 10 9 57 72 20 2 2 6 4 4 7 7 9 12 8 3 3 8 5 7 7 10 9 4 15 52 83 56 48 50 62 103 87 96 95 109 122 120 106 97 108 123 119 95 74 70 73 73 76 81 66 73 81 94 112 128 127 121 124 138 145 140 129 127 133 138 135 127 111 96 91 98 110 116 124 124 119 115 105 84 75 81 113 144 138 105 92 82 99 98 103 126 120 114 102 90 98 87 67 33 21 27 25 26 34 33 42 35 28 22 19 15 12 10 16 10 7 7 8 7 9 12 8 6 5 5 6 7 7 6 7 7 6 7 7 7 6 6 7 6 7 7 6 7 6 6 7 4 2 12 51 5 5 12 9 10 13 18 29 48 64 64 37 11 2 21 26 11 16 22 28 30 26 16 12 14 20 25 14 15 21 26 22 17 24 37 43 20 28 49 56 34 28 15 11 19 38 39 21 16 24 28 41 22 8 4 6 8 13 17 30 28 27 28 29 31 34 35 40 28 14 5 3 4 8 11 10 11 11 11 
5 6 5 5 5 5 6 5 6 6 6 6 6 6 6 6 6 7 7 6 5 5 6 5 7 6 6 6 5 7 6 7 5 6 6 6 7 7 7 7 7 7 5 4 6 7 14 28 72 24 2 2 8 4 4 7 6 6 7 7 6 4 4 7 6 8 9 13 15 22 55 107 101 77 110 102 110 156 118 134 131 121 105 91 87 94 115 134 106 76 59 64 71 70 74 83 67 87 110 121 127 135 138 137 139 135 131 128 128 126 116 108 103 98 92 94 106 121 133 139 134 120 110 106 94 88 101 121 175 161 106 73 79 91 107 98 122 147 132 117 87 69 87 85 62 32 22 28 26 25 30 31 35 29 21 17 15 13 9 8 15 11 7 7 6 6 8 10 10 7 5 4 5 6 7 7 7 7 7 6 6 6 6 6 6 6 7 7 7 7 7 7 6 3 10 29 48 4 8 10 8 5 5 6 12 28 51 67 77 58 23 10 6 11 26 18 23 35 44 40 26 19 16 17 14 21 28 28 18 11 14 22 48 30 20 20 38 33 43 37 24 14 26 49 50 45 32 13 35 43 40 21 10 10 15 17 17 22 26 25 22 20 23 27 34 29 23 16 11 9 10 11 11 11 11 11 
5 5 6 6 6 6 5 5 6 6 6 6 6 6 6 6 6 7 7 7 6 5 6 6 7 6 6 6 5 6 6 6 6 5 6 6 6 7 7 7 6 6 3 5 9 9 20 51 32 2 3 6 2 8 9 3 7 5 5 6 6 7 8 8 20 25 30 33 42 72 108 122 70 58 100 116 137 145 116 119 93 92 88 86 89 98 114 129 97 80 72 79 84 80 81 86 93 109 120 121 124 132 139 141 113 116 122 126 125 116 104 99 91 94 105 119 136 142 141 138 129 113 110 106 99 115 143 151 160 123 71 66 83 91 96 94 128 145 117 100 72 55 81 87 71 42 30 30 26 23 25 28 26 20 14 12 12 10 9 8 12 12 9 7 6 8 9 9 13 10 6 4 5 6 6 6 7 6 7 7 6 6 6 7 7 7 7 7 7 7 7 7 7 2 23 46 33 2 10 8 8 6 7 7 5 6 20 38 81 110 89 40 10 8 20 10 20 30 43 49 46 39 33 29 26 25 26 26 22 18 13 9 30 43 31 14 21 13 30 44 35 14 17 37 45 51 36 9 14 38 51 30 11 11 15 17 14 16 17 15 13 14 18 23 19 23 27 25 20 17 15 15 13 10 8 8 
6 5 6 6 5 6 5 6 6 6 6 7 6 6 6 6 6 6 7 6 5 5 5 5 6 6 5 5 5 5 6 6 5 5 6 6 7 7 7 7 7 4 2 6 17 15 22 59 13 2 2 13 3 8 7 4 3 5 6 6 6 7 8 9 11 18 24 22 30 62 72 43 22 19 51 98 113 69 68 75 62 85 118 136 135 130 137 151 106 102 102 105 103 95 91 89 110 115 120 127 141 152 142 123 114 134 153 145 114 87 79 82 112 115 122 132 137 133 126 123 120 119 134 137 127 148 159 131 91 67 44 68 86 76 77 92 116 117 81 77 66 58 92 97 85 57 38 31 26 23 23 25 22 15 10 9 10 10 9 8 13 14 12 9 8 10 12 11 16 11 6 5 5 6 7 6 6 7 6 7 6 7 7 6 7 7 7 7 7 8 7 8 9 1 30 52 19 1 11 7 10 15 26 29 12 2 6 20 22 68 103 101 64 45 54 42 31 31 32 39 46 48 44 40 38 26 18 22 37 42 24 8 10 38 35 21 27 8 13 27 34 16 18 23 21 31 34 13 3 11 16 12 9 10 10 6 14 14 15 15 17 19 21 23 27 27 25 20 15 15 21 28 22 16 10 10 
6 6 6 6 6 5 6 5 6 6 6 5 6 7 6 6 6 6 6 5 5 5 5 6 5 5 5 5 5 5 5 4 6 6 6 6 6 6 6 7 15 1 2 21 7 28 60 24 0 1 9 10 2 6 11 2 6 7 6 6 5 5 4 4 8 20 10 9 26 69 52 24 11 29 33 64 58 66 76 55 67 104 140 142 134 140 146 145 132 117 112 121 123 114 108 111 121 124 125 154 149 118 126 133 136 149 122 106 85 85 85 117 113 120 132 139 137 130 124 124 121 122 128 141 150 141 111 86 44 38 64 75 49 57 91 91 96 84 86 83 72 81 107 116 101 59 45 40 58 21 23 22 13 12 14 19 16 12 13 19 16 18 17 17 20 17 13 17 14 16 14 8 5 5 6 5 6 5 5 5 6 6 7 9 7 6 6 9 10 7 7 8 6 1 39 38 2 8 17 17 10 15 36 61 57 30 14 12 17 26 51 80 88 81 69 56 42 38 37 38 38 33 29 26 25 23 22 22 31 41 37 27 9 6 23 47 45 22 9 16 26 17 22 33 30 19 18 21 10 13 11 14 28 27 12 6 10 14 19 27 32 32 31 33 41 51 46 27 20 25 28 24 19 19 17 15 
6 5 6 6 6 6 5 5 6 5 5 5 5 5 6 6 6 6 5 6 6 5 6 5 6 5 6 6 5 4 5 5 6 5 6 6 6 6 6 7 8 0 9 22 11 30 43 9 0 6 20 18 3 3 8 2 6 5 5 3 4 4 5 5 0 11 11 17 63 88 56 28 38 70 49 57 66 77 78 73 140 134 120 110 122 147 151 141 91 94 102 114 122 127 135 143 158 159 145 154 142 120 132 137 166 142 106 99 97 91 90 119 132 132 130 117 109 111 116 121 122 128 138 142 128 97 65 49 24 36 57 51 37 66 101 88 81 87 95 85 85 118 138 119 78 59 62 67 68 25 22 19 7 9 12 17 25 30 30 27 29 28 22 21 24 22 20 24 20 19 14 7 2 4 6 7 5 5 5 6 6 5 6 9 13 11 9 10 9 8 9 8 2 19 55 31 2 11 28 43 43 37 42 69 101 96 55 22 13 26 38 37 45 70 80 63 23 22 25 29 28 19 13 10 15 16 14 15 20 29 36 37 22 13 14 21 42 55 34 18 18 13 20 35 40 34 30 28 26 27 22 24 33 38 32 27 12 12 16 25 39 48 51 50 54 75 80 55 31 25 26 28 14 12 10 13 
6 6 6 6 6 6 6 6 6 5 6 5 5 5 6 6 5 6 5 6 6 6 6 5 5 6 5 6 6 5 6 6 6 6 6 6 5 6 6 6 2 2 17 16 17 30 22 1 2 9 25 22 3 2 7 4 7 7 7 8 8 12 15 18 41 36 28 36 99 91 69 65 103 158 122 113 145 159 150 161 133 107 77 73 97 124 117 94 113 131 149 155 153 155 161 163 164 167 148 150 143 133 151 152 132 95 75 85 113 105 109 132 125 122 109 101 110 129 134 124 117 112 103 89 57 29 21 23 49 62 66 50 51 87 110 92 92 102 101 89 110 163 161 108 77 81 93 100 65 26 18 12 3 7 8 11 25 48 55 46 44 43 36 31 33 30 27 30 25 24 17 7 3 5 8 7 6 6 7 8 7 5 6 9 14 14 13 11 10 10 8 4 2 63 67 17 2 6 13 31 22 10 0 0 12 34 43 40 13 18 16 6 7 22 34 28 54 35 28 41 58 56 43 33 22 19 14 9 7 9 17 24 46 39 30 16 25 50 49 41 41 36 42 54 58 54 58 68 59 56 52 42 34 37 47 51 42 46 46 38 27 16 11 8 6 11 15 11 9 13 22 32 9 4 1 1 
6 6 5 6 6 6 6 6 6 5 5 5 6 5 5 6 6 6 6 6 6 6 6 5 6 6 6 5 6 6 5 6 6 6 5 6 6 6 6 5 1 8 22 10 21 25 10 1 6 8 15 12 3 3 7 7 5 5 5 6 8 11 14 16 24 14 18 49 80 29 10 24 46 61 46 44 61 73 75 85 73 61 51 61 88 113 112 98 134 148 149 131 119 120 125 121 138 134 121 141 145 130 137 133 107 78 73 79 108 96 102 107 102 105 105 111 139 161 141 104 82 73 67 59 44 34 49 77 97 83 66 61 76 93 98 95 118 115 102 101 131 168 146 94 102 120 119 106 48 26 18 8 6 7 5 4 14 38 62 69 59 60 52 44 43 35 29 28 28 27 20 10 5 7 7 6 7 6 6 7 7 6 7 10 15 19 19 17 15 14 8 2 11 110 68 10 14 14 11 22 43 47 43 32 26 34 52 68 31 25 22 21 20 23 33 46 74 61 50 47 40 34 42 57 48 42 35 29 21 13 11 10 17 30 57 59 51 46 36 39 56 51 57 66 57 40 47 76 82 86 94 78 45 33 37 38 32 42 51 53 43 33 22 16 16 14 12 10 7 6 11 18 34 28 21 19 
6 5 5 5 5 5 6 5 5 5 5 5 6 5 5 6 6 5 5 6 6 6 5 6 6 6 6 6 6 6 6 6 5 6 6 6 6 6 5 5 3 16 24 9 24 17 2 5 8 6 5 5 3 6 8 5 6 6 5 5 6 5 5 6 6 0 12 62 46 5 1 32 63 28 21 24 28 38 49 43 34 34 42 63 94 123 141 147 159 157 141 118 113 125 135 133 125 111 102 136 145 115 106 98 91 77 87 95 121 111 107 91 93 119 139 143 147 140 106 69 72 66 65 66 58 52 67 93 116 99 78 80 95 98 100 116 121 113 110 128 148 142 120 105 123 143 115 84 32 30 22 8 7 8 4 2 4 19 47 75 75 76 65 50 41 31 23 21 28 30 23 11 5 6 6 4 8 6 5 6 8 9 11 13 20 23 23 20 16 14 8 2 36 115 45 9 44 50 38 42 49 58 61 55 50 52 57 59 59 50 41 31 23 19 25 38 66 57 48 40 30 25 34 51 57 52 51 55 54 40 25 17 10 12 28 45 58 62 55 60 44 39 45 65 58 26 22 50 46 52 74 82 63 51 46 37 40 36 32 38 49 50 34 18 19 24 35 38 27 17 20 30 37 38 38 34 
5 6 5 5 5 5 5 5 6 5 5 6 6 6 6 6 6 6 6 5 6 6 5 5 6 6 6 6 6 6 5 6 5 6 6 6 6 6 5 5 8 20 22 14 21 10 1 7 6 4 3 5 5 6 6 4 7 7 7 7 6 7 6 5 5 2 24 67 23 4 20 75 58 8 10 18 20 25 27 13 20 30 55 93 128 146 154 161 144 137 126 123 129 135 126 115 112 97 94 142 159 121 110 103 94 92 119 146 148 119 94 70 106 149 181 163 128 105 85 69 72 73 77 83 89 96 114 133 121 125 116 102 100 103 113 126 102 113 132 154 150 121 113 136 136 142 92 57 27 27 18 7 6 6 6 4 3 7 28 57 80 85 71 49 34 24 16 14 24 29 24 10 2 4 6 5 8 6 6 8 10 12 15 18 27 23 19 15 10 6 4 3 60 72 15 3 38 45 39 36 21 33 43 49 62 77 74 58 89 98 75 39 25 28 33 33 53 40 34 40 49 50 46 41 64 55 50 52 59 63 58 53 24 19 22 28 49 70 61 53 44 32 30 52 62 33 21 41 25 21 25 34 42 46 44 37 34 29 22 20 30 40 39 32 36 38 46 55 50 38 33 35 31 35 37 31 
5 5 5 5 5 5 5 6 6 6 6 6 6 6 6 7 7 7 6 6 5 6 5 6 6 6 6 5 6 5 5 6 5 6 6 6 6 5 4 5 9 14 13 19 13 5 4 6 4 5 5 7 6 5 3 5 4 4 4 5 6 6 6 6 0 17 73 82 25 16 40 58 25 4 17 23 32 31 26 24 40 58 98 140 158 151 144 147 157 144 138 147 152 136 109 89 75 76 86 139 160 133 125 116 129 120 142 164 108 62 50 61 143 170 180 151 117 102 98 96 93 92 84 76 78 93 106 111 132 140 134 112 96 96 100 99 97 127 142 135 123 107 110 134 139 121 60 35 25 18 9 4 6 5 6 6 5 4 14 28 60 75 73 56 37 22 12 9 17 30 30 14 3 2 5 7 7 8 10 13 12 13 18 23 23 19 16 18 12 4 3 8 65 30 4 5 20 21 25 19 20 23 18 9 8 21 41 53 61 79 73 48 36 39 41 43 51 57 62 62 61 60 60 62 75 70 59 50 52 65 77 81 67 55 41 18 15 30 42 54 44 34 24 36 51 32 17 28 32 23 14 12 17 17 15 18 33 42 45 33 23 24 30 33 20 13 10 17 26 28 24 21 16 17 16 12 
5 5 5 5 6 5 5 6 6 6 6 6 6 6 6 6 8 7 5 5 5 6 6 5 5 5 5 5 6 5 5 5 6 6 7 6 6 6 4 4 10 9 7 20 4 2 8 5 5 6 6 6 5 3 4 8 6 6 6 6 7 7 7 7 3 36 89 40 5 9 47 38 12 13 37 31 44 40 40 70 80 95 125 142 133 117 124 144 136 109 90 93 94 75 55 45 41 55 74 123 144 120 115 100 114 94 102 118 50 24 53 132 190 182 158 131 117 117 117 112 95 100 95 87 95 118 132 131 164 147 134 123 111 101 93 83 108 141 132 94 88 97 98 102 131 97 36 23 25 13 5 7 7 6 6 6 6 5 9 12 36 59 73 66 47 25 10 5 12 29 38 21 6 3 5 7 5 10 15 17 14 13 19 26 17 13 19 28 24 12 11 19 59 12 8 22 25 22 33 28 21 31 39 34 20 17 26 40 59 64 69 65 46 21 12 17 23 24 24 24 32 45 50 49 52 64 66 55 47 50 57 60 50 55 65 45 21 13 14 30 41 42 35 40 49 30 11 13 13 20 19 18 18 13 11 21 20 33 43 35 22 15 11 9 9 5 3 4 7 6 5 4 4 3 3 2 
7 7 6 7 6 6 6 6 6 6 6 7 7 6 6 6 6 6 6 6 6 6 6 6 5 5 6 5 5 6 5 6 6 6 7 6 5 4 4 6 8 9 9 8 5 4 4 5 5 6 5 5 6 6 6 6 7 3 6 6 4 7 8 0 8 59 67 4 0 17 46 36 39 36 39 43 39 34 41 55 58 55 69 91 93 90 88 78 67 65 61 53 42 33 26 24 45 83 91 93 119 107 78 81 84 88 90 39 6 36 125 159 137 128 141 141 115 121 117 80 81 112 97 105 104 133 131 166 163 142 108 98 94 96 70 108 119 130 86 70 61 79 124 77 140 47 18 29 24 9 5 6 6 6 5 4 3 4 6 7 29 46 102 61 67 46 22 4 6 15 30 46 21 2 6 4 7 9 23 28 32 16 27 26 19 9 9 19 26 23 26 36 57 22 16 26 19 14 20 28 25 20 27 48 50 28 28 53 71 72 80 91 86 57 26 10 8 7 5 5 3 3 8 15 19 21 30 37 34 34 36 33 30 25 30 48 57 39 17 6 21 26 48 53 52 45 15 4 10 10 13 17 20 21 24 28 29 42 49 37 22 13 7 3 5 4 4 5 4 4 4 4 5 6 6 5 
7 7 6 7 7 6 7 7 6 6 7 6 7 7 7 6 6 6 6 6 6 6 6 6 6 5 5 5 5 5 6 6 6 6 7 7 5 4 5 8 9 10 10 7 5 5 5 5 6 6 6 5 6 6 6 6 7 4 6 6 5 9 8 0 27 54 37 2 7 37 51 31 22 27 29 27 29 41 54 61 52 45 61 86 85 74 67 62 65 66 62 49 39 37 44 54 66 67 64 64 69 61 49 47 55 74 50 7 35 116 149 87 89 125 147 136 121 107 102 103 96 129 123 125 114 148 157 180 120 100 103 92 70 86 97 118 110 113 84 54 57 78 85 69 69 28 25 39 21 6 5 5 5 5 5 5 4 4 6 6 12 21 86 62 69 67 48 11 5 11 33 51 25 6 6 5 7 11 27 32 33 19 34 28 18 9 9 21 29 29 36 52 52 25 21 33 29 25 24 18 14 16 16 21 25 26 36 58 63 45 38 53 78 77 49 26 11 7 5 8 13 13 8 5 14 17 27 36 35 34 31 25 17 14 20 37 50 49 46 45 27 31 56 69 76 69 35 21 26 21 18 19 19 20 23 26 38 40 32 18 9 7 6 4 5 5 6 6 5 5 5 5 6 5 6 6 
7 6 7 7 7 7 7 7 6 6 6 6 7 6 7 6 5 6 6 6 6 6 6 6 6 6 6 5 5 5 6 6 7 6 6 7 5 4 7 11 9 10 9 6 4 4 6 6 6 5 6 6 6 6 6 6 7 6 6 6 5 7 6 0 44 40 10 0 7 41 32 12 9 20 20 14 23 54 70 61 52 45 71 99 99 87 80 84 88 91 93 86 76 72 79 85 71 44 37 42 38 37 43 44 50 47 24 18 118 148 105 61 88 143 153 133 131 111 105 140 124 133 138 156 144 157 139 120 87 89 82 47 57 104 118 96 86 85 88 57 62 67 35 40 21 17 37 45 14 2 6 5 5 6 6 6 6 6 6 7 7 3 50 46 59 86 84 29 5 5 32 50 27 13 10 9 12 14 33 37 32 25 45 28 20 11 13 29 39 37 42 58 44 27 31 46 43 38 27 13 14 14 11 10 14 18 27 41 35 24 19 26 45 56 52 44 43 29 17 13 13 14 14 15 18 20 30 43 47 49 44 35 24 17 16 20 24 28 40 55 46 39 45 53 70 75 49 36 25 21 18 19 20 20 18 18 24 19 10 4 2 6 6 6 6 6 6 6 6 7 6 6 5 6 6 7 
6 6 7 7 7 6 7 7 6 6 6 7 6 7 6 6 6 6 6 6 6 6 6 6 6 6 6 5 5 6 6 7 6 6 7 7 6 4 7 13 10 10 9 6 4 4 5 6 6 6 6 6 6 6 6 6 8 5 6 5 5 5 1 5 45 25 0 2 8 28 14 3 5 10 12 13 36 75 83 60 66 65 97 107 89 81 76 86 90 99 114 128 131 120 100 87 38 27 30 38 36 33 39 44 54 44 44 89 165 97 55 88 141 160 150 134 138 132 131 150 132 127 148 170 140 123 104 81 84 75 38 20 80 114 93 72 66 60 82 67 54 39 12 20 12 22 48 40 6 2 7 6 6 6 7 7 6 8 7 8 8 1 32 25 31 54 74 64 15 6 28 40 26 23 19 18 20 19 40 41 37 35 57 30 21 13 16 38 54 53 52 59 46 31 38 51 48 45 46 37 31 23 17 20 23 17 14 21 16 15 17 19 20 21 26 31 45 47 44 34 21 16 18 24 13 13 22 36 46 57 62 56 32 25 23 23 20 17 24 36 63 59 50 36 32 37 29 21 15 16 17 17 12 7 5 5 6 5 2 2 3 7 7 6 7 6 7 7 6 6 6 5 5 6 6 6 
5 6 5 5 6 6 6 5 5 6 5 6 6 5 6 6 6 6 6 6 6 6 6 6 6 6 6 6 6 6 6 7 6 6 7 7 5 4 8 12 10 10 8 5 4 5 5 6 5 5 6 6 6 6 6 6 8 4 6 6 6 2 1 18 44 17 0 7 17 25 15 10 29 21 20 35 52 49 25 9 7 18 57 59 54 77 99 128 120 124 127 126 111 84 55 38 42 51 54 55 51 40 37 50 57 67 89 139 121 73 67 135 177 143 135 140 133 144 150 130 116 122 146 130 98 91 105 93 64 29 13 42 111 80 57 71 57 43 62 70 35 14 14 19 14 28 42 23 1 2 9 5 5 6 6 6 7 8 8 8 6 8 28 15 13 12 27 70 45 23 31 31 23 29 28 27 30 27 46 47 45 46 71 40 21 12 15 36 62 71 70 71 61 41 43 51 41 40 61 74 61 48 31 27 31 26 19 18 18 15 13 15 15 14 13 13 24 39 63 80 82 71 58 47 41 34 32 33 30 28 25 19 32 30 33 39 38 32 35 42 50 75 75 46 26 25 27 21 46 44 39 28 13 6 5 7 2 4 4 6 6 7 5 4 6 6 6 6 6 6 5 6 5 5 5 5 
5 6 6 5 5 5 5 5 6 6 6 6 6 6 6 6 6 6 6 6 6 6 6 7 7 7 6 6 6 6 7 7 6 6 6 5 6 6 8 10 10 9 7 5 5 5 5 6 5 5 6 6 6 6 6 6 7 4 7 7 7 1 3 37 40 12 1 11 30 28 18 17 9 3 12 44 55 27 7 4 8 21 56 38 20 37 55 81 93 100 104 101 93 86 84 85 95 93 74 59 53 46 55 79 86 77 89 135 87 86 114 181 151 109 118 140 131 138 142 110 109 108 109 82 89 98 93 55 18 6 25 82 85 48 55 61 37 37 56 73 32 13 25 19 13 27 29 10 2 6 10 3 6 6 6 7 8 9 10 9 12 14 21 10 18 8 3 32 75 56 47 32 26 32 32 31 40 38 55 54 55 55 82 55 28 19 17 29 55 75 80 78 73 52 55 61 42 31 41 48 75 75 48 23 24 34 31 20 22 17 14 15 16 15 13 12 10 11 18 39 72 95 90 75 84 77 81 85 83 84 81 72 60 47 37 35 34 33 40 50 61 87 88 80 85 101 107 82 56 37 18 8 3 2 3 4 4 6 7 7 6 5 5 5 5 6 5 5 5 5 5 5 6 5 5 5 
6 5 6 6 6 6 6 6 5 6 6 5 6 6 6 6 6 6 5 6 5 6 7 6 7 6 6 6 6 6 6 7 7 7 6 6 5 7 7 6 9 8 7 6 5 5 6 6 6 5 6 6 6 6 6 6 7 5 7 6 8 2 6 53 26 6 0 12 35 20 9 9 0 7 23 41 28 6 0 4 7 17 53 36 19 37 57 94 112 118 124 125 121 120 126 132 126 85 61 59 53 56 77 99 113 90 94 119 88 117 152 170 109 92 96 118 131 126 114 101 99 89 87 80 113 82 40 9 3 13 46 81 49 44 59 35 23 43 63 63 34 24 27 11 11 29 22 4 5 11 10 5 9 9 8 9 11 12 13 12 26 24 21 9 29 27 5 12 74 85 65 43 34 34 36 33 51 55 69 63 61 53 78 70 46 39 30 34 53 80 88 83 73 54 56 64 50 40 38 28 58 74 56 28 24 36 38 30 25 22 17 16 16 14 16 19 19 16 13 15 29 58 86 97 83 77 82 89 93 97 96 85 86 60 38 29 27 27 36 48 56 63 58 75 103 111 94 53 28 13 4 2 4 7 6 7 5 6 5 6 4 4 5 6 5 5 5 5 6 5 6 5 5 6 6 6 
5 5 6 6 6 6 6 6 6 5 5 6 6 6 5 5 6 5 5 6 6 6 6 7 7 7 6 6 6 6 7 6 6 7 7 5 6 8 7 4 9 8 7 6 6 6 7 6 6 5 6 5 6 6 6 6 6 6 8 5 7 3 7 60 13 2 3 17 36 13 0 2 0 23 48 36 10 1 4 13 8 16 54 42 24 41 59 104 133 139 150 163 168 160 146 133 125 62 61 92 87 87 102 98 106 126 137 104 90 153 179 115 88 87 72 88 128 114 85 93 79 79 102 112 119 34 5 3 12 39 47 59 42 45 43 22 24 56 66 39 27 30 22 7 13 35 22 4 7 14 9 8 11 11 10 11 13 14 15 16 37 40 36 15 29 41 18 19 56 96 76 52 44 35 41 38 59 68 82 68 62 47 72 73 60 58 50 46 63 91 101 93 70 46 42 49 53 67 69 50 35 54 58 45 40 42 43 46 36 25 18 16 17 17 15 15 15 31 38 24 11 15 38 66 45 39 43 51 60 70 74 66 65 50 41 41 42 42 47 56 78 88 86 107 106 65 29 4 1 1 2 5 5 4 4 4 6 6 6 6 6 5 5 5 6 5 5 6 6 6 5 6 6 7 7 8 
6 6 6 6 5 6 5 5 6 6 6 6 6 7 6 7 6 7 6 7 7 6 7 6 6 6 7 7 6 6 5 6 6 5 6 7 6 6 7 7 10 9 8 6 6 6 7 7 7 7 7 6 6 7 7 7 2 10 6 5 5 2 16 41 6 6 10 17 14 5 0 1 8 51 41 10 2 8 25 29 27 24 31 38 30 30 60 100 131 159 176 163 144 134 127 118 101 111 118 114 106 108 121 138 122 133 119 89 126 139 122 84 59 65 115 126 110 90 65 88 83 114 101 89 51 5 0 17 36 26 29 32 19 21 24 19 41 66 51 36 31 31 30 15 11 32 15 6 12 16 23 23 18 19 11 11 21 15 10 20 36 65 45 34 27 36 38 40 55 62 56 50 60 36 46 44 42 65 85 83 60 62 79 60 70 71 81 65 64 68 99 105 85 78 75 69 62 64 71 77 61 40 28 22 46 58 36 38 19 19 21 22 25 25 24 22 23 28 53 80 60 25 23 46 52 29 9 12 17 22 41 37 53 39 35 40 35 30 50 87 109 133 148 115 54 12 0 0 4 3 4 4 5 5 5 6 5 5 5 4 4 5 4 4 5 5 5 6 5 6 5 5 4 5 7 7 
5 5 5 6 6 5 6 6 6 6 6 7 7 6 6 7 6 7 7 7 7 6 7 7 6 6 6 7 6 6 6 5 6 6 6 7 6 7 6 7 10 8 7 6 6 6 6 7 7 6 7 7 7 6 7 6 4 8 6 6 4 5 21 38 5 4 9 15 11 3 3 10 41 51 24 10 12 19 25 20 7 13 20 18 20 41 77 98 128 156 173 154 128 123 135 142 109 116 123 126 124 123 131 136 161 146 126 115 130 116 83 53 55 92 133 111 96 108 100 97 86 105 69 38 23 11 20 41 25 14 17 34 22 20 20 23 44 66 54 44 43 41 42 30 52 47 20 12 18 27 31 16 19 29 26 22 29 27 26 35 49 71 53 46 40 50 47 51 81 68 55 56 73 42 47 50 36 49 80 112 93 71 64 41 45 63 97 88 77 66 86 90 79 92 98 86 71 67 65 60 46 34 30 31 46 49 27 27 27 36 44 40 27 22 26 32 22 26 44 70 73 51 39 40 50 44 27 24 27 40 57 45 34 42 48 40 26 19 27 41 66 60 47 26 8 0 0 7 4 4 4 5 5 5 6 5 5 5 5 5 4 5 5 5 5 5 5 6 6 6 5 5 6 6 7 6 
5 6 5 6 6 6 6 6 6 6 7 6 7 6 6 6 7 7 6 7 7 6 7 6 7 7 7 7 7 7 6 6 6 6 6 6 6 6 6 7 8 8 6 6 6 6 7 7 7 7 7 6 7 7 7 7 6 6 5 6 2 9 29 30 5 3 7 12 7 1 8 21 53 29 6 6 14 17 16 8 4 0 3 18 43 69 93 107 149 152 148 143 152 167 166 153 174 173 177 184 193 200 203 203 183 150 137 152 128 94 63 54 59 115 151 129 102 100 91 67 85 91 47 21 26 32 37 37 13 10 19 50 22 14 13 27 60 75 57 50 49 49 62 60 68 51 31 25 26 42 52 31 14 29 35 34 37 33 36 54 75 90 79 69 65 76 70 72 87 70 63 70 87 45 44 50 49 36 44 84 97 91 88 65 34 59 103 111 102 88 101 102 87 74 77 84 65 39 32 39 52 36 31 39 51 44 30 39 30 36 48 55 53 48 45 40 26 19 22 41 56 53 45 42 41 43 37 38 45 58 63 42 34 38 39 33 25 20 20 20 22 13 4 1 0 1 5 8 4 5 5 5 6 5 5 6 6 5 6 5 5 5 5 5 5 5 6 6 6 6 5 5 7 6 6 6 
6 6 5 6 5 5 5 6 6 6 6 7 7 6 6 6 7 6 7 6 7 7 7 7 6 6 6 7 6 6 6 5 6 6 6 6 6 6 6 6 8 7 7 6 5 6 6 7 6 6 7 7 7 6 6 7 7 5 5 6 1 12 36 22 4 2 7 12 6 1 13 32 27 10 2 6 9 8 6 2 6 1 13 57 73 57 73 121 143 149 152 160 183 204 202 183 147 136 124 125 138 149 151 149 140 118 122 155 113 89 85 108 150 176 168 155 118 89 104 109 93 77 46 38 54 53 32 18 10 20 40 74 19 8 10 35 79 91 75 67 64 59 78 84 88 81 60 41 36 43 41 24 22 32 44 56 59 50 56 83 88 101 103 79 72 93 87 85 93 76 75 87 121 81 57 42 56 36 33 61 90 112 109 66 46 59 87 100 97 98 109 109 122 88 80 93 81 47 28 25 42 23 18 27 38 35 29 34 41 41 51 70 82 86 76 59 64 42 33 44 54 51 47 50 42 59 78 81 66 63 73 73 47 36 34 43 46 32 17 11 6 1 1 3 7 7 7 3 5 5 6 5 6 6 6 7 5 5 6 5 5 5 5 6 5 6 5 6 6 6 6 5 6 6 6 5 
6 7 7 6 7 6 6 6 6 6 6 7 6 7 7 7 7 6 6 7 7 6 6 7 6 7 6 7 6 7 5 5 6 6 6 6 6 6 6 7 8 6 6 5 6 6 6 7 7 7 7 7 7 6 7 7 9 3 6 7 1 16 38 14 3 3 8 10 5 3 16 31 11 7 7 10 8 5 2 0 0 21 66 80 50 33 75 156 134 156 178 191 192 171 125 86 72 58 45 42 47 52 51 48 38 34 42 67 47 45 57 83 121 136 135 155 136 107 130 145 109 75 57 65 72 46 21 19 17 38 58 75 14 12 22 56 98 116 102 95 88 78 91 94 107 110 75 42 47 49 30 18 28 34 46 60 68 67 73 87 83 99 117 76 68 95 92 83 97 75 71 77 135 118 68 27 48 48 40 34 42 87 123 90 76 79 89 96 87 88 99 106 124 112 100 96 102 95 54 18 24 23 19 20 33 54 52 33 50 53 68 75 67 65 66 63 49 40 33 33 47 65 74 72 68 76 89 84 80 91 96 87 70 72 78 74 52 23 8 2 3 2 2 4 6 5 4 3 6 6 6 5 6 6 6 6 6 5 6 6 5 5 5 6 6 6 6 7 7 6 6 6 5 5 6 6 
7 7 7 6 6 6 7 6 6 6 6 6 7 7 6 7 7 6 7 6 7 6 7 6 6 6 7 7 6 6 5 5 6 6 6 7 6 6 6 6 7 6 6 5 6 6 6 6 7 6 7 7 6 6 7 7 8 4 6 7 2 17 35 7 2 3 9 8 3 7 17 20 8 6 8 7 5 4 0 1 33 90 102 44 19 44 101 139 132 173 201 177 121 68 31 13 8 5 1 2 3 4 3 1 1 1 3 8 6 7 10 14 23 46 64 87 99 111 140 144 103 74 74 86 72 38 23 39 40 55 62 60 18 31 58 92 131 144 113 98 95 99 119 118 120 122 82 42 45 44 25 29 41 45 50 58 72 90 90 79 91 100 137 88 79 110 105 97 89 79 80 73 118 112 69 32 26 55 66 41 21 48 97 92 75 82 92 102 82 79 85 96 92 79 65 64 81 94 70 35 17 35 30 18 31 83 112 68 54 62 83 89 67 55 48 41 39 42 26 8 15 47 70 67 68 68 74 63 70 106 111 97 103 132 128 67 18 3 3 4 5 5 6 5 4 4 5 6 6 5 5 6 5 5 6 5 5 6 6 6 6 5 6 6 6 7 7 7 7 7 6 6 5 5 5 6 
6 7 7 7 7 7 7 7 6 6 6 6 7 6 7 7 7 7 6 7 7 6 7 6 6 7 7 6 6 6 6 5 5 6 6 6 6 6 5 6 7 7 6 6 6 6 6 6 7 7 6 7 6 7 6 7 8 5 7 7 3 17 29 2 3 5 9 7 2 11 18 10 7 4 5 3 1 0 4 28 124 113 56 14 21 69 106 105 175 194 169 86 19 1 1 5 5 5 5 6 7 7 7 7 6 6 6 3 6 5 3 3 1 3 4 1 7 27 58 79 85 76 96 107 101 92 89 113 79 79 75 63 34 58 104 133 154 158 110 90 103 128 155 144 151 113 81 51 44 38 29 43 75 59 57 74 93 103 98 87 98 92 141 102 100 123 111 108 94 81 91 82 123 108 63 38 12 51 103 108 60 42 57 49 61 67 80 100 80 76 68 71 72 54 41 39 44 54 62 64 24 44 39 24 25 65 120 104 71 71 91 105 95 83 65 43 67 81 66 32 16 24 37 39 17 20 42 42 32 34 43 63 81 93 70 22 0 1 6 8 6 7 7 7 6 7 7 7 5 5 6 5 6 6 6 6 6 6 6 6 6 6 6 6 6 6 6 7 7 6 6 6 6 5 5 6 
7 7 7 7 6 7 6 6 6 6 7 6 7 6 7 7 7 7 6 6 7 7 7 7 7 7 6 7 7 6 5 5 6 6 6 6 6 6 6 6 7 6 6 6 6 6 6 5 6 7 7 7 7 7 7 7 7 5 7 8 5 17 24 2 4 7 10 5 3 14 19 6 6 4 7 4 2 1 17 91 101 36 2 7 48 91 121 151 174 110 36 3 1 5 9 7 5 6 8 7 6 6 8 9 4 8 10 2 9 5 7 10 9 4 8 7 4 3 4 14 10 11 27 33 51 91 104 118 113 105 98 79 54 76 129 159 149 156 113 99 129 164 179 147 129 57 40 49 66 81 79 91 83 39 34 70 88 73 67 76 90 70 122 99 101 115 98 100 100 61 63 73 132 110 46 17 22 39 80 110 82 60 87 99 84 81 87 115 100 91 66 57 53 59 50 28 18 28 44 47 55 64 67 63 40 44 97 118 77 69 78 88 84 84 78 58 22 52 91 93 57 29 30 44 39 11 24 57 61 35 17 28 26 14 4 0 2 7 7 2 8 6 3 3 6 7 6 4 5 5 5 5 5 5 5 5 7 6 6 6 6 6 6 6 6 6 7 7 7 7 6 6 8 6 5 5 
7 6 6 6 6 6 5 5 6 6 5 6 6 6 5 6 6 6 7 6 7 7 7 7 6 6 7 6 6 6 5 5 7 7 7 7 7 7 6 7 5 6 6 6 6 6 6 6 7 7 6 7 6 6 7 7 7 8 5 4 7 17 14 3 5 8 8 7 11 15 12 5 7 3 5 2 1 21 61 67 26 2 1 29 71 88 105 157 93 31 1 0 6 7 6 9 7 6 6 6 6 7 7 6 6 8 8 8 7 8 10 11 11 10 8 7 6 6 5 5 3 4 6 10 16 29 44 58 80 111 132 124 114 124 143 155 154 145 117 106 147 201 174 112 73 29 45 79 101 91 107 116 85 51 29 46 93 127 112 86 71 69 99 132 107 109 95 89 69 66 54 41 100 143 54 12 19 48 71 95 98 74 76 118 95 58 62 100 113 90 59 39 33 22 25 37 41 40 38 36 29 55 71 87 82 62 83 127 102 57 50 61 55 59 63 44 18 19 36 67 89 77 54 41 44 18 4 20 69 57 34 18 5 3 1 2 4 5 6 5 5 5 5 5 5 5 5 5 5 6 5 6 6 6 5 6 6 5 6 6 6 6 6 5 6 6 6 6 6 6 6 6 6 5 6 6 
6 6 6 6 6 5 5 5 6 5 5 6 6 6 6 6 7 7 6 7 6 7 7 7 6 6 6 6 7 6 6 5 7 7 7 7 7 6 7 7 6 6 6 6 6 6 6 6 7 7 7 7 7 7 6 7 6 7 6 3 8 16 12 3 4 6 9 7 7 9 8 4 6 4 1 4 18 50 46 15 1 5 27 54 72 92 105 108 21 5 1 3 8 6 5 7 6 6 6 7 6 7 6 7 7 7 8 8 6 7 7 9 8 8 7 6 7 7 7 6 4 4 2 2 2 5 9 11 27 51 89 124 151 165 160 148 144 128 115 130 173 185 126 64 47 38 79 123 148 139 142 122 74 51 30 31 59 103 127 131 102 87 64 132 119 111 82 81 79 59 30 14 54 149 92 34 11 35 62 82 77 71 76 136 115 75 59 73 97 99 80 58 30 13 15 33 41 36 47 64 39 43 44 74 99 89 102 130 107 57 36 33 22 18 22 21 15 9 11 32 67 95 106 111 50 43 15 1 32 62 40 2 5 4 4 4 5 6 5 5 5 5 6 6 5 5 5 5 6 6 5 6 6 5 5 6 6 6 6 5 6 6 6 5 7 7 6 7 6 7 7 6 5 6 6 6 
7 7 6 6 6 6 5 5 6 6 5 5 6 6 5 6 7 6 7 7 6 7 7 7 6 6 6 6 6 6 6 6 6 7 7 7 6 6 7 7 7 6 6 5 5 6 6 6 7 7 6 6 7 7 7 7 7 7 5 4 7 14 11 2 4 8 10 7 5 6 6 4 4 5 3 10 37 49 22 1 1 25 61 72 72 85 63 17 1 1 3 8 11 7 6 8 6 6 6 7 6 6 7 7 6 7 7 7 5 6 6 7 6 6 6 6 8 8 8 8 10 8 8 7 7 6 5 5 2 3 15 41 87 140 185 210 181 141 115 127 147 129 80 45 51 68 114 136 146 149 145 105 62 58 47 34 34 55 97 136 124 111 38 117 121 107 64 75 69 57 39 19 19 105 121 97 32 29 50 93 80 68 51 123 134 103 60 41 55 78 81 73 63 24 9 14 22 26 39 56 66 74 58 60 81 95 94 75 84 43 20 18 17 15 19 25 30 23 16 16 22 45 90 134 150 135 83 19 11 11 10 1 3 4 6 6 6 6 6 5 6 5 6 5 6 6 6 6 6 6 6 6 6 6 6 6 6 6 6 5 6 5 6 6 7 7 7 7 7 7 7 7 6 6 6 6 
7 7 6 6 5 6 6 5 5 6 6 6 5 6 6 6 6 6 7 7 6 7 6 7 6 6 6 6 6 6 6 5 7 6 6 7 7 6 6 6 8 8 7 6 5 6 6 6 7 6 6 6 6 7 7 6 7 7 5 3 7 12 10 2 6 9 10 7 5 7 7 5 4 8 8 20 39 22 2 2 22 59 75 66 62 57 28 2 3 5 7 8 6 5 5 6 6 6 6 6 7 7 6 7 6 7 7 6 5 5 5 7 8 7 7 6 7 7 8 7 7 7 7 7 10 10 9 8 9 3 1 1 9 34 85 134 167 139 125 134 133 105 72 55 98 127 145 143 140 149 145 102 48 44 45 47 48 52 77 105 137 146 60 109 130 131 77 91 69 62 71 62 20 68 113 133 85 52 54 90 78 82 39 80 117 126 88 45 40 52 53 51 94 69 43 27 20 24 40 58 67 85 73 61 70 92 101 78 73 46 19 15 22 18 10 10 24 45 73 77 60 50 59 74 134 158 151 57 16 4 3 1 4 5 6 7 7 6 6 6 6 7 6 6 6 6 6 6 6 6 6 6 6 6 6 6 5 6 6 6 6 5 5 6 6 6 6 6 6 6 6 7 6 6 6 6 
7 7 6 6 5 6 6 5 7 7 7 7 7 6 7 6 6 6 6 7 6 6 6 7 6 6 7 7 6 6 6 6 7 6 7 6 7 7 7 6 8 8 7 6 6 5 6 7 7 7 7 6 7 6 6 7 7 6 5 3 6 11 9 2 7 10 9 6 6 7 7 6 5 11 14 24 26 5 0 10 71 95 72 50 39 17 6 6 6 7 7 4 3 5 6 6 6 6 6 5 6 6 6 6 6 6 7 6 5 6 6 7 7 7 6 6 7 6 7 6 6 5 5 5 7 7 6 6 10 8 6 4 0 1 9 24 58 68 96 132 151 137 108 90 131 160 155 155 150 154 145 103 33 22 19 36 66 90 100 103 127 152 97 87 125 151 96 91 86 68 81 92 53 81 109 113 102 87 77 67 50 97 49 42 67 104 109 81 71 63 42 29 51 72 82 60 27 16 33 66 84 84 78 83 78 73 89 94 68 61 33 19 25 25 15 12 17 33 61 86 101 104 94 82 100 93 73 17 4 6 8 3 5 6 6 7 7 6 7 8 6 7 6 6 6 7 7 7 6 6 7 6 7 6 7 6 6 6 6 7 6 7 7 6 6 6 6 5 6 6 6 6 6 6 6 6 
