P2
45 45
255
186 186 186 188 188 188 189 191 192 193 192 192 192 192 191 191 192 192 193 190 182 178 176 178 176 175 176 176 174 171 172 175 175 172 171 172 176 176 180 186 187 182 178 184 190 
187 187 187 188 188 188 190 192 192 192 192 191 190 189 189 190 191 191 186 179 178 177 178 180 177 176 175 174 173 173 174 172 170 170 172 176 178 184 184 179 174 174 181 185 184 
188 187 188 188 189 188 189 191 191 190 191 190 189 189 189 188 187 181 178 180 181 180 181 180 176 176 174 173 174 174 171 170 173 175 176 178 187 178 169 170 176 178 177 177 181 
189 188 188 188 188 188 189 189 189 189 190 189 188 187 184 180 178 179 180 182 181 180 180 178 177 176 174 170 172 171 170 174 176 172 175 172 141 163 173 176 175 172 173 179 185 
189 188 187 187 187 187 187 188 188 188 188 187 184 180 177 178 180 181 181 181 180 178 178 177 175 172 169 169 167 165 165 171 172 172 176 108 97 170 171 170 169 172 178 182 185 
187 187 185 185 185 184 186 186 186 185 183 180 178 177 179 180 180 180 177 173 175 176 177 177 175 170 167 160 160 165 168 170 167 178 123 127 157 166 165 168 171 172 177 181 180 
185 185 184 184 184 182 182 181 179 177 177 177 177 177 178 179 177 177 174 178 179 175 174 175 171 169 167 164 169 168 169 168 173 149 110 193 182 167 173 171 172 171 170 169 167 
183 182 181 180 178 175 174 175 173 174 176 179 178 178 177 174 176 180 182 178 171 171 175 176 175 173 171 171 169 166 167 166 166 170 168 220 172 169 168 166 164 160 161 164 169 
181 179 175 173 172 172 174 174 172 175 176 174 173 173 174 178 181 176 175 174 177 179 181 179 176 167 164 165 164 159 159 149 196 230 207 200 161 161 157 156 156 160 166 170 174 
176 173 171 172 171 170 171 171 170 170 170 172 174 179 180 175 170 172 177 176 171 169 169 167 165 163 162 159 156 157 150 168 244 236 244 203 149 156 157 160 163 165 168 171 173 
174 173 170 170 169 168 170 172 172 174 178 180 181 180 173 171 173 171 168 170 169 166 162 160 162 162 159 155 153 152 180 236 247 242 204 196 168 162 163 162 163 166 169 173 185 
170 169 168 170 172 172 173 175 176 178 180 181 175 170 168 165 164 164 169 175 173 164 165 168 169 159 157 160 173 219 255 255 236 244 237 177 135 165 163 165 168 169 169 173 178 
170 171 171 171 170 171 175 179 177 177 173 169 165 163 163 164 169 167 162 155 152 149 147 133 114 176 235 242 255 255 255 252 255 254 255 206 131 169 166 169 168 166 168 171 174 
169 170 167 168 171 176 178 176 169 165 165 164 164 165 165 162 143 132 93 98 96 92 85 85 149 245 255 255 253 253 254 237 251 251 255 229 106 148 166 159 162 164 167 171 175 
170 173 177 179 176 170 166 164 161 159 161 160 158 158 167 137 97 101 84 82 85 98 145 217 255 254 246 246 245 249 254 255 251 236 223 225 133 148 163 161 163 166 169 173 172 
180 178 172 164 159 155 155 156 158 158 158 156 159 166 126 84 76 82 96 129 182 227 250 241 187 230 251 255 255 252 235 215 198 199 227 219 185 167 166 165 167 169 169 168 167 
167 158 150 149 151 151 155 157 156 157 160 169 168 107 72 86 120 177 225 251 253 238 238 210 167 247 237 212 190 178 187 213 225 218 200 161 164 170 167 169 169 167 165 162 162 
151 151 151 152 153 152 152 152 156 163 173 133 81 86 148 214 250 255 249 246 241 232 208 181 165 155 158 183 215 243 255 255 236 170 153 164 172 170 164 161 160 156 155 156 153 
156 153 149 147 148 149 155 162 166 169 121 83 149 232 255 255 255 255 240 199 151 118 124 152 203 240 255 255 255 255 255 254 255 251 222 182 156 154 160 154 153 153 153 145 141 
144 146 147 148 155 162 164 162 160 114 72 134 239 219 190 183 180 167 150 80 81 184 196 148 162 173 188 204 220 233 244 253 255 255 255 255 233 190 158 152 155 155 149 144 150 
144 148 155 160 162 159 159 166 160 108 84 95 122 129 138 145 145 105 75 80 108 156 135 131 125 119 115 113 114 116 121 127 138 142 145 153 169 158 131 149 149 156 154 146 150 
152 159 161 159 159 163 165 152 135 131 139 156 164 170 173 173 177 179 163 148 160 165 170 166 166 167 164 163 162 162 159 156 153 146 137 132 126 126 144 145 143 143 145 150 156 
161 157 158 165 165 150 139 134 145 158 167 167 165 165 166 167 166 163 172 175 168 165 167 167 165 159 156 161 162 158 157 156 146 144 144 139 137 139 142 142 144 146 149 153 157 
153 151 155 157 148 148 155 161 161 162 165 165 167 168 165 165 166 170 166 163 167 167 165 160 151 148 159 154 149 140 139 133 133 136 136 135 138 141 144 147 147 149 150 150 151 
159 157 153 154 165 170 163 158 161 164 168 169 168 166 163 164 166 165 166 166 161 154 149 145 146 235 206 128 135 133 130 130 132 135 145 146 147 145 148 148 147 149 150 153 158 
154 157 166 176 168 157 157 160 163 165 165 165 162 162 163 163 164 163 159 150 146 145 147 139 172 255 215 129 137 128 141 153 136 144 146 146 147 147 148 150 151 157 160 160 164 
168 177 180 171 153 155 157 159 158 158 160 161 162 161 161 160 158 151 145 144 145 146 149 137 199 254 224 129 129 135 194 169 142 147 145 145 145 146 151 156 157 156 156 162 164 
178 170 163 153 154 154 154 154 155 158 160 159 156 155 156 151 144 138 142 147 146 143 142 133 225 255 235 137 142 192 184 145 146 144 144 145 149 153 160 155 151 148 149 147 147 
160 170 172 155 152 153 154 156 157 156 154 153 150 145 141 134 136 155 142 131 135 138 137 152 248 255 249 169 165 192 169 146 143 141 147 154 156 154 154 147 139 139 137 138 147 
169 161 154 151 151 152 152 153 152 149 147 145 141 138 144 168 220 246 231 186 147 144 147 184 255 254 254 244 193 192 166 129 145 151 155 152 150 150 148 146 146 145 143 141 141 
152 151 149 148 147 145 145 145 143 141 140 139 139 142 158 162 236 253 246 246 226 201 174 214 255 253 255 243 221 226 193 121 160 149 145 141 151 148 149 144 140 140 131 132 130 
151 149 147 145 141 142 144 141 138 137 139 141 136 131 137 146 159 235 245 238 244 249 251 255 255 255 252 219 172 171 204 249 252 239 227 197 146 143 140 136 137 130 130 129 125 
147 145 144 142 141 138 136 133 134 135 135 133 134 144 153 151 133 142 247 252 255 255 254 253 254 254 251 210 128 138 170 166 165 175 179 159 137 141 140 138 127 123 128 128 132 
144 141 137 136 137 136 137 134 131 126 132 141 149 154 153 113 77 177 251 251 253 253 255 255 255 255 251 255 255 228 171 139 128 113 124 125 136 135 128 122 124 124 125 134 142 
148 148 147 151 142 132 128 128 133 143 150 156 168 132 79 143 194 255 255 255 255 240 196 210 238 252 255 255 255 255 255 253 239 212 156 134 129 123 121 123 130 127 130 134 133 
159 152 154 142 126 127 134 143 153 155 158 165 111 89 188 255 239 202 178 162 140 112 93 108 124 138 154 174 195 210 224 242 247 189 144 133 131 131 133 134 133 132 125 129 135 
151 149 139 123 133 144 147 147 148 142 139 101 115 189 156 109 81 80 89 104 107 114 126 128 119 116 113 111 112 113 122 152 139 119 130 129 133 135 129 128 131 131 133 141 155 
153 137 130 142 148 143 138 145 143 160 157 122 142 73 63 93 126 143 154 140 129 131 124 120 124 124 125 122 123 127 131 128 125 133 132 130 126 124 126 132 135 130 126 140 163 
139 136 147 143 139 141 159 156 151 223 157 84 79 111 141 146 135 148 156 133 132 131 126 126 128 121 121 121 125 128 127 126 129 127 125 117 118 131 134 131 128 128 141 160 167 
145 139 141 144 152 155 154 145 177 125 87 122 142 145 138 129 128 128 125 129 133 134 127 123 122 128 126 119 123 125 119 124 122 117 117 122 126 125 126 139 147 155 159 150 143 
143 137 153 165 159 153 143 155 149 148 165 148 136 134 126 125 130 133 138 131 127 123 121 127 123 120 119 116 129 127 125 126 130 135 132 126 128 137 153 157 146 138 134 128 139 
141 142 135 155 158 144 143 149 156 161 158 144 143 131 129 133 133 128 126 124 134 126 128 127 126 124 124 124 132 124 124 134 148 136 130 137 147 153 150 135 133 134 135 133 132 
144 155 151 148 140 138 139 142 143 146 153 158 149 143 142 138 131 136 128 130 140 135 134 123 127 120 118 118 121 117 125 146 139 138 147 149 149 146 139 138 134 133 136 149 158 
151 145 140 139 141 142 144 149 152 156 154 148 147 145 137 136 138 144 139 139 131 130 131 123 123 119 118 116 114 122 136 141 146 147 147 148 151 149 148 147 134 134 147 163 168 
137 136 139 142 143 143 147 150 150 148 147 143 140 139 140 140 141 135 135 130 121 125 124 117 119 120 121 118 125 134 138 143 144 146 149 151 151 149 151 150 151 157 166 156 158 
