P2
45 45
255
211 215 221 228 228 232 240 243 244 243 243 242 242 242 242 242 242 242 242 242 242 241 241 239 243 249 252 251 244 238 243 246 244 243 240 241 240 245 248 250 251 249 250 246 243 
201 203 206 208 209 211 217 226 232 236 236 240 242 243 243 243 242 242 242 241 240 244 247 253 239 211 188 167 138 144 167 185 209 238 249 244 252 227 216 183 189 195 183 207 243 
193 201 203 207 208 210 209 210 211 215 215 220 225 229 232 236 240 241 240 246 249 234 210 183 171 118 103 109 123 140 127 117 131 137 190 233 184 115 90 90 96 101 98 106 124 
189 201 202 204 206 208 209 210 212 213 214 214 216 219 220 223 229 238 244 225 150 109 98 87 90 108 104 106 103 124 116 115 108 95 95 100 83 82 86 93 99 99 117 110 108 
188 199 201 204 205 206 208 210 210 212 213 214 216 217 219 230 221 192 181 115 81 84 92 102 96 108 124 118 122 113 101 117 126 108 96 92 92 96 103 89 121 118 122 96 103 
186 198 200 203 204 206 208 210 211 212 213 214 215 220 224 179 102 88 84 82 89 82 83 92 89 88 85 118 126 105 99 98 100 113 109 102 105 122 93 110 124 144 150 117 101 
190 200 203 204 206 208 211 214 214 217 218 217 222 213 166 83 78 94 99 97 85 90 99 109 100 105 126 146 162 116 118 125 122 101 94 102 123 180 160 185 142 110 160 155 130 
196 198 201 202 203 204 206 210 210 213 215 217 213 118 80 93 93 94 99 99 99 103 108 108 108 106 113 139 147 108 117 135 163 152 173 184 137 155 179 195 142 161 195 154 192 
192 195 197 201 205 206 204 204 213 220 220 229 193 89 93 88 86 98 93 83 95 89 86 89 90 82 85 99 104 102 118 130 119 121 154 169 163 131 132 187 133 169 175 217 215 
194 195 202 207 206 209 214 214 184 152 128 137 114 91 90 94 99 89 87 79 85 92 106 99 90 102 119 96 101 120 133 125 156 187 167 142 114 127 131 106 96 164 211 220 228 
193 193 199 200 198 208 197 140 89 74 80 77 70 78 81 78 85 91 90 99 113 121 136 143 103 123 114 107 124 156 158 174 165 197 200 175 174 155 139 149 144 187 188 216 238 
187 193 196 195 203 177 89 68 83 72 72 71 83 86 91 96 97 97 101 127 124 106 97 93 99 146 136 118 127 137 129 123 115 136 157 152 142 148 158 131 160 186 218 184 164 
181 194 188 189 203 183 96 110 88 134 121 119 134 80 78 98 97 101 118 132 127 127 143 128 89 192 157 100 141 164 166 204 183 194 208 208 180 196 181 120 161 157 148 85 86 
183 189 185 187 192 210 164 160 177 204 126 114 105 93 90 88 99 115 114 111 114 103 119 146 101 158 161 98 193 182 222 224 205 213 233 233 234 243 174 119 142 106 109 96 101 
180 192 183 199 193 203 149 109 123 102 75 74 82 96 87 95 95 98 109 125 136 163 116 96 92 92 94 152 202 187 231 239 231 231 233 234 229 244 171 105 120 95 99 114 138 
169 181 165 183 195 210 139 115 100 84 89 78 83 89 86 92 91 108 123 148 130 134 115 147 191 114 74 165 208 190 189 171 187 215 235 228 231 153 96 87 87 95 107 110 96 
166 170 173 165 181 207 152 85 82 84 86 101 102 108 113 106 119 120 136 128 139 134 135 111 143 110 87 102 152 162 136 139 162 164 162 170 197 132 85 116 148 127 107 99 95 
155 162 177 171 170 119 89 92 89 89 91 94 100 115 126 138 151 133 130 116 150 166 156 146 112 116 98 114 95 103 114 121 149 167 166 163 131 147 104 95 96 87 89 96 90 
151 167 152 167 143 100 83 93 91 98 113 99 108 119 115 116 110 113 100 103 109 136 138 138 172 120 96 108 105 104 103 103 114 136 138 104 87 92 84 94 112 87 87 87 95 
129 113 114 87 80 87 91 87 93 109 113 98 85 97 107 100 128 130 118 134 105 118 134 138 125 88 100 114 116 108 103 104 105 118 127 121 119 126 97 101 123 108 112 98 106 
151 86 102 126 98 85 87 86 91 103 128 125 122 118 117 135 144 153 140 128 111 97 98 105 120 95 93 111 111 118 103 97 96 111 122 124 131 118 85 108 114 108 106 95 92 
130 123 126 86 80 80 82 111 110 131 138 176 187 140 118 138 141 135 122 138 138 112 112 106 113 113 104 116 110 113 117 111 97 107 129 130 134 132 83 130 145 107 136 127 93 
161 174 136 92 86 95 106 111 104 126 118 119 183 148 107 130 142 116 115 142 130 104 112 97 107 95 99 108 113 111 123 127 123 132 124 121 140 146 98 135 179 132 149 129 103 
122 138 158 165 122 100 132 108 147 151 125 115 127 133 130 129 114 106 89 119 135 102 142 106 107 98 104 125 111 112 116 126 127 122 118 131 129 149 100 145 185 141 148 137 111 
137 139 134 134 87 75 142 120 162 195 151 106 104 139 136 130 146 135 136 173 187 108 125 121 96 97 116 139 110 119 126 151 156 132 163 165 158 175 100 151 212 205 207 175 145 
125 126 129 134 142 105 142 183 174 184 123 90 110 98 127 146 114 118 149 170 172 110 150 129 125 86 109 159 129 144 122 134 142 156 182 179 188 182 94 157 207 205 221 178 161 
104 115 101 96 117 134 155 158 138 152 127 142 164 171 174 191 185 166 159 149 160 120 143 147 144 108 109 173 149 151 132 94 92 119 185 169 185 184 100 159 180 180 168 113 91 
127 89 90 108 99 69 119 149 112 101 117 120 123 138 142 146 179 185 188 191 201 143 147 221 174 112 118 184 134 139 140 144 111 146 180 167 169 174 100 163 165 123 92 67 70 
127 125 81 107 106 87 93 120 119 111 82 83 113 103 106 126 125 138 146 159 172 139 136 227 209 115 117 163 101 111 118 145 166 196 185 175 170 148 105 137 102 82 80 74 72 
104 123 127 114 109 134 121 94 135 147 114 110 142 150 106 96 143 120 121 127 130 133 132 209 212 170 110 143 90 103 111 124 126 95 113 121 124 114 97 77 68 61 66 87 93 
171 167 161 157 105 126 147 126 114 115 134 162 139 143 157 105 127 102 107 113 117 126 126 179 170 133 115 184 104 86 87 117 110 85 89 68 71 90 82 62 72 79 82 89 88 
177 198 185 214 198 104 71 120 118 94 118 117 113 74 76 84 81 90 89 95 118 118 120 189 192 153 109 193 117 86 100 109 105 109 113 97 91 79 69 70 88 88 78 76 58 
181 163 176 177 208 180 96 78 117 114 107 84 45 41 45 68 76 96 97 80 109 104 111 185 148 113 109 181 82 81 86 71 71 63 78 96 83 64 69 68 74 74 73 76 70 
178 148 136 160 159 190 208 160 147 123 126 140 67 86 77 55 67 89 103 106 128 120 107 185 137 122 104 173 93 76 68 49 40 39 87 85 73 67 66 73 76 78 76 74 61 
156 150 134 148 156 176 195 218 192 151 141 144 131 68 61 48 48 62 83 83 99 109 107 181 194 167 95 165 168 135 128 120 121 99 81 62 57 54 51 57 66 70 71 61 51 
77 98 116 114 168 188 188 187 182 191 173 178 138 75 74 82 87 94 108 123 141 148 100 164 204 159 89 134 207 208 214 223 177 78 56 61 67 62 52 62 92 85 63 71 73 
123 86 119 94 136 133 194 208 197 172 211 196 176 180 189 197 200 199 207 209 209 182 131 157 193 190 175 175 201 217 235 190 90 74 62 60 63 61 59 56 77 66 49 52 50 
87 72 130 144 138 137 156 179 170 207 216 167 195 216 215 219 221 224 224 225 223 221 224 213 203 204 201 191 180 174 172 99 63 71 62 49 50 49 52 48 36 42 46 38 34 
56 93 118 132 174 160 159 180 152 177 196 141 118 173 215 209 204 193 193 184 176 164 157 151 143 133 129 123 118 112 104 90 72 70 57 47 43 36 41 38 33 33 34 33 35 
61 66 62 64 135 175 136 142 142 151 160 169 160 150 187 173 181 175 181 183 158 143 143 136 127 125 122 122 124 125 123 121 120 116 113 108 101 100 98 98 96 97 95 96 96 
52 65 90 67 109 152 136 131 152 186 192 207 208 201 198 187 199 216 202 210 214 205 194 201 193 188 176 159 148 147 146 144 144 144 145 143 137 133 132 130 128 127 125 122 120 
48 71 108 167 161 139 133 146 170 141 128 143 185 192 169 160 188 173 170 186 175 176 172 189 199 195 203 187 172 184 177 158 150 147 149 151 150 147 145 145 145 144 141 139 138 
148 138 135 122 107 103 101 99 113 123 98 95 146 160 177 147 139 145 175 181 160 165 157 190 179 157 181 176 181 190 200 188 182 183 158 154 145 150 151 149 146 142 143 142 137 
151 101 68 69 53 65 69 45 49 72 60 62 91 89 100 117 135 131 174 159 126 124 145 156 131 148 169 176 180 175 184 191 182 187 194 183 167 175 173 171 171 170 171 173 171 
69 64 70 79 73 69 89 96 98 92 102 95 101 113 95 63 92 121 158 121 122 154 140 149 136 113 119 116 141 144 168 190 170 169 186 213 214 215 215 213 211 206 200 194 192 
