P2
45 45
255
97 120 154 171 112 130 162 145 130 142 124 132 140 130 134 163 218 190 130 124 137 130 139 164 207 193 175 181 189 174 160 155 135 116 128 136 130 110 121 134 134 185 252 201 128 
126 150 138 164 118 111 142 160 145 116 118 130 123 154 182 168 159 138 134 166 154 149 150 166 210 201 181 181 184 173 157 160 144 132 138 129 127 105 103 129 131 137 171 155 117 
133 146 143 144 126 107 135 151 157 115 115 104 107 141 125 102 115 126 145 148 158 192 169 175 206 211 189 182 182 175 160 152 152 134 124 122 121 101 121 123 125 132 144 158 127 
136 152 153 113 117 95 102 113 120 117 128 124 125 127 122 140 139 183 110 98 162 198 168 169 190 200 188 184 183 187 181 169 142 129 124 128 122 112 128 122 138 149 166 148 144 
148 148 130 111 118 102 109 116 118 103 89 99 114 118 130 124 151 159 124 158 166 195 167 157 179 189 191 183 188 205 190 179 157 127 155 146 148 153 147 148 150 157 169 153 154 
143 132 121 133 125 102 108 112 105 103 94 85 118 161 146 125 148 146 150 166 168 184 169 130 168 188 193 185 194 208 229 204 179 144 165 129 145 154 158 143 152 158 161 177 155 
114 128 126 98 108 119 102 115 119 113 101 109 167 196 182 160 130 118 122 122 161 195 161 123 165 190 203 200 197 193 202 212 224 221 175 121 126 141 144 133 155 153 145 201 160 
154 145 130 118 114 123 117 102 97 96 130 170 196 185 176 162 148 112 96 102 120 147 99 103 161 186 194 187 186 181 189 185 158 187 175 125 128 129 129 133 147 149 144 172 151 
157 142 142 114 87 109 117 98 97 99 124 196 241 237 196 201 221 217 158 117 83 109 133 83 143 183 189 188 187 184 176 161 143 173 162 132 140 135 129 138 146 151 160 189 142 
96 127 125 88 78 84 107 120 120 103 177 244 252 255 253 248 255 255 255 238 175 82 122 149 139 179 189 190 177 190 193 179 161 149 152 153 137 138 138 140 149 192 215 214 139 
147 117 87 78 83 88 104 103 122 137 218 242 250 249 243 247 250 253 253 255 255 180 144 157 131 169 188 181 198 212 209 208 207 177 163 171 152 131 153 136 153 148 233 222 141 
152 131 134 106 83 103 109 104 133 196 235 237 235 239 238 250 249 253 241 235 247 255 255 220 183 164 177 188 193 207 208 197 196 188 169 145 131 132 132 138 152 129 170 225 154 
160 141 149 159 108 106 111 104 133 224 236 238 242 242 237 236 253 255 255 247 242 245 255 255 222 187 193 191 192 202 196 192 188 190 164 146 146 138 140 145 144 127 116 130 137 
129 117 121 136 109 103 114 107 140 231 241 243 246 240 243 243 254 244 237 253 255 252 251 254 248 220 226 200 200 207 194 191 189 184 167 149 149 142 146 155 145 131 127 121 124 
127 116 119 129 102 105 120 117 180 253 234 231 235 238 234 233 209 185 177 202 238 250 248 252 253 255 245 217 190 200 188 179 182 176 163 155 142 134 142 155 167 145 153 136 115 
132 130 128 141 116 125 167 151 221 250 233 225 192 208 196 189 183 172 158 181 201 227 229 251 252 254 255 252 198 188 179 182 183 175 154 148 138 134 144 143 154 139 145 175 130 
113 126 126 121 106 116 184 241 248 238 232 161 163 178 185 173 171 149 152 184 173 194 215 242 254 255 254 255 212 185 180 167 172 173 161 149 138 138 148 131 155 167 138 158 140 
118 136 138 113 113 118 213 253 247 236 178 149 184 160 159 157 145 148 158 177 170 190 191 213 243 252 255 250 227 201 189 184 192 187 165 152 138 151 145 125 148 183 142 133 137 
109 138 135 108 108 139 208 255 247 226 201 176 170 167 178 172 157 159 168 178 175 185 172 198 230 242 250 252 230 207 183 206 196 182 166 154 159 167 127 121 126 125 152 144 128 
103 112 176 106 127 137 173 244 231 207 175 165 172 174 183 169 171 174 178 183 183 174 182 188 207 222 238 254 255 238 187 181 181 169 162 154 171 194 155 126 120 115 133 131 120 
126 136 176 103 116 138 165 211 225 190 156 174 172 186 181 182 185 184 181 182 185 176 182 178 191 199 222 247 254 242 199 180 183 168 164 166 163 180 192 166 109 122 109 110 112 
94 117 176 103 104 139 159 204 215 187 181 187 185 194 187 200 192 191 183 178 197 192 177 175 191 192 215 245 254 254 221 181 181 171 167 172 160 163 218 201 105 117 112 106 100 
86 133 201 105 108 152 196 214 207 191 192 196 197 204 199 205 197 182 174 168 163 182 187 180 188 191 215 241 252 254 238 190 187 175 167 171 157 138 169 144 118 118 126 123 106 
112 157 185 101 103 173 211 210 207 195 194 209 206 207 201 199 195 174 170 140 141 175 192 185 185 202 219 237 248 252 219 202 203 174 168 166 145 136 115 117 118 126 124 113 126 
105 164 177 96 99 158 185 179 200 199 191 209 206 203 198 198 200 190 162 161 174 181 193 196 183 196 215 233 243 250 208 181 184 172 160 145 139 135 124 127 105 114 113 92 92 
102 162 187 149 124 153 170 165 188 211 192 200 197 196 175 187 212 183 159 167 171 181 193 201 191 182 203 225 243 248 195 161 172 165 147 137 140 131 124 135 107 104 112 87 91 
113 119 131 144 139 107 166 146 192 219 201 201 192 190 158 141 198 188 170 170 177 187 195 202 199 189 205 222 242 243 197 163 163 158 140 141 137 124 121 129 117 103 124 97 102 
113 117 117 136 150 93 139 203 224 213 204 179 200 195 159 150 194 192 180 182 186 197 201 203 203 183 198 223 240 243 179 155 160 158 139 138 132 125 132 128 124 119 110 90 100 
117 115 118 130 144 99 99 187 236 211 182 173 182 199 189 187 205 199 178 187 186 195 202 202 205 176 186 208 231 209 165 158 160 160 158 154 142 135 141 127 130 125 118 106 129 
128 127 126 124 133 109 111 172 233 208 180 164 156 207 211 195 205 213 200 190 184 192 196 202 207 179 178 206 214 166 160 162 166 166 161 165 152 154 134 116 131 116 116 136 140 
135 124 118 119 126 112 107 187 224 209 185 180 172 187 220 208 202 214 212 192 188 162 182 204 206 191 180 201 172 150 165 165 166 155 143 148 157 157 152 132 133 130 115 137 138 
117 119 115 119 113 107 110 181 216 211 203 194 189 181 218 220 204 213 212 191 171 152 193 200 205 193 197 220 229 238 240 241 241 228 201 199 199 159 150 147 130 133 140 140 140 
103 123 124 115 111 109 110 151 205 226 218 215 198 181 195 224 207 209 185 177 167 191 197 199 202 193 193 202 220 235 248 255 249 250 254 255 255 234 147 138 134 128 132 145 145 
123 122 112 107 98 121 153 129 165 220 228 220 207 184 186 209 220 199 176 183 194 200 189 200 198 192 187 185 181 181 209 220 207 210 204 206 224 248 205 136 142 131 126 141 150 
176 161 92 94 103 168 145 123 130 154 208 222 214 192 194 197 212 225 222 215 203 188 192 200 194 191 185 182 182 185 198 201 209 202 199 193 191 198 223 158 138 134 121 137 152 
164 106 85 95 163 152 128 143 131 132 194 224 218 203 202 198 174 200 222 219 208 200 203 195 192 188 184 180 179 184 199 203 203 201 200 198 199 199 209 178 142 147 132 120 131 
101 119 121 146 143 172 212 128 122 195 243 242 232 210 211 193 173 162 185 214 216 209 201 193 193 185 183 179 174 184 202 205 206 205 202 201 203 206 208 195 170 172 143 129 131 
145 142 179 160 100 199 208 140 186 255 237 228 227 215 207 195 178 175 178 193 206 203 198 198 192 183 181 176 173 191 206 209 209 208 207 207 209 210 209 206 177 178 157 149 127 
124 135 180 169 103 172 172 191 241 208 185 204 217 208 200 184 173 180 186 196 202 202 199 202 192 184 181 171 180 196 206 212 211 211 209 211 212 210 203 226 208 179 165 156 143 
117 111 127 143 122 128 178 214 190 181 186 193 209 207 197 182 163 166 181 195 201 200 198 203 193 185 180 168 190 197 206 213 212 212 212 212 211 209 201 223 226 170 156 130 137 
123 100 108 128 131 160 227 209 196 192 185 184 198 195 195 198 181 158 161 183 197 196 197 205 193 185 176 180 198 200 207 213 212 213 213 213 212 208 200 239 239 159 135 106 99 
227 194 138 127 133 208 205 212 206 199 191 187 185 188 191 196 199 188 174 177 185 187 189 203 191 178 182 195 196 200 207 212 212 212 214 214 212 197 224 245 249 186 141 143 134 
210 251 203 115 187 218 193 216 210 204 199 193 189 189 190 192 197 200 196 188 185 181 181 195 185 180 194 197 194 201 207 209 209 210 211 213 200 210 246 239 246 220 152 141 127 
93 110 119 141 232 202 189 215 210 204 200 197 194 191 190 191 191 191 197 197 194 185 176 184 193 192 194 193 193 202 207 206 205 207 209 202 206 242 244 240 240 246 186 146 117 
148 129 108 189 240 187 184 209 209 204 200 196 195 192 191 191 189 188 190 197 198 189 180 183 196 194 190 190 194 203 206 206 199 201 206 205 237 247 241 240 237 250 213 163 142 
