P2
45 45
255
71 75 69 69 79 80 67 113 188 109 148 205 231 234 226 194 200 135 73 87 97 83 139 226 215 214 221 210 121 214 160 112 68 62 127 192 209 213 218 132 93 157 179 204 204 
118 138 159 133 74 72 70 61 107 181 164 217 173 146 161 183 123 47 46 50 52 54 78 171 252 246 242 167 165 241 214 222 179 114 194 220 226 228 243 204 89 168 206 219 214 
198 221 223 233 96 67 119 102 38 28 104 94 18 26 31 45 35 50 53 55 58 59 55 47 115 209 173 112 165 212 225 218 240 222 189 208 217 223 237 170 95 196 185 190 195 
204 224 228 229 85 142 208 210 188 37 83 35 38 44 42 37 42 47 50 50 51 56 59 60 53 62 111 140 145 201 223 233 238 233 202 208 225 223 235 114 127 209 178 188 209 
197 213 231 156 97 201 197 234 180 82 107 28 37 40 31 83 156 45 49 57 49 49 54 56 59 54 67 83 138 212 224 238 234 232 222 216 226 230 175 30 157 203 190 188 214 
153 193 174 51 164 196 229 202 39 84 67 31 36 35 45 186 142 33 49 51 47 49 54 58 60 60 55 55 68 165 230 222 229 233 226 219 235 176 27 0 164 198 194 196 214 
177 206 195 134 186 217 156 16 26 47 44 35 36 24 112 200 49 43 54 51 48 50 52 58 62 62 59 58 51 57 188 233 224 230 235 231 246 73 0 1 134 196 178 199 220 
172 204 215 191 221 139 0 27 65 41 43 36 29 52 194 119 29 47 52 49 47 54 56 57 61 62 61 59 61 55 87 203 233 242 222 167 164 152 91 133 190 199 183 191 221 
170 201 203 94 80 0 30 98 39 29 31 38 21 117 219 73 40 46 49 73 61 50 57 58 58 62 61 61 56 58 55 83 187 138 122 140 175 215 224 207 209 220 214 199 203 
164 207 126 0 0 4 166 96 21 36 34 27 52 183 210 67 48 49 52 74 92 46 53 56 57 59 69 63 66 83 64 56 39 18 86 143 197 208 216 219 219 230 226 219 207 
197 220 191 164 38 69 222 94 25 30 24 37 134 205 235 94 34 50 53 52 70 67 49 59 61 49 120 193 176 185 88 114 56 17 44 146 192 207 222 223 223 212 213 252 212 
212 227 229 208 67 143 203 149 24 51 119 139 160 182 218 192 69 40 50 68 77 63 48 57 62 53 127 247 231 201 82 91 66 32 23 143 195 205 230 230 212 216 203 165 177 
216 232 223 114 6 172 183 195 84 143 184 182 185 189 214 223 194 55 43 95 142 50 50 55 59 56 130 181 140 119 61 51 63 50 22 131 194 206 239 233 213 174 122 162 206 
191 220 161 11 16 187 185 200 188 174 176 194 206 215 216 222 230 96 35 119 231 72 44 53 58 57 78 83 69 64 48 121 163 57 24 131 192 207 240 230 207 137 198 201 197 
149 158 180 144 48 183 173 192 187 174 191 202 215 218 220 234 225 91 42 105 248 121 37 56 56 59 63 66 63 60 35 179 185 42 17 115 181 201 230 246 187 214 186 173 207 
154 185 184 116 18 174 179 182 170 171 194 200 217 218 213 220 230 105 41 78 173 123 43 41 46 50 65 65 62 49 94 192 82 12 18 81 141 166 196 198 208 207 115 171 206 
61 83 57 0 25 134 148 89 95 181 183 196 209 216 221 221 235 115 40 60 70 79 70 111 180 125 46 62 59 62 184 125 43 29 7 32 30 125 154 167 236 238 226 188 187 
36 0 6 62 31 26 61 0 73 194 182 195 203 218 226 223 232 97 36 54 56 67 73 90 193 218 55 60 59 91 135 63 80 124 0 1 34 211 228 224 235 237 246 236 171 
168 121 92 48 6 49 26 1 108 202 177 190 202 220 224 226 229 77 34 54 56 67 66 47 148 239 99 39 58 58 46 54 36 96 16 0 71 213 224 232 236 243 245 232 150 
154 124 60 10 22 24 15 0 137 211 184 183 200 221 224 225 224 66 32 49 50 44 72 144 169 225 162 45 102 114 144 61 63 190 173 59 56 199 211 224 232 240 253 209 78 
103 74 14 13 16 16 12 7 164 207 191 191 205 221 224 228 218 39 3 28 34 62 173 215 188 198 220 101 108 144 206 208 185 209 222 184 63 170 196 209 221 237 252 182 79 
90 38 9 12 14 14 6 30 193 201 192 198 213 225 224 235 200 22 85 157 158 131 125 173 189 181 232 168 118 145 199 211 200 197 225 238 90 88 175 177 179 175 190 151 67 
50 26 16 15 16 18 7 42 200 199 196 203 216 225 223 245 138 77 208 210 210 199 69 40 169 196 229 225 159 162 147 75 144 195 204 248 142 24 112 101 75 59 67 42 34 
30 30 21 13 18 19 5 48 198 197 197 208 219 225 225 235 73 152 199 189 211 176 155 102 183 204 230 236 193 188 93 102 175 207 207 220 154 1 47 37 23 37 34 43 49 
27 30 29 21 22 21 4 59 203 196 199 213 222 224 234 195 63 197 196 187 189 176 129 167 181 201 203 195 187 152 95 151 180 210 218 229 123 0 12 17 31 39 43 40 43 
23 23 27 23 18 21 1 73 210 195 200 216 223 223 237 124 100 212 183 192 178 174 194 191 194 206 123 115 170 189 194 197 200 206 224 236 133 0 4 34 37 41 47 39 97 
22 18 18 22 15 11 0 95 210 193 204 218 221 223 214 62 123 188 172 176 174 184 189 200 200 221 215 138 173 201 213 225 235 220 218 235 152 0 23 32 37 43 43 75 218 
25 25 11 10 14 26 24 119 207 195 205 217 218 217 170 34 126 171 172 168 171 181 192 193 203 235 245 156 156 182 203 229 241 216 209 226 148 0 29 31 42 49 37 139 238 
24 24 14 32 58 70 31 142 203 197 207 213 211 205 144 28 124 173 176 170 166 178 178 190 206 211 224 162 136 167 187 194 205 202 201 219 134 0 24 36 45 48 55 171 129 
20 15 38 53 97 68 23 168 203 198 210 211 204 193 134 17 109 144 147 162 160 163 162 181 191 190 192 154 138 160 173 182 195 197 192 216 112 0 27 35 47 45 79 151 56 
23 20 25 47 104 122 53 176 200 200 210 208 201 188 134 3 85 132 100 122 127 137 148 167 184 180 176 153 149 155 164 175 184 190 190 210 79 0 29 36 44 45 73 98 41 
13 15 9 21 69 104 83 184 199 202 212 204 196 190 133 0 45 130 115 115 105 133 136 151 177 182 163 135 155 162 161 172 178 184 187 204 59 0 32 37 42 43 52 53 34 
0 0 5 18 50 21 64 196 199 204 213 203 193 196 118 0 12 84 132 129 110 141 135 129 166 179 148 110 136 152 159 167 174 180 190 207 45 0 31 36 39 42 45 45 31 
34 28 3 6 22 27 100 196 198 207 212 202 200 203 96 0 2 47 109 121 114 124 149 125 141 170 142 99 126 136 144 161 176 185 194 207 48 0 10 38 42 41 40 33 23 
57 82 41 5 0 0 116 198 194 209 213 208 207 206 66 0 1 26 98 117 120 101 136 132 123 165 157 108 131 155 157 160 174 186 195 204 42 24 27 6 25 28 25 22 24 
91 78 55 35 25 19 149 194 197 208 211 205 213 193 25 0 0 18 84 112 121 89 116 136 113 151 134 97 129 154 169 175 182 189 200 196 26 14 75 6 2 23 27 24 24 
165 158 118 90 70 67 173 184 198 209 210 207 224 151 0 2 2 12 64 93 114 98 125 137 118 148 120 88 119 147 165 175 181 186 200 168 5 0 6 5 19 37 33 23 23 
202 208 179 144 76 81 175 179 198 213 212 213 230 98 0 4 5 8 46 87 113 105 133 146 131 151 109 76 83 101 138 167 175 183 205 95 1 3 0 0 22 38 30 24 30 
204 218 200 175 98 107 178 182 197 214 212 217 220 41 0 4 6 7 24 63 105 100 119 161 140 145 108 52 63 88 129 164 175 205 142 27 72 75 34 10 4 19 30 34 37 
222 244 213 155 47 85 153 168 195 215 214 233 178 5 5 6 6 6 10 42 95 99 86 131 128 129 83 34 44 66 112 173 178 143 41 42 128 193 148 86 58 28 20 33 39 
212 226 196 136 86 116 153 166 188 203 207 221 61 0 0 0 0 3 7 16 71 101 64 73 85 98 43 12 26 30 36 55 176 206 159 80 111 212 255 229 219 203 103 42 29 
206 213 213 223 232 230 227 223 220 216 215 204 146 140 118 79 28 0 0 0 16 42 30 52 69 36 0 1 9 11 2 0 85 123 68 56 82 138 193 215 226 253 156 63 40 
140 217 231 228 223 220 221 223 224 224 223 224 234 235 238 235 213 176 117 40 0 0 4 31 34 10 9 3 0 0 0 0 0 6 35 43 52 48 53 60 68 87 75 65 68 
93 219 232 231 229 225 225 226 226 224 225 228 228 228 226 226 232 238 240 235 119 17 25 32 46 51 56 52 45 36 27 54 95 60 52 46 42 49 44 43 46 41 65 169 188 
147 208 228 226 226 223 223 224 226 222 226 223 213 209 210 218 223 224 217 223 216 186 143 76 52 63 64 63 55 54 69 137 202 133 34 46 49 119 60 47 58 59 123 211 221 
