P2
300 200
255
0 0 0 0 0 0 0 0 0 0 0 0 0 0 0 0 0 0 0 0 0 0 0 0 0 0 0 0 0 0 0 0 0 0 0 0 0 0 0 0 0 0 0 0 0 0 0 0 0 0 0 0 0 0 0 0 0 0 0 0 0 0 0 0 0 0 0 0 0 0 0 0 0 0 0 0 0 0 0 0 0 0 0 0 0 0 0 0 0 0 0 0 0 0 0 0 0 0 0 0 0 0 0 0 0 0 0 0 0 0 0 0 0 0 0 0 0 0 0 0 0 0 0 0 0 0 0 0 0 0 0 0 0 0 0 0 0 0 0 0 0 0 0 0 0 0 0 0 0 0 0 0 0 0 0 0 0 0 0 0 0 0 0 0 0 0 0 0 0 0 0 0 0 0 0 0 0 0 0 0 0 0 0 0 0 0 0 0 0 0 0 0 0 0 0 0 0 0 0 0 0 0 0 0 0 0 0 0 0 0 0 0 0 0 0 0 0 0 0 0 0 0 0 0 0 0 0 0 0 0 0 0 0 0 0 0 0 0 0 0 0 0 0 0 0 0 0 0 0 0 0 0 0 0 0 0 0 0 0 0 0 0 0 0 0 0 0 0 0 0 0 0 0 0 0 0 0 0 0 0 0 0 0 0 0 0 0 0 0 0 0 0 0 0 0 0 0 0 0 0 
129 0 129 0 129 0 129 0 129 0 129 0 129 0 129 0 129 0 129 0 129 0 129 0 129 0 129 0 129 0 129 0 129 0 129 0 129 0 129 0 129 0 129 0 129 0 129 0 129 0 129 0 129 0 129 0 129 0 129 0 129 0 129 0 129 0 129 0 129 0 129 0 129 0 129 0 129 0 129 0 129 0 129 0 129 0 129 0 129 0 129 0 129 0 129 0 129 0 129 0 129 0 129 0 129 0 129 0 129 0 129 0 129 0 129 0 129 0 129 0 129 0 129 0 129 0 129 0 129 0 129 0 129 0 129 0 129 0 129 0 129 0 129 0 129 0 129 0 129 0 129 0 129 0 129 0 129 0 129 0 129 0 129 0 129 0 129 0 129 0 129 0 129 0 129 0 129 0 129 0 129 0 129 0 129 0 129 0 129 0 129 0 129 0 129 0 129 0 129 0 129 0 129 0 129 0 129 0 129 0 129 0 129 0 129 0 129 0 129 0 129 0 129 0 129 0 129 0 129 0 129 0 129 0 129 0 129 0 129 0 129 0 129 0 129 0 129 0 129 0 129 0 129 0 129 0 129 0 129 0 129 0 129 0 129 0 129 0 129 0 129 0 129 0 129 0 129 0 129 0 129 0 129 0 129 0 129 0 129 0 129 0 129 0 129 0 129 0 129 0 
86 172 0 86 172 0 86 172 0 86 172 0 86 172 0 86 172 0 86 172 0 86 172 0 86 172 0 86 172 0 86 172 0 86 172 0 86 172 0 86 172 0 86 172 0 86 172 0 86 172 0 86 172 0 86 172 0 86 172 0 86 172 0 86 172 0 86 172 0 86 172 0 86 172 0 86 172 0 86 172 0 86 172 0 86 172 0 86 172 0 86 172 0 86 172 0 86 172 0 86 172 0 86 172 0 86 172 0 86 172 0 86 172 0 86 172 0 86 172 0 86 172 0 86 172 0 86 172 0 86 172 0 86 172 0 86 172 0 86 172 0 86 172 0 86 172 0 86 172 0 86 172 0 86 172 0 86 172 0 86 172 0 86 172 0 86 172 0 86 172 0 86 172 0 86 172 0 86 172 0 86 172 0 86 172 0 86 172 0 86 172 0 86 172 0 86 172 0 86 172 0 86 172 0 86 172 0 86 172 0 86 172 0 86 172 0 86 172 0 86 172 0 86 172 0 86 172 0 86 172 0 86 172 0 86 172 0 86 172 0 86 172 0 86 172 0 86 172 0 86 172 0 86 172 0 86 172 0 86 172 0 86 172 0 86 172 0 86 172 0 86 172 0 86 172 0 86 172 0 86 172 0 86 172 0 86 172 0 86 172 0 86 172 0 86 172 0 86 172 0 
64 128 191 0 64 128 191 0 64 128 191 0 64 128 191 0 64 128 191 0 64 128 191 0 64 128 191 0 64 128 191 0 64 128 191 0 64 128 191 0 64 128 191 0 64 128 191 0 64 128 191 0 64 128 191 0 64 128 191 0 64 128 191 0 64 128 191 0 64 128 191 0 64 128 191 0 64 128 191 0 64 128 191 0 64 128 191 0 64 128 191 0 64 128 191 0 64 128 191 0 64 128 191 0 64 128 191 0 64 128 191 0 64 128 191 0 64 128 191 0 64 128 191 0 64 128 191 0 64 128 191 0 64 128 191 0 64 128 191 0 64 128 191 0 64 128 191 0 64 128 191 0 64 128 191 0 64 128 191 0 64 128 191 0 64 128 191 0 64 128 191 0 64 128 191 0 64 128 191 0 64 128 191 0 64 128 191 0 64 128 191 0 64 128 191 0 64 128 191 0 64 128 191 0 64 128 191 0 64 128 191 0 64 128 191 0 64 128 191 0 64 128 191 0 64 128 191 0 64 128 191 0 64 128 191 0 64 128 191 0 64 128 191 0 64 128 191 0 64 128 191 0 64 128 191 0 64 128 191 0 64 128 191 0 64 128 191 0 64 128 191 0 64 128 191 0 64 128 191 0 64 128 191 0 64 128 191 0 64 128 191 0 64 128 191 0 64 128 191 0 
52 103 155 206 0 52 103 155 206 0 52 103 155 206 0 52 103 155 206 0 52 103 155 206 0 52 103 155 206 0 52 103 155 206 0 52 103 155 206 0 52 103 155 206 0 52 103 155 206 0 52 103 155 206 0 52 103 155 206 0 52 103 155 206 0 52 103 155 206 0 52 103 155 206 0 52 103 155 206 0 52 103 155 206 0 52 103 155 206 0 52 103 155 206 0 52 103 155 206 0 52 103 155 206 0 52 103 155 206 0 52 103 155 206 0 52 103 155 206 0 52 103 155 206 0 52 103 155 206 0 52 103 155 206 0 52 103 155 206 0 52 103 155 206 0 52 103 155 206 0 52 103 155 206 0 52 103 155 206 0 52 103 155 206 0 52 103 155 206 0 52 103 155 206 0 52 103 155 206 0 52 103 155 206 0 52 103 155 206 0 52 103 155 206 0 52 103 155 206 0 52 103 155 206 0 52 103 155 206 0 52 103 155 206 0 52 103 155 206 0 52 103 155 206 0 52 103 155 206 0 52 103 155 206 0 52 103 155 206 0 52 103 155 206 0 52 103 155 206 0 52 103 155 206 0 52 103 155 206 0 52 103 155 206 0 52 103 155 206 0 52 103 155 206 0 52 103 155 206 0 52 103 155 206 0 52 103 155 206 0 52 103 155 206 0 52 103 155 206 0 
42 85 128 170 212 0 42 85 128 170 212 0 42 85 128 170 212 0 42 85 128 170 212 0 42 85 128 170 212 0 42 85 128 170 212 0 42 85 128 170 212 0 42 85 128 170 212 0 42 85 128 170 212 0 42 85 128 170 212 0 42 85 128 170 212 0 42 85 128 170 212 0 42 85 128 170 212 0 42 85 128 170 212 0 42 85 128 170 212 0 42 85 128 170 212 0 42 85 128 170 212 0 42 85 128 170 212 0 42 85 128 170 212 0 42 85 128 170 212 0 42 85 128 170 212 0 42 85 128 170 212 0 42 85 128 170 212 0 42 85 128 170 212 0 42 85 128 170 212 0 42 85 128 170 212 0 42 85 128 170 212 0 42 85 128 170 212 0 42 85 128 170 212 0 42 85 128 170 212 0 42 85 128 170 212 0 42 85 128 170 212 0 42 85 128 170 212 0 42 85 128 170 212 0 42 85 128 170 212 0 42 85 128 170 212 0 42 85 128 170 212 0 42 85 128 170 212 0 42 85 128 170 212 0 42 85 128 170 212 0 42 85 128 170 212 0 42 85 128 170 212 0 42 85 128 170 212 0 42 85 128 170 212 0 42 85 128 170 212 0 42 85 128 170 212 0 42 85 128 170 212 0 42 85 128 170 212 0 42 85 128 170 212 0 42 85 128 170 212 0 
36 73 109 146 182 219 0 36 73 109 146 182 219 0 36 73 109 146 182 219 0 36 73 109 146 182 219 0 36 73 109 146 182 219 0 36 73 109 146 182 219 0 36 73 109 146 182 219 0 36 73 109 146 182 219 0 36 73 109 146 182 219 0 36 73 109 146 182 219 0 36 73 109 146 182 219 0 36 73 109 146 182 219 0 36 73 109 146 182 219 0 36 73 109 146 182 219 0 36 73 109 146 182 219 0 36 73 109 146 182 219 0 36 73 109 146 182 219 0 36 73 109 146 182 219 0 36 73 109 146 182 219 0 36 73 109 146 182 219 0 36 73 109 146 182 219 0 36 73 109 146 182 219 0 36 73 109 146 182 219 0 36 73 109 146 182 219 0 36 73 109 146 182 219 0 36 73 109 146 182 219 0 36 73 109 146 182 219 0 36 73 109 146 182 219 0 36 73 109 146 182 219 0 36 73 109 146 182 219 0 36 73 109 146 182 219 0 36 73 109 146 182 219 0 36 73 109 146 182 219 0 36 73 109 146 182 219 0 36 73 109 146 182 219 0 36 73 109 146 182 219 0 36 73 109 146 182 219 0 36 73 109 146 182 219 0 36 73 109 146 182 219 0 36 73 109 146 182 219 0 36 73 109 146 182 219 0 36 73 109 146 182 219 0 36 73 109 146 182 219 
31 63 94 125 157 188 220 0 31 63 94 125 157 188 220 0 31 63 94 125 157 188 220 0 31 63 94 125 157 188 220 0 31 63 94 125 157 188 220 0 31 63 94 125 157 188 220 0 31 63 94 125 157 188 220 0 31 63 94 125 157 188 220 0 31 63 94 125 157 188 220 0 31 63 94 125 157 188 220 0 31 63 94 125 157 188 220 0 31 63 94 125 157 188 220 0 31 63 94 125 157 188 220 0 31 63 94 125 157 188 220 0 31 63 94 125 157 188 220 0 31 63 94 125 157 188 220 0 31 63 94 125 157 188 220 0 31 63 94 125 157 188 220 0 31 63 94 125 157 188 220 0 31 63 94 125 157 188 220 0 31 63 94 125 157 188 220 0 31 63 94 125 157 188 220 0 31 63 94 125 157 188 220 0 31 63 94 125 157 188 220 0 31 63 94 125 157 188 220 0 31 63 94 125 157 188 220 0 31 63 94 125 157 188 220 0 31 63 94 125 157 188 220 0 31 63 94 125 157 188 220 0 31 63 94 125 157 188 220 0 31 63 94 125 157 188 220 0 31 63 94 125 157 188 220 0 31 63 94 125 157 188 220 0 31 63 94 125 157 188 220 0 31 63 94 125 157 188 220 0 31 63 94 125 157 188 220 0 31 63 94 125 157 188 220 0 31 63 94 125 
28 57 85 113 142 170 198 227 0 28 57 85 113 142 170 198 227 0 28 57 85 113 142 170 198 227 0 28 57 85 113 142 170 198 227 0 28 57 85 113 142 170 198 227 0 28 57 85 113 142 170 198 227 0 28 57 85 113 142 170 198 227 0 28 57 85 113 142 170 198 227 0 28 57 85 113 142 170 198 227 0 28 57 85 113 142 170 198 227 0 28 57 85 113 142 170 198 227 0 28 57 85 113 142 170 198 227 0 28 57 85 113 142 170 198 227 0 28 57 85 113 142 170 198 227 0 28 57 85 113 142 170 198 227 0 28 57 85 113 142 170 198 227 0 28 57 85 113 142 170 198 227 0 28 57 85 113 142 170 198 227 0 28 57 85 113 142 170 198 227 0 28 57 85 113 142 170 198 227 0 28 57 85 113 142 170 198 227 0 28 57 85 113 142 170 198 227 0 28 57 85 113 142 170 198 227 0 28 57 85 113 142 170 198 227 0 28 57 85 113 142 170 198 227 0 28 57 85 113 142 170 198 227 0 28 57 85 113 142 170 198 227 0 28 57 85 113 142 170 198 227 0 28 57 85 113 142 170 198 227 0 28 57 85 113 142 170 198 227 0 28 57 85 113 142 170 198 227 0 28 57 85 113 142 170 198 227 0 28 57 85 113 142 170 198 227 0 28 57 85 
25 51 76 101 126 152 177 202 228 0 25 51 76 101 126 152 177 202 228 0 25 51 76 101 126 152 177 202 228 0 25 51 76 101 126 152 177 202 228 0 25 51 76 101 126 152 177 202 228 0 25 51 76 101 126 152 177 202 228 0 25 51 76 101 126 152 177 202 228 0 25 51 76 101 126 152 177 202 228 0 25 51 76 101 126 152 177 202 228 0 25 51 76 101 126 152 177 202 228 0 25 51 76 101 126 152 177 202 228 0 25 51 76 101 126 152 177 202 228 0 25 51 76 101 126 152 177 202 228 0 25 51 76 101 126 152 177 202 228 0 25 51 76 101 126 152 177 202 228 0 25 51 76 101 126 152 177 202 228 0 25 51 76 101 126 152 177 202 228 0 25 51 76 101 126 152 177 202 228 0 25 51 76 101 126 152 177 202 228 0 25 51 76 101 126 152 177 202 228 0 25 51 76 101 126 152 177 202 228 0 25 51 76 101 126 152 177 202 228 0 25 51 76 101 126 152 177 202 228 0 25 51 76 101 126 152 177 202 228 0 25 51 76 101 126 152 177 202 228 0 25 51 76 101 126 152 177 202 228 0 25 51 76 101 126 152 177 202 228 0 25 51 76 101 126 152 177 202 228 0 25 51 76 101 126 152 177 202 228 0 25 51 76 101 126 152 177 202 228 0 
23 47 70 93 116 140 163 186 209 233 0 23 47 70 93 116 140 163 186 209 233 0 23 47 70 93 116 140 163 186 209 233 0 23 47 70 93 116 140 163 186 209 233 0 23 47 70 93 116 140 163 186 209 233 0 23 47 70 93 116 140 163 186 209 233 0 23 47 70 93 116 140 163 186 209 233 0 23 47 70 93 116 140 163 186 209 233 0 23 47 70 93 116 140 163 186 209 233 0 23 47 70 93 116 140 163 186 209 233 0 23 47 70 93 116 140 163 186 209 233 0 23 47 70 93 116 140 163 186 209 233 0 23 47 70 93 116 140 163 186 209 233 0 23 47 70 93 116 140 163 186 209 233 0 23 47 70 93 116 140 163 186 209 233 0 23 47 70 93 116 140 163 186 209 233 0 23 47 70 93 116 140 163 186 209 233 0 23 47 70 93 116 140 163 186 209 233 0 23 47 70 93 116 140 163 186 209 233 0 23 47 70 93 116 140 163 186 209 233 0 23 47 70 93 116 140 163 186 209 233 0 23 47 70 93 116 140 163 186 209 233 0 23 47 70 93 116 140 163 186 209 233 0 23 47 70 93 116 140 163 186 209 233 0 23 47 70 93 116 140 163 186 209 233 0 23 47 70 93 116 140 163 186 209 233 0 23 47 70 93 116 140 163 186 209 233 0 23 47 70 
21 42 64 85 106 128 149 170 191 212 234 0 21 42 64 85 106 128 149 170 191 212 234 0 21 42 64 85 106 128 149 170 191 212 234 0 21 42 64 85 106 128 149 170 191 212 234 0 21 42 64 85 106 128 149 170 191 212 234 0 21 42 64 85 106 128 149 170 191 212 234 0 21 42 64 85 106 128 149 170 191 212 234 0 21 42 64 85 106 128 149 170 191 212 234 0 21 42 64 85 106 128 149 170 191 212 234 0 21 42 64 85 106 128 149 170 191 212 234 0 21 42 64 85 106 128 149 170 191 212 234 0 21 42 64 85 106 128 149 170 191 212 234 0 21 42 64 85 106 128 149 170 191 212 234 0 21 42 64 85 106 128 149 170 191 212 234 0 21 42 64 85 106 128 149 170 191 212 234 0 21 42 64 85 106 128 149 170 191 212 234 0 21 42 64 85 106 128 149 170 191 212 234 0 21 42 64 85 106 128 149 170 191 212 234 0 21 42 64 85 106 128 149 170 191 212 234 0 21 42 64 85 106 128 149 170 191 212 234 0 21 42 64 85 106 128 149 170 191 212 234 0 21 42 64 85 106 128 149 170 191 212 234 0 21 42 64 85 106 128 149 170 191 212 234 0 21 42 64 85 106 128 149 170 191 212 234 0 21 42 64 85 106 128 149 170 191 212 234 0 
19 38 58 77 96 115 135 154 173 192 211 231 0 19 38 58 77 96 115 135 154 173 192 211 231 0 19 38 58 77 96 115 135 154 173 192 211 231 0 19 38 58 77 96 115 135 154 173 192 211 231 0 19 38 58 77 96 115 135 154 173 192 211 231 0 19 38 58 77 96 115 135 154 173 192 211 231 0 19 38 58 77 96 115 135 154 173 192 211 231 0 19 38 58 77 96 115 135 154 173 192 211 231 0 19 38 58 77 96 115 135 154 173 192 211 231 0 19 38 58 77 96 115 135 154 173 192 211 231 0 19 38 58 77 96 115 135 154 173 192 211 231 0 19 38 58 77 96 115 135 154 173 192 211 231 0 19 38 58 77 96 115 135 154 173 192 211 231 0 19 38 58 77 96 115 135 154 173 192 211 231 0 19 38 58 77 96 115 135 154 173 192 211 231 0 19 38 58 77 96 115 135 154 173 192 211 231 0 19 38 58 77 96 115 135 154 173 192 211 231 0 19 38 58 77 96 115 135 154 173 192 211 231 0 19 38 58 77 96 115 135 154 173 192 211 231 0 19 38 58 77 96 115 135 154 173 192 211 231 0 19 38 58 77 96 115 135 154 173 192 211 231 0 19 38 58 77 96 115 135 154 173 192 211 231 0 19 38 58 77 96 115 135 154 173 192 211 231 0 19 
18 36 55 73 91 109 128 146 164 182 200 219 237 0 18 36 55 73 91 109 128 146 164 182 200 219 237 0 18 36 55 73 91 109 128 146 164 182 200 219 237 0 18 36 55 73 91 109 128 146 164 182 200 219 237 0 18 36 55 73 91 109 128 146 164 182 200 219 237 0 18 36 55 73 91 109 128 146 164 182 200 219 237 0 18 36 55 73 91 109 128 146 164 182 200 219 237 0 18 36 55 73 91 109 128 146 164 182 200 219 237 0 18 36 55 73 91 109 128 146 164 182 200 219 237 0 18 36 55 73 91 109 128 146 164 182 200 219 237 0 18 36 55 73 91 109 128 146 164 182 200 219 237 0 18 36 55 73 91 109 128 146 164 182 200 219 237 0 18 36 55 73 91 109 128 146 164 182 200 219 237 0 18 36 55 73 91 109 128 146 164 182 200 219 237 0 18 36 55 73 91 109 128 146 164 182 200 219 237 0 18 36 55 73 91 109 128 146 164 182 200 219 237 0 18 36 55 73 91 109 128 146 164 182 200 219 237 0 18 36 55 73 91 109 128 146 164 182 200 219 237 0 18 36 55 73 91 109 128 146 164 182 200 219 237 0 18 36 55 73 91 109 128 146 164 182 200 219 237 0 18 36 55 73 91 109 128 146 164 182 200 219 237 0 18 36 55 73 91 109 
17 34 52 69 86 103 120 138 155 172 189 206 224 241 0 17 34 52 69 86 103 120 138 155 172 189 206 224 241 0 17 34 52 69 86 103 120 138 155 172 189 206 224 241 0 17 34 52 69 86 103 120 138 155 172 189 206 224 241 0 17 34 52 69 86 103 120 138 155 172 189 206 224 241 0 17 34 52 69 86 103 120 138 155 172 189 206 224 241 0 17 34 52 69 86 103 120 138 155 172 189 206 224 241 0 17 34 52 69 86 103 120 138 155 172 189 206 224 241 0 17 34 52 69 86 103 120 138 155 172 189 206 224 241 0 17 34 52 69 86 103 120 138 155 172 189 206 224 241 0 17 34 52 69 86 103 120 138 155 172 189 206 224 241 0 17 34 52 69 86 103 120 138 155 172 189 206 224 241 0 17 34 52 69 86 103 120 138 155 172 189 206 224 241 0 17 34 52 69 86 103 120 138 155 172 189 206 224 241 0 17 34 52 69 86 103 120 138 155 172 189 206 224 241 0 17 34 52 69 86 103 120 138 155 172 189 206 224 241 0 17 34 52 69 86 103 120 138 155 172 189 206 224 241 0 17 34 52 69 86 103 120 138 155 172 189 206 224 241 0 17 34 52 69 86 103 120 138 155 172 189 206 224 241 0 17 34 52 69 86 103 120 138 155 172 189 206 224 241 0 
15 30 46 61 76 91 106 121 137 152 167 182 197 212 228 0 15 30 46 61 76 91 106 121 137 152 167 182 197 212 228 0 15 30 46 61 76 91 106 121 137 152 167 182 197 212 228 0 15 30 46 61 76 91 106 121 137 152 167 182 197 212 228 0 15 30 46 61 76 91 106 121 137 152 167 182 197 212 228 0 15 30 46 61 76 91 106 121 137 152 167 182 197 212 228 0 15 30 46 61 76 91 106 121 137 152 167 182 197 212 228 0 15 30 46 61 76 91 106 121 137 152 167 182 197 212 228 0 15 30 46 61 76 91 106 121 137 152 167 182 197 212 228 0 15 30 46 61 76 91 106 121 137 152 167 182 197 212 228 0 15 30 46 61 76 91 106 121 137 152 167 182 197 212 228 0 15 30 46 61 76 91 106 121 137 152 167 182 197 212 228 0 15 30 46 61 76 91 106 121 137 152 167 182 197 212 228 0 15 30 46 61 76 91 106 121 137 152 167 182 197 212 228 0 15 30 46 61 76 91 106 121 137 152 167 182 197 212 228 0 15 30 46 61 76 91 106 121 137 152 167 182 197 212 228 0 15 30 46 61 76 91 106 121 137 152 167 182 197 212 228 0 15 30 46 61 76 91 106 121 137 152 167 182 197 212 228 0 15 30 46 61 76 91 106 121 137 152 167 182 
15 30 46 61 76 91 106 121 137 152 167 182 197 212 228 243 0 15 30 46 61 76 91 106 121 137 152 167 182 197 212 228 243 0 15 30 46 61 76 91 106 121 137 152 167 182 197 212 228 243 0 15 30 46 61 76 91 106 121 137 152 167 182 197 212 228 243 0 15 30 46 61 76 91 106 121 137 152 167 182 197 212 228 243 0 15 30 46 61 76 91 106 121 137 152 167 182 197 212 228 243 0 15 30 46 61 76 91 106 121 137 152 167 182 197 212 228 243 0 15 30 46 61 76 91 106 121 137 152 167 182 197 212 228 243 0 15 30 46 61 76 91 106 121 137 152 167 182 197 212 228 243 0 15 30 46 61 76 91 106 121 137 152 167 182 197 212 228 243 0 15 30 46 61 76 91 106 121 137 152 167 182 197 212 228 243 0 15 30 46 61 76 91 106 121 137 152 167 182 197 212 228 243 0 15 30 46 61 76 91 106 121 137 152 167 182 197 212 228 243 0 15 30 46 61 76 91 106 121 137 152 167 182 197 212 228 243 0 15 30 46 61 76 91 106 121 137 152 167 182 197 212 228 243 0 15 30 46 61 76 91 106 121 137 152 167 182 197 212 228 243 0 15 30 46 61 76 91 106 121 137 152 167 182 197 212 228 243 0 15 30 46 61 76 91 106 121 137 152 167 
14 28 42 57 71 85 99 113 128 142 156 170 184 198 212 227 241 0 14 28 42 57 71 85 99 113 128 142 156 170 184 198 212 227 241 0 14 28 42 57 71 85 99 113 128 142 156 170 184 198 212 227 241 0 14 28 42 57 71 85 99 113 128 142 156 170 184 198 212 227 241 0 14 28 42 57 71 85 99 113 128 142 156 170 184 198 212 227 241 0 14 28 42 57 71 85 99 113 128 142 156 170 184 198 212 227 241 0 14 28 42 57 71 85 99 113 128 142 156 170 184 198 212 227 241 0 14 28 42 57 71 85 99 113 128 142 156 170 184 198 212 227 241 0 14 28 42 57 71 85 99 113 128 142 156 170 184 198 212 227 241 0 14 28 42 57 71 85 99 113 128 142 156 170 184 198 212 227 241 0 14 28 42 57 71 85 99 113 128 142 156 170 184 198 212 227 241 0 14 28 42 57 71 85 99 113 128 142 156 170 184 198 212 227 241 0 14 28 42 57 71 85 99 113 128 142 156 170 184 198 212 227 241 0 14 28 42 57 71 85 99 113 128 142 156 170 184 198 212 227 241 0 14 28 42 57 71 85 99 113 128 142 156 170 184 198 212 227 241 0 14 28 42 57 71 85 99 113 128 142 156 170 184 198 212 227 241 0 14 28 42 57 71 85 99 113 128 142 156 170 
13 26 39 53 66 79 92 105 118 132 145 158 171 184 197 210 224 237 0 13 26 39 53 66 79 92 105 118 132 145 158 171 184 197 210 224 237 0 13 26 39 53 66 79 92 105 118 132 145 158 171 184 197 210 224 237 0 13 26 39 53 66 79 92 105 118 132 145 158 171 184 197 210 224 237 0 13 26 39 53 66 79 92 105 118 132 145 158 171 184 197 210 224 237 0 13 26 39 53 66 79 92 105 118 132 145 158 171 184 197 210 224 237 0 13 26 39 53 66 79 92 105 118 132 145 158 171 184 197 210 224 237 0 13 26 39 53 66 79 92 105 118 132 145 158 171 184 197 210 224 237 0 13 26 39 53 66 79 92 105 118 132 145 158 171 184 197 210 224 237 0 13 26 39 53 66 79 92 105 118 132 145 158 171 184 197 210 224 237 0 13 26 39 53 66 79 92 105 118 132 145 158 171 184 197 210 224 237 0 13 26 39 53 66 79 92 105 118 132 145 158 171 184 197 210 224 237 0 13 26 39 53 66 79 92 105 118 132 145 158 171 184 197 210 224 237 0 13 26 39 53 66 79 92 105 118 132 145 158 171 184 197 210 224 237 0 13 26 39 53 66 79 92 105 118 132 145 158 171 184 197 210 224 237 0 13 26 39 53 66 79 92 105 118 132 145 158 171 184 197 
12 24 36 49 61 73 85 97 109 121 134 146 158 170 182 194 206 219 231 0 12 24 36 49 61 73 85 97 109 121 134 146 158 170 182 194 206 219 231 0 12 24 36 49 61 73 85 97 109 121 134 146 158 170 182 194 206 219 231 0 12 24 36 49 61 73 85 97 109 121 134 146 158 170 182 194 206 219 231 0 12 24 36 49 61 73 85 97 109 121 134 146 158 170 182 194 206 219 231 0 12 24 36 49 61 73 85 97 109 121 134 146 158 170 182 194 206 219 231 0 12 24 36 49 61 73 85 97 109 121 134 146 158 170 182 194 206 219 231 0 12 24 36 49 61 73 85 97 109 121 134 146 158 170 182 194 206 219 231 0 12 24 36 49 61 73 85 97 109 121 134 146 158 170 182 194 206 219 231 0 12 24 36 49 61 73 85 97 109 121 134 146 158 170 182 194 206 219 231 0 12 24 36 49 61 73 85 97 109 121 134 146 158 170 182 194 206 219 231 0 12 24 36 49 61 73 85 97 109 121 134 146 158 170 182 194 206 219 231 0 12 24 36 49 61 73 85 97 109 121 134 146 158 170 182 194 206 219 231 0 12 24 36 49 61 73 85 97 109 121 134 146 158 170 182 194 206 219 231 0 12 24 36 49 61 73 85 97 109 121 134 146 158 170 182 194 206 219 231 0 
12 24 36 49 61 73 85 97 109 121 134 146 158 170 182 194 206 219 231 243 0 12 24 36 49 61 73 85 97 109 121 134 146 158 170 182 194 206 219 231 243 0 12 24 36 49 61 73 85 97 109 121 134 146 158 170 182 194 206 219 231 243 0 12 24 36 49 61 73 85 97 109 121 134 146 158 170 182 194 206 219 231 243 0 12 24 36 49 61 73 85 97 109 121 134 146 158 170 182 194 206 219 231 243 0 12 24 36 49 61 73 85 97 109 121 134 146 158 170 182 194 206 219 231 243 0 12 24 36 49 61 73 85 97 109 121 134 146 158 170 182 194 206 219 231 243 0 12 24 36 49 61 73 85 97 109 121 134 146 158 170 182 194 206 219 231 243 0 12 24 36 49 61 73 85 97 109 121 134 146 158 170 182 194 206 219 231 243 0 12 24 36 49 61 73 85 97 109 121 134 146 158 170 182 194 206 219 231 243 0 12 24 36 49 61 73 85 97 109 121 134 146 158 170 182 194 206 219 231 243 0 12 24 36 49 61 73 85 97 109 121 134 146 158 170 182 194 206 219 231 243 0 12 24 36 49 61 73 85 97 109 121 134 146 158 170 182 194 206 219 231 243 0 12 24 36 49 61 73 85 97 109 121 134 146 158 170 182 194 206 219 231 243 0 12 24 36 49 61 73 
11 22 33 45 56 67 78 89 100 111 122 134 145 156 167 178 189 200 211 223 234 0 11 22 33 45 56 67 78 89 100 111 122 134 145 156 167 178 189 200 211 223 234 0 11 22 33 45 56 67 78 89 100 111 122 134 145 156 167 178 189 200 211 223 234 0 11 22 33 45 56 67 78 89 100 111 122 134 145 156 167 178 189 200 211 223 234 0 11 22 33 45 56 67 78 89 100 111 122 134 145 156 167 178 189 200 211 223 234 0 11 22 33 45 56 67 78 89 100 111 122 134 145 156 167 178 189 200 211 223 234 0 11 22 33 45 56 67 78 89 100 111 122 134 145 156 167 178 189 200 211 223 234 0 11 22 33 45 56 67 78 89 100 111 122 134 145 156 167 178 189 200 211 223 234 0 11 22 33 45 56 67 78 89 100 111 122 134 145 156 167 178 189 200 211 223 234 0 11 22 33 45 56 67 78 89 100 111 122 134 145 156 167 178 189 200 211 223 234 0 11 22 33 45 56 67 78 89 100 111 122 134 145 156 167 178 189 200 211 223 234 0 11 22 33 45 56 67 78 89 100 111 122 134 145 156 167 178 189 200 211 223 234 0 11 22 33 45 56 67 78 89 100 111 122 134 145 156 167 178 189 200 211 223 234 0 11 22 33 45 56 67 78 89 100 111 122 134 145 156 
11 22 33 45 56 67 78 89 100 111 122 134 145 156 167 178 189 200 211 223 234 245 0 11 22 33 45 56 67 78 89 100 111 122 134 145 156 167 178 189 200 211 223 234 245 0 11 22 33 45 56 67 78 89 100 111 122 134 145 156 167 178 189 200 211 223 234 245 0 11 22 33 45 56 67 78 89 100 111 122 134 145 156 167 178 189 200 211 223 234 245 0 11 22 33 45 56 67 78 89 100 111 122 134 145 156 167 178 189 200 211 223 234 245 0 11 22 33 45 56 67 78 89 100 111 122 134 145 156 167 178 189 200 211 223 234 245 0 11 22 33 45 56 67 78 89 100 111 122 134 145 156 167 178 189 200 211 223 234 245 0 11 22 33 45 56 67 78 89 100 111 122 134 145 156 167 178 189 200 211 223 234 245 0 11 22 33 45 56 67 78 89 100 111 122 134 145 156 167 178 189 200 211 223 234 245 0 11 22 33 45 56 67 78 89 100 111 122 134 145 156 167 178 189 200 211 223 234 245 0 11 22 33 45 56 67 78 89 100 111 122 134 145 156 167 178 189 200 211 223 234 245 0 11 22 33 45 56 67 78 89 100 111 122 134 145 156 167 178 189 200 211 223 234 245 0 11 22 33 45 56 67 78 89 100 111 122 134 145 156 167 178 189 200 211 223 234 245 0 11 
10 20 30 40 51 61 71 81 91 101 111 121 132 142 152 162 172 182 192 202 212 223 233 0 10 20 30 40 51 61 71 81 91 101 111 121 132 142 152 162 172 182 192 202 212 223 233 0 10 20 30 40 51 61 71 81 91 101 111 121 132 142 152 162 172 182 192 202 212 223 233 0 10 20 30 40 51 61 71 81 91 101 111 121 132 142 152 162 172 182 192 202 212 223 233 0 10 20 30 40 51 61 71 81 91 101 111 121 132 142 152 162 172 182 192 202 212 223 233 0 10 20 30 40 51 61 71 81 91 101 111 121 132 142 152 162 172 182 192 202 212 223 233 0 10 20 30 40 51 61 71 81 91 101 111 121 132 142 152 162 172 182 192 202 212 223 233 0 10 20 30 40 51 61 71 81 91 101 111 121 132 142 152 162 172 182 192 202 212 223 233 0 10 20 30 40 51 61 71 81 91 101 111 121 132 142 152 162 172 182 192 202 212 223 233 0 10 20 30 40 51 61 71 81 91 101 111 121 132 142 152 162 172 182 192 202 212 223 233 0 10 20 30 40 51 61 71 81 91 101 111 121 132 142 152 162 172 182 192 202 212 223 233 0 10 20 30 40 51 61 71 81 91 101 111 121 132 142 152 162 172 182 192 202 212 223 233 0 10 20 30 40 51 61 71 81 91 101 111 121 
10 20 30 40 51 61 71 81 91 101 111 121 132 142 152 162 172 182 192 202 212 223 233 243 0 10 20 30 40 51 61 71 81 91 101 111 121 132 142 152 162 172 182 192 202 212 223 233 243 0 10 20 30 40 51 61 71 81 91 101 111 121 132 142 152 162 172 182 192 202 212 223 233 243 0 10 20 30 40 51 61 71 81 91 101 111 121 132 142 152 162 172 182 192 202 212 223 233 243 0 10 20 30 40 51 61 71 81 91 101 111 121 132 142 152 162 172 182 192 202 212 223 233 243 0 10 20 30 40 51 61 71 81 91 101 111 121 132 142 152 162 172 182 192 202 212 223 233 243 0 10 20 30 40 51 61 71 81 91 101 111 121 132 142 152 162 172 182 192 202 212 223 233 243 0 10 20 30 40 51 61 71 81 91 101 111 121 132 142 152 162 172 182 192 202 212 223 233 243 0 10 20 30 40 51 61 71 81 91 101 111 121 132 142 152 162 172 182 192 202 212 223 233 243 0 10 20 30 40 51 61 71 81 91 101 111 121 132 142 152 162 172 182 192 202 212 223 233 243 0 10 20 30 40 51 61 71 81 91 101 111 121 132 142 152 162 172 182 192 202 212 223 233 243 0 10 20 30 40 51 61 71 81 91 101 111 121 132 142 152 162 172 182 192 202 212 223 233 243 0 
9 18 27 36 46 55 64 73 82 91 100 109 118 128 137 146 155 164 173 182 191 200 209 219 228 0 9 18 27 36 46 55 64 73 82 91 100 109 118 128 137 146 155 164 173 182 191 200 209 219 228 0 9 18 27 36 46 55 64 73 82 91 100 109 118 128 137 146 155 164 173 182 191 200 209 219 228 0 9 18 27 36 46 55 64 73 82 91 100 109 118 128 137 146 155 164 173 182 191 200 209 219 228 0 9 18 27 36 46 55 64 73 82 91 100 109 118 128 137 146 155 164 173 182 191 200 209 219 228 0 9 18 27 36 46 55 64 73 82 91 100 109 118 128 137 146 155 164 173 182 191 200 209 219 228 0 9 18 27 36 46 55 64 73 82 91 100 109 118 128 137 146 155 164 173 182 191 200 209 219 228 0 9 18 27 36 46 55 64 73 82 91 100 109 118 128 137 146 155 164 173 182 191 200 209 219 228 0 9 18 27 36 46 55 64 73 82 91 100 109 118 128 137 146 155 164 173 182 191 200 209 219 228 0 9 18 27 36 46 55 64 73 82 91 100 109 118 128 137 146 155 164 173 182 191 200 209 219 228 0 9 18 27 36 46 55 64 73 82 91 100 109 118 128 137 146 155 164 173 182 191 200 209 219 228 0 9 18 27 36 46 55 64 73 82 91 100 109 118 128 
9 18 27 36 46 55 64 73 82 91 100 109 118 128 137 146 155 164 173 182 191 200 209 219 228 237 0 9 18 27 36 46 55 64 73 82 91 100 109 118 128 137 146 155 164 173 182 191 200 209 219 228 237 0 9 18 27 36 46 55 64 73 82 91 100 109 118 128 137 146 155 164 173 182 191 200 209 219 228 237 0 9 18 27 36 46 55 64 73 82 91 100 109 118 128 137 146 155 164 173 182 191 200 209 219 228 237 0 9 18 27 36 46 55 64 73 82 91 100 109 118 128 137 146 155 164 173 182 191 200 209 219 228 237 0 9 18 27 36 46 55 64 73 82 91 100 109 118 128 137 146 155 164 173 182 191 200 209 219 228 237 0 9 18 27 36 46 55 64 73 82 91 100 109 118 128 137 146 155 164 173 182 191 200 209 219 228 237 0 9 18 27 36 46 55 64 73 82 91 100 109 118 128 137 146 155 164 173 182 191 200 209 219 228 237 0 9 18 27 36 46 55 64 73 82 91 100 109 118 128 137 146 155 164 173 182 191 200 209 219 228 237 0 9 18 27 36 46 55 64 73 82 91 100 109 118 128 137 146 155 164 173 182 191 200 209 219 228 237 0 9 18 27 36 46 55 64 73 82 91 100 109 118 128 137 146 155 164 173 182 191 200 209 219 228 237 0 9 18 27 
9 18 27 36 46 55 64 73 82 91 100 109 118 128 137 146 155 164 173 182 191 200 209 219 228 237 246 0 9 18 27 36 46 55 64 73 82 91 100 109 118 128 137 146 155 164 173 182 191 200 209 219 228 237 246 0 9 18 27 36 46 55 64 73 82 91 100 109 118 128 137 146 155 164 173 182 191 200 209 219 228 237 246 0 9 18 27 36 46 55 64 73 82 91 100 109 118 128 137 146 155 164 173 182 191 200 209 219 228 237 246 0 9 18 27 36 46 55 64 73 82 91 100 109 118 128 137 146 155 164 173 182 191 200 209 219 228 237 246 0 9 18 27 36 46 55 64 73 82 91 100 109 118 128 137 146 155 164 173 182 191 200 209 219 228 237 246 0 9 18 27 36 46 55 64 73 82 91 100 109 118 128 137 146 155 164 173 182 191 200 209 219 228 237 246 0 9 18 27 36 46 55 64 73 82 91 100 109 118 128 137 146 155 164 173 182 191 200 209 219 228 237 246 0 9 18 27 36 46 55 64 73 82 91 100 109 118 128 137 146 155 164 173 182 191 200 209 219 228 237 246 0 9 18 27 36 46 55 64 73 82 91 100 109 118 128 137 146 155 164 173 182 191 200 209 219 228 237 246 0 9 18 27 36 46 55 64 73 82 91 100 109 118 128 137 146 155 164 173 182 
8 16 24 32 40 49 57 65 73 81 89 97 105 113 121 130 138 146 154 162 170 178 186 194 202 210 219 227 0 8 16 24 32 40 49 57 65 73 81 89 97 105 113 121 130 138 146 154 162 170 178 186 194 202 210 219 227 0 8 16 24 32 40 49 57 65 73 81 89 97 105 113 121 130 138 146 154 162 170 178 186 194 202 210 219 227 0 8 16 24 32 40 49 57 65 73 81 89 97 105 113 121 130 138 146 154 162 170 178 186 194 202 210 219 227 0 8 16 24 32 40 49 57 65 73 81 89 97 105 113 121 130 138 146 154 162 170 178 186 194 202 210 219 227 0 8 16 24 32 40 49 57 65 73 81 89 97 105 113 121 130 138 146 154 162 170 178 186 194 202 210 219 227 0 8 16 24 32 40 49 57 65 73 81 89 97 105 113 121 130 138 146 154 162 170 178 186 194 202 210 219 227 0 8 16 24 32 40 49 57 65 73 81 89 97 105 113 121 130 138 146 154 162 170 178 186 194 202 210 219 227 0 8 16 24 32 40 49 57 65 73 81 89 97 105 113 121 130 138 146 154 162 170 178 186 194 202 210 219 227 0 8 16 24 32 40 49 57 65 73 81 89 97 105 113 121 130 138 146 154 162 170 178 186 194 202 210 219 227 0 8 16 24 32 40 49 57 65 73 81 
8 16 24 32 40 49 57 65 73 81 89 97 105 113 121 130 138 146 154 162 170 178 186 194 202 210 219 227 235 0 8 16 24 32 40 49 57 65 73 81 89 97 105 113 121 130 138 146 154 162 170 178 186 194 202 210 219 227 235 0 8 16 24 32 40 49 57 65 73 81 89 97 105 113 121 130 138 146 154 162 170 178 186 194 202 210 219 227 235 0 8 16 24 32 40 49 57 65 73 81 89 97 105 113 121 130 138 146 154 162 170 178 186 194 202 210 219 227 235 0 8 16 24 32 40 49 57 65 73 81 89 97 105 113 121 130 138 146 154 162 170 178 186 194 202 210 219 227 235 0 8 16 24 32 40 49 57 65 73 81 89 97 105 113 121 130 138 146 154 162 170 178 186 194 202 210 219 227 235 0 8 16 24 32 40 49 57 65 73 81 89 97 105 113 121 130 138 146 154 162 170 178 186 194 202 210 219 227 235 0 8 16 24 32 40 49 57 65 73 81 89 97 105 113 121 130 138 146 154 162 170 178 186 194 202 210 219 227 235 0 8 16 24 32 40 49 57 65 73 81 89 97 105 113 121 130 138 146 154 162 170 178 186 194 202 210 219 227 235 0 8 16 24 32 40 49 57 65 73 81 89 97 105 113 121 130 138 146 154 162 170 178 186 194 202 210 219 227 235 0 
8 16 24 32 40 49 57 65 73 81 89 97 105 113 121 130 138 146 154 162 170 178 186 194 202 210 219 227 235 243 0 8 16 24 32 40 49 57 65 73 81 89 97 105 113 121 130 138 146 154 162 170 178 186 194 202 210 219 227 235 243 0 8 16 24 32 40 49 57 65 73 81 89 97 105 113 121 130 138 146 154 162 170 178 186 194 202 210 219 227 235 243 0 8 16 24 32 40 49 57 65 73 81 89 97 105 113 121 130 138 146 154 162 170 178 186 194 202 210 219 227 235 243 0 8 16 24 32 40 49 57 65 73 81 89 97 105 113 121 130 138 146 154 162 170 178 186 194 202 210 219 227 235 243 0 8 16 24 32 40 49 57 65 73 81 89 97 105 113 121 130 138 146 154 162 170 178 186 194 202 210 219 227 235 243 0 8 16 24 32 40 49 57 65 73 81 89 97 105 113 121 130 138 146 154 162 170 178 186 194 202 210 219 227 235 243 0 8 16 24 32 40 49 57 65 73 81 89 97 105 113 121 130 138 146 154 162 170 178 186 194 202 210 219 227 235 243 0 8 16 24 32 40 49 57 65 73 81 89 97 105 113 121 130 138 146 154 162 170 178 186 194 202 210 219 227 235 243 0 8 16 24 32 40 49 57 65 73 81 89 97 105 113 121 130 138 146 154 162 170 
7 14 21 28 35 42 50 57 64 71 78 85 92 99 106 113 120 128 135 142 149 156 163 170 177 184 191 198 205 212 220 0 7 14 21 28 35 42 50 57 64 71 78 85 92 99 106 113 120 128 135 142 149 156 163 170 177 184 191 198 205 212 220 0 7 14 21 28 35 42 50 57 64 71 78 85 92 99 106 113 120 128 135 142 149 156 163 170 177 184 191 198 205 212 220 0 7 14 21 28 35 42 50 57 64 71 78 85 92 99 106 113 120 128 135 142 149 156 163 170 177 184 191 198 205 212 220 0 7 14 21 28 35 42 50 57 64 71 78 85 92 99 106 113 120 128 135 142 149 156 163 170 177 184 191 198 205 212 220 0 7 14 21 28 35 42 50 57 64 71 78 85 92 99 106 113 120 128 135 142 149 156 163 170 177 184 191 198 205 212 220 0 7 14 21 28 35 42 50 57 64 71 78 85 92 99 106 113 120 128 135 142 149 156 163 170 177 184 191 198 205 212 220 0 7 14 21 28 35 42 50 57 64 71 78 85 92 99 106 113 120 128 135 142 149 156 163 170 177 184 191 198 205 212 220 0 7 14 21 28 35 42 50 57 64 71 78 85 92 99 106 113 120 128 135 142 149 156 163 170 177 184 191 198 205 212 220 0 7 14 21 28 35 42 50 57 64 71 78 85 
7 14 21 28 35 42 50 57 64 71 78 85 92 99 106 113 120 128 135 142 149 156 163 170 177 184 191 198 205 212 220 227 0 7 14 21 28 35 42 50 57 64 71 78 85 92 99 106 113 120 128 135 142 149 156 163 170 177 184 191 198 205 212 220 227 0 7 14 21 28 35 42 50 57 64 71 78 85 92 99 106 113 120 128 135 142 149 156 163 170 177 184 191 198 205 212 220 227 0 7 14 21 28 35 42 50 57 64 71 78 85 92 99 106 113 120 128 135 142 149 156 163 170 177 184 191 198 205 212 220 227 0 7 14 21 28 35 42 50 57 64 71 78 85 92 99 106 113 120 128 135 142 149 156 163 170 177 184 191 198 205 212 220 227 0 7 14 21 28 35 42 50 57 64 71 78 85 92 99 106 113 120 128 135 142 149 156 163 170 177 184 191 198 205 212 220 227 0 7 14 21 28 35 42 50 57 64 71 78 85 92 99 106 113 120 128 135 142 149 156 163 170 177 184 191 198 205 212 220 227 0 7 14 21 28 35 42 50 57 64 71 78 85 92 99 106 113 120 128 135 142 149 156 163 170 177 184 191 198 205 212 220 227 0 7 14 21 28 35 42 50 57 64 71 78 85 92 99 106 113 120 128 135 142 149 156 163 170 177 184 191 198 205 212 220 227 0 7 14 21 
7 14 21 28 35 42 50 57 64 71 78 85 92 99 106 113 120 128 135 142 149 156 163 170 177 184 191 198 205 212 220 227 234 0 7 14 21 28 35 42 50 57 64 71 78 85 92 99 106 113 120 128 135 142 149 156 163 170 177 184 191 198 205 212 220 227 234 0 7 14 21 28 35 42 50 57 64 71 78 85 92 99 106 113 120 128 135 142 149 156 163 170 177 184 191 198 205 212 220 227 234 0 7 14 21 28 35 42 50 57 64 71 78 85 92 99 106 113 120 128 135 142 149 156 163 170 177 184 191 198 205 212 220 227 234 0 7 14 21 28 35 42 50 57 64 71 78 85 92 99 106 113 120 128 135 142 149 156 163 170 177 184 191 198 205 212 220 227 234 0 7 14 21 28 35 42 50 57 64 71 78 85 92 99 106 113 120 128 135 142 149 156 163 170 177 184 191 198 205 212 220 227 234 0 7 14 21 28 35 42 50 57 64 71 78 85 92 99 106 113 120 128 135 142 149 156 163 170 177 184 191 198 205 212 220 227 234 0 7 14 21 28 35 42 50 57 64 71 78 85 92 99 106 113 120 128 135 142 149 156 163 170 177 184 191 198 205 212 220 227 234 0 7 14 21 28 35 42 50 57 64 71 78 85 92 99 106 113 120 128 135 142 149 156 163 170 177 184 191 198 
7 14 21 28 35 42 50 57 64 71 78 85 92 99 106 113 120 128 135 142 149 156 163 170 177 184 191 198 205 212 220 227 234 241 0 7 14 21 28 35 42 50 57 64 71 78 85 92 99 106 113 120 128 135 142 149 156 163 170 177 184 191 198 205 212 220 227 234 241 0 7 14 21 28 35 42 50 57 64 71 78 85 92 99 106 113 120 128 135 142 149 156 163 170 177 184 191 198 205 212 220 227 234 241 0 7 14 21 28 35 42 50 57 64 71 78 85 92 99 106 113 120 128 135 142 149 156 163 170 177 184 191 198 205 212 220 227 234 241 0 7 14 21 28 35 42 50 57 64 71 78 85 92 99 106 113 120 128 135 142 149 156 163 170 177 184 191 198 205 212 220 227 234 241 0 7 14 21 28 35 42 50 57 64 71 78 85 92 99 106 113 120 128 135 142 149 156 163 170 177 184 191 198 205 212 220 227 234 241 0 7 14 21 28 35 42 50 57 64 71 78 85 92 99 106 113 120 128 135 142 149 156 163 170 177 184 191 198 205 212 220 227 234 241 0 7 14 21 28 35 42 50 57 64 71 78 85 92 99 106 113 120 128 135 142 149 156 163 170 177 184 191 198 205 212 220 227 234 241 0 7 14 21 28 35 42 50 57 64 71 78 85 92 99 106 113 120 128 135 142 
7 14 21 28 35 42 50 57 64 71 78 85 92 99 106 113 120 128 135 142 149 156 163 170 177 184 191 198 205 212 220 227 234 241 248 0 7 14 21 28 35 42 50 57 64 71 78 85 92 99 106 113 120 128 135 142 149 156 163 170 177 184 191 198 205 212 220 227 234 241 248 0 7 14 21 28 35 42 50 57 64 71 78 85 92 99 106 113 120 128 135 142 149 156 163 170 177 184 191 198 205 212 220 227 234 241 248 0 7 14 21 28 35 42 50 57 64 71 78 85 92 99 106 113 120 128 135 142 149 156 163 170 177 184 191 198 205 212 220 227 234 241 248 0 7 14 21 28 35 42 50 57 64 71 78 85 92 99 106 113 120 128 135 142 149 156 163 170 177 184 191 198 205 212 220 227 234 241 248 0 7 14 21 28 35 42 50 57 64 71 78 85 92 99 106 113 120 128 135 142 149 156 163 170 177 184 191 198 205 212 220 227 234 241 248 0 7 14 21 28 35 42 50 57 64 71 78 85 92 99 106 113 120 128 135 142 149 156 163 170 177 184 191 198 205 212 220 227 234 241 248 0 7 14 21 28 35 42 50 57 64 71 78 85 92 99 106 113 120 128 135 142 149 156 163 170 177 184 191 198 205 212 220 227 234 241 248 0 7 14 21 28 35 42 50 57 64 71 78 85 
6 12 18 24 30 36 42 49 55 61 67 73 79 85 91 97 103 109 115 121 128 134 140 146 152 158 164 170 176 182 188 194 200 206 212 219 0 6 12 18 24 30 36 42 49 55 61 67 73 79 85 91 97 103 109 115 121 128 134 140 146 152 158 164 170 176 182 188 194 200 206 212 219 0 6 12 18 24 30 36 42 49 55 61 67 73 79 85 91 97 103 109 115 121 128 134 140 146 152 158 164 170 176 182 188 194 200 206 212 219 0 6 12 18 24 30 36 42 49 55 61 67 73 79 85 91 97 103 109 115 121 128 134 140 146 152 158 164 170 176 182 188 194 200 206 212 219 0 6 12 18 24 30 36 42 49 55 61 67 73 79 85 91 97 103 109 115 121 128 134 140 146 152 158 164 170 176 182 188 194 200 206 212 219 0 6 12 18 24 30 36 42 49 55 61 67 73 79 85 91 97 103 109 115 121 128 134 140 146 152 158 164 170 176 182 188 194 200 206 212 219 0 6 12 18 24 30 36 42 49 55 61 67 73 79 85 91 97 103 109 115 121 128 134 140 146 152 158 164 170 176 182 188 194 200 206 212 219 0 6 12 18 24 30 36 42 49 55 61 67 73 79 85 91 97 103 109 115 121 128 134 140 146 152 158 164 170 176 182 188 194 200 206 212 219 0 6 12 18 24 
6 12 18 24 30 36 42 49 55 61 67 73 79 85 91 97 103 109 115 121 128 134 140 146 152 158 164 170 176 182 188 194 200 206 212 219 225 0 6 12 18 24 30 36 42 49 55 61 67 73 79 85 91 97 103 109 115 121 128 134 140 146 152 158 164 170 176 182 188 194 200 206 212 219 225 0 6 12 18 24 30 36 42 49 55 61 67 73 79 85 91 97 103 109 115 121 128 134 140 146 152 158 164 170 176 182 188 194 200 206 212 219 225 0 6 12 18 24 30 36 42 49 55 61 67 73 79 85 91 97 103 109 115 121 128 134 140 146 152 158 164 170 176 182 188 194 200 206 212 219 225 0 6 12 18 24 30 36 42 49 55 61 67 73 79 85 91 97 103 109 115 121 128 134 140 146 152 158 164 170 176 182 188 194 200 206 212 219 225 0 6 12 18 24 30 36 42 49 55 61 67 73 79 85 91 97 103 109 115 121 128 134 140 146 152 158 164 170 176 182 188 194 200 206 212 219 225 0 6 12 18 24 30 36 42 49 55 61 67 73 79 85 91 97 103 109 115 121 128 134 140 146 152 158 164 170 176 182 188 194 200 206 212 219 225 0 6 12 18 24 30 36 42 49 55 61 67 73 79 85 91 97 103 109 115 121 128 134 140 146 152 158 164 170 176 182 188 194 200 206 
6 12 18 24 30 36 42 49 55 61 67 73 79 85 91 97 103 109 115 121 128 134 140 146 152 158 164 170 176 182 188 194 200 206 212 219 225 231 0 6 12 18 24 30 36 42 49 55 61 67 73 79 85 91 97 103 109 115 121 128 134 140 146 152 158 164 170 176 182 188 194 200 206 212 219 225 231 0 6 12 18 24 30 36 42 49 55 61 67 73 79 85 91 97 103 109 115 121 128 134 140 146 152 158 164 170 176 182 188 194 200 206 212 219 225 231 0 6 12 18 24 30 36 42 49 55 61 67 73 79 85 91 97 103 109 115 121 128 134 140 146 152 158 164 170 176 182 188 194 200 206 212 219 225 231 0 6 12 18 24 30 36 42 49 55 61 67 73 79 85 91 97 103 109 115 121 128 134 140 146 152 158 164 170 176 182 188 194 200 206 212 219 225 231 0 6 12 18 24 30 36 42 49 55 61 67 73 79 85 91 97 103 109 115 121 128 134 140 146 152 158 164 170 176 182 188 194 200 206 212 219 225 231 0 6 12 18 24 30 36 42 49 55 61 67 73 79 85 91 97 103 109 115 121 128 134 140 146 152 158 164 170 176 182 188 194 200 206 212 219 225 231 0 6 12 18 24 30 36 42 49 55 61 67 73 79 85 91 97 103 109 115 121 128 134 140 146 152 158 164 
6 12 18 24 30 36 42 49 55 61 67 73 79 85 91 97 103 109 115 121 128 134 140 146 152 158 164 170 176 182 188 194 200 206 212 219 225 231 237 0 6 12 18 24 30 36 42 49 55 61 67 73 79 85 91 97 103 109 115 121 128 134 140 146 152 158 164 170 176 182 188 194 200 206 212 219 225 231 237 0 6 12 18 24 30 36 42 49 55 61 67 73 79 85 91 97 103 109 115 121 128 134 140 146 152 158 164 170 176 182 188 194 200 206 212 219 225 231 237 0 6 12 18 24 30 36 42 49 55 61 67 73 79 85 91 97 103 109 115 121 128 134 140 146 152 158 164 170 176 182 188 194 200 206 212 219 225 231 237 0 6 12 18 24 30 36 42 49 55 61 67 73 79 85 91 97 103 109 115 121 128 134 140 146 152 158 164 170 176 182 188 194 200 206 212 219 225 231 237 0 6 12 18 24 30 36 42 49 55 61 67 73 79 85 91 97 103 109 115 121 128 134 140 146 152 158 164 170 176 182 188 194 200 206 212 219 225 231 237 0 6 12 18 24 30 36 42 49 55 61 67 73 79 85 91 97 103 109 115 121 128 134 140 146 152 158 164 170 176 182 188 194 200 206 212 219 225 231 237 0 6 12 18 24 30 36 42 49 55 61 67 73 79 85 91 97 103 109 115 121 
6 12 18 24 30 36 42 49 55 61 67 73 79 85 91 97 103 109 115 121 128 134 140 146 152 158 164 170 176 182 188 194 200 206 212 219 225 231 237 243 0 6 12 18 24 30 36 42 49 55 61 67 73 79 85 91 97 103 109 115 121 128 134 140 146 152 158 164 170 176 182 188 194 200 206 212 219 225 231 237 243 0 6 12 18 24 30 36 42 49 55 61 67 73 79 85 91 97 103 109 115 121 128 134 140 146 152 158 164 170 176 182 188 194 200 206 212 219 225 231 237 243 0 6 12 18 24 30 36 42 49 55 61 67 73 79 85 91 97 103 109 115 121 128 134 140 146 152 158 164 170 176 182 188 194 200 206 212 219 225 231 237 243 0 6 12 18 24 30 36 42 49 55 61 67 73 79 85 91 97 103 109 115 121 128 134 140 146 152 158 164 170 176 182 188 194 200 206 212 219 225 231 237 243 0 6 12 18 24 30 36 42 49 55 61 67 73 79 85 91 97 103 109 115 121 128 134 140 146 152 158 164 170 176 182 188 194 200 206 212 219 225 231 237 243 0 6 12 18 24 30 36 42 49 55 61 67 73 79 85 91 97 103 109 115 121 128 134 140 146 152 158 164 170 176 182 188 194 200 206 212 219 225 231 237 243 0 6 12 18 24 30 36 42 49 55 61 67 73 79 
6 12 18 24 30 36 42 49 55 61 67 73 79 85 91 97 103 109 115 121 128 134 140 146 152 158 164 170 176 182 188 194 200 206 212 219 225 231 237 243 249 0 6 12 18 24 30 36 42 49 55 61 67 73 79 85 91 97 103 109 115 121 128 134 140 146 152 158 164 170 176 182 188 194 200 206 212 219 225 231 237 243 249 0 6 12 18 24 30 36 42 49 55 61 67 73 79 85 91 97 103 109 115 121 128 134 140 146 152 158 164 170 176 182 188 194 200 206 212 219 225 231 237 243 249 0 6 12 18 24 30 36 42 49 55 61 67 73 79 85 91 97 103 109 115 121 128 134 140 146 152 158 164 170 176 182 188 194 200 206 212 219 225 231 237 243 249 0 6 12 18 24 30 36 42 49 55 61 67 73 79 85 91 97 103 109 115 121 128 134 140 146 152 158 164 170 176 182 188 194 200 206 212 219 225 231 237 243 249 0 6 12 18 24 30 36 42 49 55 61 67 73 79 85 91 97 103 109 115 121 128 134 140 146 152 158 164 170 176 182 188 194 200 206 212 219 225 231 237 243 249 0 6 12 18 24 30 36 42 49 55 61 67 73 79 85 91 97 103 109 115 121 128 134 140 146 152 158 164 170 176 182 188 194 200 206 212 219 225 231 237 243 249 0 6 12 18 24 30 36 
5 10 15 20 25 30 35 40 46 51 56 61 66 71 76 81 86 91 96 101 106 111 116 121 126 132 137 142 147 152 157 162 167 172 177 182 187 192 197 202 207 212 0 5 10 15 20 25 30 35 40 46 51 56 61 66 71 76 81 86 91 96 101 106 111 116 121 126 132 137 142 147 152 157 162 167 172 177 182 187 192 197 202 207 212 0 5 10 15 20 25 30 35 40 46 51 56 61 66 71 76 81 86 91 96 101 106 111 116 121 126 132 137 142 147 152 157 162 167 172 177 182 187 192 197 202 207 212 0 5 10 15 20 25 30 35 40 46 51 56 61 66 71 76 81 86 91 96 101 106 111 116 121 126 132 137 142 147 152 157 162 167 172 177 182 187 192 197 202 207 212 0 5 10 15 20 25 30 35 40 46 51 56 61 66 71 76 81 86 91 96 101 106 111 116 121 126 132 137 142 147 152 157 162 167 172 177 182 187 192 197 202 207 212 0 5 10 15 20 25 30 35 40 46 51 56 61 66 71 76 81 86 91 96 101 106 111 116 121 126 132 137 142 147 152 157 162 167 172 177 182 187 192 197 202 207 212 0 5 10 15 20 25 30 35 40 46 51 56 61 66 71 76 81 86 91 96 101 106 111 116 121 126 132 137 142 147 152 157 162 167 172 177 182 187 192 197 202 207 212 
5 10 15 20 25 30 35 40 46 51 56 61 66 71 76 81 86 91 96 101 106 111 116 121 126 132 137 142 147 152 157 162 167 172 177 182 187 192 197 202 207 212 218 0 5 10 15 20 25 30 35 40 46 51 56 61 66 71 76 81 86 91 96 101 106 111 116 121 126 132 137 142 147 152 157 162 167 172 177 182 187 192 197 202 207 212 218 0 5 10 15 20 25 30 35 40 46 51 56 61 66 71 76 81 86 91 96 101 106 111 116 121 126 132 137 142 147 152 157 162 167 172 177 182 187 192 197 202 207 212 218 0 5 10 15 20 25 30 35 40 46 51 56 61 66 71 76 81 86 91 96 101 106 111 116 121 126 132 137 142 147 152 157 162 167 172 177 182 187 192 197 202 207 212 218 0 5 10 15 20 25 30 35 40 46 51 56 61 66 71 76 81 86 91 96 101 106 111 116 121 126 132 137 142 147 152 157 162 167 172 177 182 187 192 197 202 207 212 218 0 5 10 15 20 25 30 35 40 46 51 56 61 66 71 76 81 86 91 96 101 106 111 116 121 126 132 137 142 147 152 157 162 167 172 177 182 187 192 197 202 207 212 218 0 5 10 15 20 25 30 35 40 46 51 56 61 66 71 76 81 86 91 96 101 106 111 116 121 126 132 137 142 147 152 157 162 167 172 177 182 
5 10 15 20 25 30 35 40 46 51 56 61 66 71 76 81 86 91 96 101 106 111 116 121 126 132 137 142 147 152 157 162 167 172 177 182 187 192 197 202 207 212 218 223 0 5 10 15 20 25 30 35 40 46 51 56 61 66 71 76 81 86 91 96 101 106 111 116 121 126 132 137 142 147 152 157 162 167 172 177 182 187 192 197 202 207 212 218 223 0 5 10 15 20 25 30 35 40 46 51 56 61 66 71 76 81 86 91 96 101 106 111 116 121 126 132 137 142 147 152 157 162 167 172 177 182 187 192 197 202 207 212 218 223 0 5 10 15 20 25 30 35 40 46 51 56 61 66 71 76 81 86 91 96 101 106 111 116 121 126 132 137 142 147 152 157 162 167 172 177 182 187 192 197 202 207 212 218 223 0 5 10 15 20 25 30 35 40 46 51 56 61 66 71 76 81 86 91 96 101 106 111 116 121 126 132 137 142 147 152 157 162 167 172 177 182 187 192 197 202 207 212 218 223 0 5 10 15 20 25 30 35 40 46 51 56 61 66 71 76 81 86 91 96 101 106 111 116 121 126 132 137 142 147 152 157 162 167 172 177 182 187 192 197 202 207 212 218 223 0 5 10 15 20 25 30 35 40 46 51 56 61 66 71 76 81 86 91 96 101 106 111 116 121 126 132 137 142 147 152 
5 10 15 20 25 30 35 40 46 51 56 61 66 71 76 81 86 91 96 101 106 111 116 121 126 132 137 142 147 152 157 162 167 172 177 182 187 192 197 202 207 212 218 223 228 0 5 10 15 20 25 30 35 40 46 51 56 61 66 71 76 81 86 91 96 101 106 111 116 121 126 132 137 142 147 152 157 162 167 172 177 182 187 192 197 202 207 212 218 223 228 0 5 10 15 20 25 30 35 40 46 51 56 61 66 71 76 81 86 91 96 101 106 111 116 121 126 132 137 142 147 152 157 162 167 172 177 182 187 192 197 202 207 212 218 223 228 0 5 10 15 20 25 30 35 40 46 51 56 61 66 71 76 81 86 91 96 101 106 111 116 121 126 132 137 142 147 152 157 162 167 172 177 182 187 192 197 202 207 212 218 223 228 0 5 10 15 20 25 30 35 40 46 51 56 61 66 71 76 81 86 91 96 101 106 111 116 121 126 132 137 142 147 152 157 162 167 172 177 182 187 192 197 202 207 212 218 223 228 0 5 10 15 20 25 30 35 40 46 51 56 61 66 71 76 81 86 91 96 101 106 111 116 121 126 132 137 142 147 152 157 162 167 172 177 182 187 192 197 202 207 212 218 223 228 0 5 10 15 20 25 30 35 40 46 51 56 61 66 71 76 81 86 91 96 101 106 111 116 121 
5 10 15 20 25 30 35 40 46 51 56 61 66 71 76 81 86 91 96 101 106 111 116 121 126 132 137 142 147 152 157 162 167 172 177 182 187 192 197 202 207 212 218 223 228 233 0 5 10 15 20 25 30 35 40 46 51 56 61 66 71 76 81 86 91 96 101 106 111 116 121 126 132 137 142 147 152 157 162 167 172 177 182 187 192 197 202 207 212 218 223 228 233 0 5 10 15 20 25 30 35 40 46 51 56 61 66 71 76 81 86 91 96 101 106 111 116 121 126 132 137 142 147 152 157 162 167 172 177 182 187 192 197 202 207 212 218 223 228 233 0 5 10 15 20 25 30 35 40 46 51 56 61 66 71 76 81 86 91 96 101 106 111 116 121 126 132 137 142 147 152 157 162 167 172 177 182 187 192 197 202 207 212 218 223 228 233 0 5 10 15 20 25 30 35 40 46 51 56 61 66 71 76 81 86 91 96 101 106 111 116 121 126 132 137 142 147 152 157 162 167 172 177 182 187 192 197 202 207 212 218 223 228 233 0 5 10 15 20 25 30 35 40 46 51 56 61 66 71 76 81 86 91 96 101 106 111 116 121 126 132 137 142 147 152 157 162 167 172 177 182 187 192 197 202 207 212 218 223 228 233 0 5 10 15 20 25 30 35 40 46 51 56 61 66 71 76 81 86 91 
5 10 15 20 25 30 35 40 46 51 56 61 66 71 76 81 86 91 96 101 106 111 116 121 126 132 137 142 147 152 157 162 167 172 177 182 187 192 197 202 207 212 218 223 228 233 238 0 5 10 15 20 25 30 35 40 46 51 56 61 66 71 76 81 86 91 96 101 106 111 116 121 126 132 137 142 147 152 157 162 167 172 177 182 187 192 197 202 207 212 218 223 228 233 238 0 5 10 15 20 25 30 35 40 46 51 56 61 66 71 76 81 86 91 96 101 106 111 116 121 126 132 137 142 147 152 157 162 167 172 177 182 187 192 197 202 207 212 218 223 228 233 238 0 5 10 15 20 25 30 35 40 46 51 56 61 66 71 76 81 86 91 96 101 106 111 116 121 126 132 137 142 147 152 157 162 167 172 177 182 187 192 197 202 207 212 218 223 228 233 238 0 5 10 15 20 25 30 35 40 46 51 56 61 66 71 76 81 86 91 96 101 106 111 116 121 126 132 137 142 147 152 157 162 167 172 177 182 187 192 197 202 207 212 218 223 228 233 238 0 5 10 15 20 25 30 35 40 46 51 56 61 66 71 76 81 86 91 96 101 106 111 116 121 126 132 137 142 147 152 157 162 167 172 177 182 187 192 197 202 207 212 218 223 228 233 238 0 5 10 15 20 25 30 35 40 46 51 56 61 
5 10 15 20 25 30 35 40 46 51 56 61 66 71 76 81 86 91 96 101 106 111 116 121 126 132 137 142 147 152 157 162 167 172 177 182 187 192 197 202 207 212 218 223 228 233 238 243 0 5 10 15 20 25 30 35 40 46 51 56 61 66 71 76 81 86 91 96 101 106 111 116 121 126 132 137 142 147 152 157 162 167 172 177 182 187 192 197 202 207 212 218 223 228 233 238 243 0 5 10 15 20 25 30 35 40 46 51 56 61 66 71 76 81 86 91 96 101 106 111 116 121 126 132 137 142 147 152 157 162 167 172 177 182 187 192 197 202 207 212 218 223 228 233 238 243 0 5 10 15 20 25 30 35 40 46 51 56 61 66 71 76 81 86 91 96 101 106 111 116 121 126 132 137 142 147 152 157 162 167 172 177 182 187 192 197 202 207 212 218 223 228 233 238 243 0 5 10 15 20 25 30 35 40 46 51 56 61 66 71 76 81 86 91 96 101 106 111 116 121 126 132 137 142 147 152 157 162 167 172 177 182 187 192 197 202 207 212 218 223 228 233 238 243 0 5 10 15 20 25 30 35 40 46 51 56 61 66 71 76 81 86 91 96 101 106 111 116 121 126 132 137 142 147 152 157 162 167 172 177 182 187 192 197 202 207 212 218 223 228 233 238 243 0 5 10 15 20 25 30 
5 10 15 20 25 30 35 40 46 51 56 61 66 71 76 81 86 91 96 101 106 111 116 121 126 132 137 142 147 152 157 162 167 172 177 182 187 192 197 202 207 212 218 223 228 233 238 243 248 0 5 10 15 20 25 30 35 40 46 51 56 61 66 71 76 81 86 91 96 101 106 111 116 121 126 132 137 142 147 152 157 162 167 172 177 182 187 192 197 202 207 212 218 223 228 233 238 243 248 0 5 10 15 20 25 30 35 40 46 51 56 61 66 71 76 81 86 91 96 101 106 111 116 121 126 132 137 142 147 152 157 162 167 172 177 182 187 192 197 202 207 212 218 223 228 233 238 243 248 0 5 10 15 20 25 30 35 40 46 51 56 61 66 71 76 81 86 91 96 101 106 111 116 121 126 132 137 142 147 152 157 162 167 172 177 182 187 192 197 202 207 212 218 223 228 233 238 243 248 0 5 10 15 20 25 30 35 40 46 51 56 61 66 71 76 81 86 91 96 101 106 111 116 121 126 132 137 142 147 152 157 162 167 172 177 182 187 192 197 202 207 212 218 223 228 233 238 243 248 0 5 10 15 20 25 30 35 40 46 51 56 61 66 71 76 81 86 91 96 101 106 111 116 121 126 132 137 142 147 152 157 162 167 172 177 182 187 192 197 202 207 212 218 223 228 233 238 243 248 0 
5 10 15 20 25 30 35 40 46 51 56 61 66 71 76 81 86 91 96 101 106 111 116 121 126 132 137 142 147 152 157 162 167 172 177 182 187 192 197 202 207 212 218 223 228 233 238 243 248 253 0 5 10 15 20 25 30 35 40 46 51 56 61 66 71 76 81 86 91 96 101 106 111 116 121 126 132 137 142 147 152 157 162 167 172 177 182 187 192 197 202 207 212 218 223 228 233 238 243 248 253 0 5 10 15 20 25 30 35 40 46 51 56 61 66 71 76 81 86 91 96 101 106 111 116 121 126 132 137 142 147 152 157 162 167 172 177 182 187 192 197 202 207 212 218 223 228 233 238 243 248 253 0 5 10 15 20 25 30 35 40 46 51 56 61 66 71 76 81 86 91 96 101 106 111 116 121 126 132 137 142 147 152 157 162 167 172 177 182 187 192 197 202 207 212 218 223 228 233 238 243 248 253 0 5 10 15 20 25 30 35 40 46 51 56 61 66 71 76 81 86 91 96 101 106 111 116 121 126 132 137 142 147 152 157 162 167 172 177 182 187 192 197 202 207 212 218 223 228 233 238 243 248 253 0 5 10 15 20 25 30 35 40 46 51 56 61 66 71 76 81 86 91 96 101 106 111 116 121 126 132 137 142 147 152 157 162 167 172 177 182 187 192 197 202 207 212 218 223 228 
4 8 12 16 20 24 28 32 36 40 45 49 53 57 61 65 69 73 77 81 85 89 93 97 101 105 109 113 117 121 125 130 134 138 142 146 150 154 158 162 166 170 174 178 182 186 190 194 198 202 206 0 4 8 12 16 20 24 28 32 36 40 45 49 53 57 61 65 69 73 77 81 85 89 93 97 101 105 109 113 117 121 125 130 134 138 142 146 150 154 158 162 166 170 174 178 182 186 190 194 198 202 206 0 4 8 12 16 20 24 28 32 36 40 45 49 53 57 61 65 69 73 77 81 85 89 93 97 101 105 109 113 117 121 125 130 134 138 142 146 150 154 158 162 166 170 174 178 182 186 190 194 198 202 206 0 4 8 12 16 20 24 28 32 36 40 45 49 53 57 61 65 69 73 77 81 85 89 93 97 101 105 109 113 117 121 125 130 134 138 142 146 150 154 158 162 166 170 174 178 182 186 190 194 198 202 206 0 4 8 12 16 20 24 28 32 36 40 45 49 53 57 61 65 69 73 77 81 85 89 93 97 101 105 109 113 117 121 125 130 134 138 142 146 150 154 158 162 166 170 174 178 182 186 190 194 198 202 206 0 4 8 12 16 20 24 28 32 36 40 45 49 53 57 61 65 69 73 77 81 85 89 93 97 101 105 109 113 117 121 125 130 134 138 142 146 150 154 158 162 
4 8 12 16 20 24 28 32 36 40 45 49 53 57 61 65 69 73 77 81 85 89 93 97 101 105 109 113 117 121 125 130 134 138 142 146 150 154 158 162 166 170 174 178 182 186 190 194 198 202 206 210 0 4 8 12 16 20 24 28 32 36 40 45 49 53 57 61 65 69 73 77 81 85 89 93 97 101 105 109 113 117 121 125 130 134 138 142 146 150 154 158 162 166 170 174 178 182 186 190 194 198 202 206 210 0 4 8 12 16 20 24 28 32 36 40 45 49 53 57 61 65 69 73 77 81 85 89 93 97 101 105 109 113 117 121 125 130 134 138 142 146 150 154 158 162 166 170 174 178 182 186 190 194 198 202 206 210 0 4 8 12 16 20 24 28 32 36 40 45 49 53 57 61 65 69 73 77 81 85 89 93 97 101 105 109 113 117 121 125 130 134 138 142 146 150 154 158 162 166 170 174 178 182 186 190 194 198 202 206 210 0 4 8 12 16 20 24 28 32 36 40 45 49 53 57 61 65 69 73 77 81 85 89 93 97 101 105 109 113 117 121 125 130 134 138 142 146 150 154 158 162 166 170 174 178 182 186 190 194 198 202 206 210 0 4 8 12 16 20 24 28 32 36 40 45 49 53 57 61 65 69 73 77 81 85 89 93 97 101 105 109 113 117 121 125 130 134 138 142 
4 8 12 16 20 24 28 32 36 40 45 49 53 57 61 65 69 73 77 81 85 89 93 97 101 105 109 113 117 121 125 130 134 138 142 146 150 154 158 162 166 170 174 178 182 186 190 194 198 202 206 210 215 0 4 8 12 16 20 24 28 32 36 40 45 49 53 57 61 65 69 73 77 81 85 89 93 97 101 105 109 113 117 121 125 130 134 138 142 146 150 154 158 162 166 170 174 178 182 186 190 194 198 202 206 210 215 0 4 8 12 16 20 24 28 32 36 40 45 49 53 57 61 65 69 73 77 81 85 89 93 97 101 105 109 113 117 121 125 130 134 138 142 146 150 154 158 162 166 170 174 178 182 186 190 194 198 202 206 210 215 0 4 8 12 16 20 24 28 32 36 40 45 49 53 57 61 65 69 73 77 81 85 89 93 97 101 105 109 113 117 121 125 130 134 138 142 146 150 154 158 162 166 170 174 178 182 186 190 194 198 202 206 210 215 0 4 8 12 16 20 24 28 32 36 40 45 49 53 57 61 65 69 73 77 81 85 89 93 97 101 105 109 113 117 121 125 130 134 138 142 146 150 154 158 162 166 170 174 178 182 186 190 194 198 202 206 210 215 0 4 8 12 16 20 24 28 32 36 40 45 49 53 57 61 65 69 73 77 81 85 89 93 97 101 105 109 113 117 121 
4 8 12 16 20 24 28 32 36 40 45 49 53 57 61 65 69 73 77 81 85 89 93 97 101 105 109 113 117 121 125 130 134 138 142 146 150 154 158 162 166 170 174 178 182 186 190 194 198 202 206 210 215 219 0 4 8 12 16 20 24 28 32 36 40 45 49 53 57 61 65 69 73 77 81 85 89 93 97 101 105 109 113 117 121 125 130 134 138 142 146 150 154 158 162 166 170 174 178 182 186 190 194 198 202 206 210 215 219 0 4 8 12 16 20 24 28 32 36 40 45 49 53 57 61 65 69 73 77 81 85 89 93 97 101 105 109 113 117 121 125 130 134 138 142 146 150 154 158 162 166 170 174 178 182 186 190 194 198 202 206 210 215 219 0 4 8 12 16 20 24 28 32 36 40 45 49 53 57 61 65 69 73 77 81 85 89 93 97 101 105 109 113 117 121 125 130 134 138 142 146 150 154 158 162 166 170 174 178 182 186 190 194 198 202 206 210 215 219 0 4 8 12 16 20 24 28 32 36 40 45 49 53 57 61 65 69 73 77 81 85 89 93 97 101 105 109 113 117 121 125 130 134 138 142 146 150 154 158 162 166 170 174 178 182 186 190 194 198 202 206 210 215 219 0 4 8 12 16 20 24 28 32 36 40 45 49 53 57 61 65 69 73 77 81 85 89 93 97 101 
4 8 12 16 20 24 28 32 36 40 45 49 53 57 61 65 69 73 77 81 85 89 93 97 101 105 109 113 117 121 125 130 134 138 142 146 150 154 158 162 166 170 174 178 182 186 190 194 198 202 206 210 215 219 223 0 4 8 12 16 20 24 28 32 36 40 45 49 53 57 61 65 69 73 77 81 85 89 93 97 101 105 109 113 117 121 125 130 134 138 142 146 150 154 158 162 166 170 174 178 182 186 190 194 198 202 206 210 215 219 223 0 4 8 12 16 20 24 28 32 36 40 45 49 53 57 61 65 69 73 77 81 85 89 93 97 101 105 109 113 117 121 125 130 134 138 142 146 150 154 158 162 166 170 174 178 182 186 190 194 198 202 206 210 215 219 223 0 4 8 12 16 20 24 28 32 36 40 45 49 53 57 61 65 69 73 77 81 85 89 93 97 101 105 109 113 117 121 125 130 134 138 142 146 150 154 158 162 166 170 174 178 182 186 190 194 198 202 206 210 215 219 223 0 4 8 12 16 20 24 28 32 36 40 45 49 53 57 61 65 69 73 77 81 85 89 93 97 101 105 109 113 117 121 125 130 134 138 142 146 150 154 158 162 166 170 174 178 182 186 190 194 198 202 206 210 215 219 223 0 4 8 12 16 20 24 28 32 36 40 45 49 53 57 61 65 69 73 77 81 
4 8 12 16 20 24 28 32 36 40 45 49 53 57 61 65 69 73 77 81 85 89 93 97 101 105 109 113 117 121 125 130 134 138 142 146 150 154 158 162 166 170 174 178 182 186 190 194 198 202 206 210 215 219 223 227 0 4 8 12 16 20 24 28 32 36 40 45 49 53 57 61 65 69 73 77 81 85 89 93 97 101 105 109 113 117 121 125 130 134 138 142 146 150 154 158 162 166 170 174 178 182 186 190 194 198 202 206 210 215 219 223 227 0 4 8 12 16 20 24 28 32 36 40 45 49 53 57 61 65 69 73 77 81 85 89 93 97 101 105 109 113 117 121 125 130 134 138 142 146 150 154 158 162 166 170 174 178 182 186 190 194 198 202 206 210 215 219 223 227 0 4 8 12 16 20 24 28 32 36 40 45 49 53 57 61 65 69 73 77 81 85 89 93 97 101 105 109 113 117 121 125 130 134 138 142 146 150 154 158 162 166 170 174 178 182 186 190 194 198 202 206 210 215 219 223 227 0 4 8 12 16 20 24 28 32 36 40 45 49 53 57 61 65 69 73 77 81 85 89 93 97 101 105 109 113 117 121 125 130 134 138 142 146 150 154 158 162 166 170 174 178 182 186 190 194 198 202 206 210 215 219 223 227 0 4 8 12 16 20 24 28 32 36 40 45 49 53 57 61 
4 8 12 16 20 24 28 32 36 40 45 49 53 57 61 65 69 73 77 81 85 89 93 97 101 105 109 113 117 121 125 130 134 138 142 146 150 154 158 162 166 170 174 178 182 186 190 194 198 202 206 210 215 219 223 227 231 0 4 8 12 16 20 24 28 32 36 40 45 49 53 57 61 65 69 73 77 81 85 89 93 97 101 105 109 113 117 121 125 130 134 138 142 146 150 154 158 162 166 170 174 178 182 186 190 194 198 202 206 210 215 219 223 227 231 0 4 8 12 16 20 24 28 32 36 40 45 49 53 57 61 65 69 73 77 81 85 89 93 97 101 105 109 113 117 121 125 130 134 138 142 146 150 154 158 162 166 170 174 178 182 186 190 194 198 202 206 210 215 219 223 227 231 0 4 8 12 16 20 24 28 32 36 40 45 49 53 57 61 65 69 73 77 81 85 89 93 97 101 105 109 113 117 121 125 130 134 138 142 146 150 154 158 162 166 170 174 178 182 186 190 194 198 202 206 210 215 219 223 227 231 0 4 8 12 16 20 24 28 32 36 40 45 49 53 57 61 65 69 73 77 81 85 89 93 97 101 105 109 113 117 121 125 130 134 138 142 146 150 154 158 162 166 170 174 178 182 186 190 194 198 202 206 210 215 219 223 227 231 0 4 8 12 16 20 24 28 32 36 40 
4 8 12 16 20 24 28 32 36 40 45 49 53 57 61 65 69 73 77 81 85 89 93 97 101 105 109 113 117 121 125 130 134 138 142 146 150 154 158 162 166 170 174 178 182 186 190 194 198 202 206 210 215 219 223 227 231 235 0 4 8 12 16 20 24 28 32 36 40 45 49 53 57 61 65 69 73 77 81 85 89 93 97 101 105 109 113 117 121 125 130 134 138 142 146 150 154 158 162 166 170 174 178 182 186 190 194 198 202 206 210 215 219 223 227 231 235 0 4 8 12 16 20 24 28 32 36 40 45 49 53 57 61 65 69 73 77 81 85 89 93 97 101 105 109 113 117 121 125 130 134 138 142 146 150 154 158 162 166 170 174 178 182 186 190 194 198 202 206 210 215 219 223 227 231 235 0 4 8 12 16 20 24 28 32 36 40 45 49 53 57 61 65 69 73 77 81 85 89 93 97 101 105 109 113 117 121 125 130 134 138 142 146 150 154 158 162 166 170 174 178 182 186 190 194 198 202 206 210 215 219 223 227 231 235 0 4 8 12 16 20 24 28 32 36 40 45 49 53 57 61 65 69 73 77 81 85 89 93 97 101 105 109 113 117 121 125 130 134 138 142 146 150 154 158 162 166 170 174 178 182 186 190 194 198 202 206 210 215 219 223 227 231 235 0 4 8 12 16 20 
4 8 12 16 20 24 28 32 36 40 45 49 53 57 61 65 69 73 77 81 85 89 93 97 101 105 109 113 117 121 125 130 134 138 142 146 150 154 158 162 166 170 174 178 182 186 190 194 198 202 206 210 215 219 223 227 231 235 239 0 4 8 12 16 20 24 28 32 36 40 45 49 53 57 61 65 69 73 77 81 85 89 93 97 101 105 109 113 117 121 125 130 134 138 142 146 150 154 158 162 166 170 174 178 182 186 190 194 198 202 206 210 215 219 223 227 231 235 239 0 4 8 12 16 20 24 28 32 36 40 45 49 53 57 61 65 69 73 77 81 85 89 93 97 101 105 109 113 117 121 125 130 134 138 142 146 150 154 158 162 166 170 174 178 182 186 190 194 198 202 206 210 215 219 223 227 231 235 239 0 4 8 12 16 20 24 28 32 36 40 45 49 53 57 61 65 69 73 77 81 85 89 93 97 101 105 109 113 117 121 125 130 134 138 142 146 150 154 158 162 166 170 174 178 182 186 190 194 198 202 206 210 215 219 223 227 231 235 239 0 4 8 12 16 20 24 28 32 36 40 45 49 53 57 61 65 69 73 77 81 85 89 93 97 101 105 109 113 117 121 125 130 134 138 142 146 150 154 158 162 166 170 174 178 182 186 190 194 198 202 206 210 215 219 223 227 231 235 239 0 
4 8 12 16 20 24 28 32 36 40 45 49 53 57 61 65 69 73 77 81 85 89 93 97 101 105 109 113 117 121 125 130 134 138 142 146 150 154 158 162 166 170 174 178 182 186 190 194 198 202 206 210 215 219 223 227 231 235 239 243 0 4 8 12 16 20 24 28 32 36 40 45 49 53 57 61 65 69 73 77 81 85 89 93 97 101 105 109 113 117 121 125 130 134 138 142 146 150 154 158 162 166 170 174 178 182 186 190 194 198 202 206 210 215 219 223 227 231 235 239 243 0 4 8 12 16 20 24 28 32 36 40 45 49 53 57 61 65 69 73 77 81 85 89 93 97 101 105 109 113 117 121 125 130 134 138 142 146 150 154 158 162 166 170 174 178 182 186 190 194 198 202 206 210 215 219 223 227 231 235 239 243 0 4 8 12 16 20 24 28 32 36 40 45 49 53 57 61 65 69 73 77 81 85 89 93 97 101 105 109 113 117 121 125 130 134 138 142 146 150 154 158 162 166 170 174 178 182 186 190 194 198 202 206 210 215 219 223 227 231 235 239 243 0 4 8 12 16 20 24 28 32 36 40 45 49 53 57 61 65 69 73 77 81 85 89 93 97 101 105 109 113 117 121 125 130 134 138 142 146 150 154 158 162 166 170 174 178 182 186 190 194 198 202 206 210 215 219 223 227 
4 8 12 16 20 24 28 32 36 40 45 49 53 57 61 65 69 73 77 81 85 89 93 97 101 105 109 113 117 121 125 130 134 138 142 146 150 154 158 162 166 170 174 178 182 186 190 194 198 202 206 210 215 219 223 227 231 235 239 243 247 0 4 8 12 16 20 24 28 32 36 40 45 49 53 57 61 65 69 73 77 81 85 89 93 97 101 105 109 113 117 121 125 130 134 138 142 146 150 154 158 162 166 170 174 178 182 186 190 194 198 202 206 210 215 219 223 227 231 235 239 243 247 0 4 8 12 16 20 24 28 32 36 40 45 49 53 57 61 65 69 73 77 81 85 89 93 97 101 105 109 113 117 121 125 130 134 138 142 146 150 154 158 162 166 170 174 178 182 186 190 194 198 202 206 210 215 219 223 227 231 235 239 243 247 0 4 8 12 16 20 24 28 32 36 40 45 49 53 57 61 65 69 73 77 81 85 89 93 97 101 105 109 113 117 121 125 130 134 138 142 146 150 154 158 162 166 170 174 178 182 186 190 194 198 202 206 210 215 219 223 227 231 235 239 243 247 0 4 8 12 16 20 24 28 32 36 40 45 49 53 57 61 65 69 73 77 81 85 89 93 97 101 105 109 113 117 121 125 130 134 138 142 146 150 154 158 162 166 170 174 178 182 186 190 194 198 202 206 210 
4 8 12 16 20 24 28 32 36 40 45 49 53 57 61 65 69 73 77 81 85 89 93 97 101 105 109 113 117 121 125 130 134 138 142 146 150 154 158 162 166 170 174 178 182 186 190 194 198 202 206 210 215 219 223 227 231 235 239 243 247 251 0 4 8 12 16 20 24 28 32 36 40 45 49 53 57 61 65 69 73 77 81 85 89 93 97 101 105 109 113 117 121 125 130 134 138 142 146 150 154 158 162 166 170 174 178 182 186 190 194 198 202 206 210 215 219 223 227 231 235 239 243 247 251 0 4 8 12 16 20 24 28 32 36 40 45 49 53 57 61 65 69 73 77 81 85 89 93 97 101 105 109 113 117 121 125 130 134 138 142 146 150 154 158 162 166 170 174 178 182 186 190 194 198 202 206 210 215 219 223 227 231 235 239 243 247 251 0 4 8 12 16 20 24 28 32 36 40 45 49 53 57 61 65 69 73 77 81 85 89 93 97 101 105 109 113 117 121 125 130 134 138 142 146 150 154 158 162 166 170 174 178 182 186 190 194 198 202 206 210 215 219 223 227 231 235 239 243 247 251 0 4 8 12 16 20 24 28 32 36 40 45 49 53 57 61 65 69 73 77 81 85 89 93 97 101 105 109 113 117 121 125 130 134 138 142 146 150 154 158 162 166 170 174 178 182 186 190 194 
3 6 9 12 15 18 21 24 27 30 33 36 39 42 46 49 52 55 58 61 64 67 70 73 76 79 82 85 88 91 94 97 100 103 106 109 112 115 118 121 124 128 131 134 137 140 143 146 149 152 155 158 161 164 167 170 173 176 179 182 185 188 191 0 3 6 9 12 15 18 21 24 27 30 33 36 39 42 46 49 52 55 58 61 64 67 70 73 76 79 82 85 88 91 94 97 100 103 106 109 112 115 118 121 124 128 131 134 137 140 143 146 149 152 155 158 161 164 167 170 173 176 179 182 185 188 191 0 3 6 9 12 15 18 21 24 27 30 33 36 39 42 46 49 52 55 58 61 64 67 70 73 76 79 82 85 88 91 94 97 100 103 106 109 112 115 118 121 124 128 131 134 137 140 143 146 149 152 155 158 161 164 167 170 173 176 179 182 185 188 191 0 3 6 9 12 15 18 21 24 27 30 33 36 39 42 46 49 52 55 58 61 64 67 70 73 76 79 82 85 88 91 94 97 100 103 106 109 112 115 118 121 124 128 131 134 137 140 143 146 149 152 155 158 161 164 167 170 173 176 179 182 185 188 191 0 3 6 9 12 15 18 21 24 27 30 33 36 39 42 46 49 52 55 58 61 64 67 70 73 76 79 82 85 88 91 94 97 100 103 106 109 112 115 118 121 124 128 131 134 
3 6 9 12 15 18 21 24 27 30 33 36 39 42 46 49 52 55 58 61 64 67 70 73 76 79 82 85 88 91 94 97 100 103 106 109 112 115 118 121 124 128 131 134 137 140 143 146 149 152 155 158 161 164 167 170 173 176 179 182 185 188 191 194 0 3 6 9 12 15 18 21 24 27 30 33 36 39 42 46 49 52 55 58 61 64 67 70 73 76 79 82 85 88 91 94 97 100 103 106 109 112 115 118 121 124 128 131 134 137 140 143 146 149 152 155 158 161 164 167 170 173 176 179 182 185 188 191 194 0 3 6 9 12 15 18 21 24 27 30 33 36 39 42 46 49 52 55 58 61 64 67 70 73 76 79 82 85 88 91 94 97 100 103 106 109 112 115 118 121 124 128 131 134 137 140 143 146 149 152 155 158 161 164 167 170 173 176 179 182 185 188 191 194 0 3 6 9 12 15 18 21 24 27 30 33 36 39 42 46 49 52 55 58 61 64 67 70 73 76 79 82 85 88 91 94 97 100 103 106 109 112 115 118 121 124 128 131 134 137 140 143 146 149 152 155 158 161 164 167 170 173 176 179 182 185 188 191 194 0 3 6 9 12 15 18 21 24 27 30 33 36 39 42 46 49 52 55 58 61 64 67 70 73 76 79 82 85 88 91 94 97 100 103 106 109 112 115 118 121 
3 6 9 12 15 18 21 24 27 30 33 36 39 42 46 49 52 55 58 61 64 67 70 73 76 79 82 85 88 91 94 97 100 103 106 109 112 115 118 121 124 128 131 134 137 140 143 146 149 152 155 158 161 164 167 170 173 176 179 182 185 188 191 194 197 0 3 6 9 12 15 18 21 24 27 30 33 36 39 42 46 49 52 55 58 61 64 67 70 73 76 79 82 85 88 91 94 97 100 103 106 109 112 115 118 121 124 128 131 134 137 140 143 146 149 152 155 158 161 164 167 170 173 176 179 182 185 188 191 194 197 0 3 6 9 12 15 18 21 24 27 30 33 36 39 42 46 49 52 55 58 61 64 67 70 73 76 79 82 85 88 91 94 97 100 103 106 109 112 115 118 121 124 128 131 134 137 140 143 146 149 152 155 158 161 164 167 170 173 176 179 182 185 188 191 194 197 0 3 6 9 12 15 18 21 24 27 30 33 36 39 42 46 49 52 55 58 61 64 67 70 73 76 79 82 85 88 91 94 97 100 103 106 109 112 115 118 121 124 128 131 134 137 140 143 146 149 152 155 158 161 164 167 170 173 176 179 182 185 188 191 194 197 0 3 6 9 12 15 18 21 24 27 30 33 36 39 42 46 49 52 55 58 61 64 67 70 73 76 79 82 85 88 91 94 97 100 103 106 109 
3 6 9 12 15 18 21 24 27 30 33 36 39 42 46 49 52 55 58 61 64 67 70 73 76 79 82 85 88 91 94 97 100 103 106 109 112 115 118 121 124 128 131 134 137 140 143 146 149 152 155 158 161 164 167 170 173 176 179 182 185 188 191 194 197 200 0 3 6 9 12 15 18 21 24 27 30 33 36 39 42 46 49 52 55 58 61 64 67 70 73 76 79 82 85 88 91 94 97 100 103 106 109 112 115 118 121 124 128 131 134 137 140 143 146 149 152 155 158 161 164 167 170 173 176 179 182 185 188 191 194 197 200 0 3 6 9 12 15 18 21 24 27 30 33 36 39 42 46 49 52 55 58 61 64 67 70 73 76 79 82 85 88 91 94 97 100 103 106 109 112 115 118 121 124 128 131 134 137 140 143 146 149 152 155 158 161 164 167 170 173 176 179 182 185 188 191 194 197 200 0 3 6 9 12 15 18 21 24 27 30 33 36 39 42 46 49 52 55 58 61 64 67 70 73 76 79 82 85 88 91 94 97 100 103 106 109 112 115 118 121 124 128 131 134 137 140 143 146 149 152 155 158 161 164 167 170 173 176 179 182 185 188 191 194 197 200 0 3 6 9 12 15 18 21 24 27 30 33 36 39 42 46 49 52 55 58 61 64 67 70 73 76 79 82 85 88 91 94 97 
3 6 9 12 15 18 21 24 27 30 33 36 39 42 46 49 52 55 58 61 64 67 70 73 76 79 82 85 88 91 94 97 100 103 106 109 112 115 118 121 124 128 131 134 137 140 143 146 149 152 155 158 161 164 167 170 173 176 179 182 185 188 191 194 197 200 203 0 3 6 9 12 15 18 21 24 27 30 33 36 39 42 46 49 52 55 58 61 64 67 70 73 76 79 82 85 88 91 94 97 100 103 106 109 112 115 118 121 124 128 131 134 137 140 143 146 149 152 155 158 161 164 167 170 173 176 179 182 185 188 191 194 197 200 203 0 3 6 9 12 15 18 21 24 27 30 33 36 39 42 46 49 52 55 58 61 64 67 70 73 76 79 82 85 88 91 94 97 100 103 106 109 112 115 118 121 124 128 131 134 137 140 143 146 149 152 155 158 161 164 167 170 173 176 179 182 185 188 191 194 197 200 203 0 3 6 9 12 15 18 21 24 27 30 33 36 39 42 46 49 52 55 58 61 64 67 70 73 76 79 82 85 88 91 94 97 100 103 106 109 112 115 118 121 124 128 131 134 137 140 143 146 149 152 155 158 161 164 167 170 173 176 179 182 185 188 191 194 197 200 203 0 3 6 9 12 15 18 21 24 27 30 33 36 39 42 46 49 52 55 58 61 64 67 70 73 76 79 82 85 
3 6 9 12 15 18 21 24 27 30 33 36 39 42 46 49 52 55 58 61 64 67 70 73 76 79 82 85 88 91 94 97 100 103 106 109 112 115 118 121 124 128 131 134 137 140 143 146 149 152 155 158 161 164 167 170 173 176 179 182 185 188 191 194 197 200 203 206 0 3 6 9 12 15 18 21 24 27 30 33 36 39 42 46 49 52 55 58 61 64 67 70 73 76 79 82 85 88 91 94 97 100 103 106 109 112 115 118 121 124 128 131 134 137 140 143 146 149 152 155 158 161 164 167 170 173 176 179 182 185 188 191 194 197 200 203 206 0 3 6 9 12 15 18 21 24 27 30 33 36 39 42 46 49 52 55 58 61 64 67 70 73 76 79 82 85 88 91 94 97 100 103 106 109 112 115 118 121 124 128 131 134 137 140 143 146 149 152 155 158 161 164 167 170 173 176 179 182 185 188 191 194 197 200 203 206 0 3 6 9 12 15 18 21 24 27 30 33 36 39 42 46 49 52 55 58 61 64 67 70 73 76 79 82 85 88 91 94 97 100 103 106 109 112 115 118 121 124 128 131 134 137 140 143 146 149 152 155 158 161 164 167 170 173 176 179 182 185 188 191 194 197 200 203 206 0 3 6 9 12 15 18 21 24 27 30 33 36 39 42 46 49 52 55 58 61 64 67 70 73 
3 6 9 12 15 18 21 24 27 30 33 36 39 42 46 49 52 55 58 61 64 67 70 73 76 79 82 85 88 91 94 97 100 103 106 109 112 115 118 121 124 128 131 134 137 140 143 146 149 152 155 158 161 164 167 170 173 176 179 182 185 188 191 194 197 200 203 206 209 0 3 6 9 12 15 18 21 24 27 30 33 36 39 42 46 49 52 55 58 61 64 67 70 73 76 79 82 85 88 91 94 97 100 103 106 109 112 115 118 121 124 128 131 134 137 140 143 146 149 152 155 158 161 164 167 170 173 176 179 182 185 188 191 194 197 200 203 206 209 0 3 6 9 12 15 18 21 24 27 30 33 36 39 42 46 49 52 55 58 61 64 67 70 73 76 79 82 85 88 91 94 97 100 103 106 109 112 115 118 121 124 128 131 134 137 140 143 146 149 152 155 158 161 164 167 170 173 176 179 182 185 188 191 194 197 200 203 206 209 0 3 6 9 12 15 18 21 24 27 30 33 36 39 42 46 49 52 55 58 61 64 67 70 73 76 79 82 85 88 91 94 97 100 103 106 109 112 115 118 121 124 128 131 134 137 140 143 146 149 152 155 158 161 164 167 170 173 176 179 182 185 188 191 194 197 200 203 206 209 0 3 6 9 12 15 18 21 24 27 30 33 36 39 42 46 49 52 55 58 61 
3 6 9 12 15 18 21 24 27 30 33 36 39 42 46 49 52 55 58 61 64 67 70 73 76 79 82 85 88 91 94 97 100 103 106 109 112 115 118 121 124 128 131 134 137 140 143 146 149 152 155 158 161 164 167 170 173 176 179 182 185 188 191 194 197 200 203 206 209 212 0 3 6 9 12 15 18 21 24 27 30 33 36 39 42 46 49 52 55 58 61 64 67 70 73 76 79 82 85 88 91 94 97 100 103 106 109 112 115 118 121 124 128 131 134 137 140 143 146 149 152 155 158 161 164 167 170 173 176 179 182 185 188 191 194 197 200 203 206 209 212 0 3 6 9 12 15 18 21 24 27 30 33 36 39 42 46 49 52 55 58 61 64 67 70 73 76 79 82 85 88 91 94 97 100 103 106 109 112 115 118 121 124 128 131 134 137 140 143 146 149 152 155 158 161 164 167 170 173 176 179 182 185 188 191 194 197 200 203 206 209 212 0 3 6 9 12 15 18 21 24 27 30 33 36 39 42 46 49 52 55 58 61 64 67 70 73 76 79 82 85 88 91 94 97 100 103 106 109 112 115 118 121 124 128 131 134 137 140 143 146 149 152 155 158 161 164 167 170 173 176 179 182 185 188 191 194 197 200 203 206 209 212 0 3 6 9 12 15 18 21 24 27 30 33 36 39 42 46 49 
3 6 9 12 15 18 21 24 27 30 33 36 39 42 46 49 52 55 58 61 64 67 70 73 76 79 82 85 88 91 94 97 100 103 106 109 112 115 118 121 124 128 131 134 137 140 143 146 149 152 155 158 161 164 167 170 173 176 179 182 185 188 191 194 197 200 203 206 209 212 216 0 3 6 9 12 15 18 21 24 27 30 33 36 39 42 46 49 52 55 58 61 64 67 70 73 76 79 82 85 88 91 94 97 100 103 106 109 112 115 118 121 124 128 131 134 137 140 143 146 149 152 155 158 161 164 167 170 173 176 179 182 185 188 191 194 197 200 203 206 209 212 216 0 3 6 9 12 15 18 21 24 27 30 33 36 39 42 46 49 52 55 58 61 64 67 70 73 76 79 82 85 88 91 94 97 100 103 106 109 112 115 118 121 124 128 131 134 137 140 143 146 149 152 155 158 161 164 167 170 173 176 179 182 185 188 191 194 197 200 203 206 209 212 216 0 3 6 9 12 15 18 21 24 27 30 33 36 39 42 46 49 52 55 58 61 64 67 70 73 76 79 82 85 88 91 94 97 100 103 106 109 112 115 118 121 124 128 131 134 137 140 143 146 149 152 155 158 161 164 167 170 173 176 179 182 185 188 191 194 197 200 203 206 209 212 216 0 3 6 9 12 15 18 21 24 27 30 33 36 
3 6 9 12 15 18 21 24 27 30 33 36 39 42 46 49 52 55 58 61 64 67 70 73 76 79 82 85 88 91 94 97 100 103 106 109 112 115 118 121 124 128 131 134 137 140 143 146 149 152 155 158 161 164 167 170 173 176 179 182 185 188 191 194 197 200 203 206 209 212 216 219 0 3 6 9 12 15 18 21 24 27 30 33 36 39 42 46 49 52 55 58 61 64 67 70 73 76 79 82 85 88 91 94 97 100 103 106 109 112 115 118 121 124 128 131 134 137 140 143 146 149 152 155 158 161 164 167 170 173 176 179 182 185 188 191 194 197 200 203 206 209 212 216 219 0 3 6 9 12 15 18 21 24 27 30 33 36 39 42 46 49 52 55 58 61 64 67 70 73 76 79 82 85 88 91 94 97 100 103 106 109 112 115 118 121 124 128 131 134 137 140 143 146 149 152 155 158 161 164 167 170 173 176 179 182 185 188 191 194 197 200 203 206 209 212 216 219 0 3 6 9 12 15 18 21 24 27 30 33 36 39 42 46 49 52 55 58 61 64 67 70 73 76 79 82 85 88 91 94 97 100 103 106 109 112 115 118 121 124 128 131 134 137 140 143 146 149 152 155 158 161 164 167 170 173 176 179 182 185 188 191 194 197 200 203 206 209 212 216 219 0 3 6 9 12 15 18 21 24 
3 6 9 12 15 18 21 24 27 30 33 36 39 42 46 49 52 55 58 61 64 67 70 73 76 79 82 85 88 91 94 97 100 103 106 109 112 115 118 121 124 128 131 134 137 140 143 146 149 152 155 158 161 164 167 170 173 176 179 182 185 188 191 194 197 200 203 206 209 212 216 219 222 0 3 6 9 12 15 18 21 24 27 30 33 36 39 42 46 49 52 55 58 61 64 67 70 73 76 79 82 85 88 91 94 97 100 103 106 109 112 115 118 121 124 128 131 134 137 140 143 146 149 152 155 158 161 164 167 170 173 176 179 182 185 188 191 194 197 200 203 206 209 212 216 219 222 0 3 6 9 12 15 18 21 24 27 30 33 36 39 42 46 49 52 55 58 61 64 67 70 73 76 79 82 85 88 91 94 97 100 103 106 109 112 115 118 121 124 128 131 134 137 140 143 146 149 152 155 158 161 164 167 170 173 176 179 182 185 188 191 194 197 200 203 206 209 212 216 219 222 0 3 6 9 12 15 18 21 24 27 30 33 36 39 42 46 49 52 55 58 61 64 67 70 73 76 79 82 85 88 91 94 97 100 103 106 109 112 115 118 121 124 128 131 134 137 140 143 146 149 152 155 158 161 164 167 170 173 176 179 182 185 188 191 194 197 200 203 206 209 212 216 219 222 0 3 6 9 12 
3 6 9 12 15 18 21 24 27 30 33 36 39 42 46 49 52 55 58 61 64 67 70 73 76 79 82 85 88 91 94 97 100 103 106 109 112 115 118 121 124 128 131 134 137 140 143 146 149 152 155 158 161 164 167 170 173 176 179 182 185 188 191 194 197 200 203 206 209 212 216 219 222 225 0 3 6 9 12 15 18 21 24 27 30 33 36 39 42 46 49 52 55 58 61 64 67 70 73 76 79 82 85 88 91 94 97 100 103 106 109 112 115 118 121 124 128 131 134 137 140 143 146 149 152 155 158 161 164 167 170 173 176 179 182 185 188 191 194 197 200 203 206 209 212 216 219 222 225 0 3 6 9 12 15 18 21 24 27 30 33 36 39 42 46 49 52 55 58 61 64 67 70 73 76 79 82 85 88 91 94 97 100 103 106 109 112 115 118 121 124 128 131 134 137 140 143 146 149 152 155 158 161 164 167 170 173 176 179 182 185 188 191 194 197 200 203 206 209 212 216 219 222 225 0 3 6 9 12 15 18 21 24 27 30 33 36 39 42 46 49 52 55 58 61 64 67 70 73 76 79 82 85 88 91 94 97 100 103 106 109 112 115 118 121 124 128 131 134 137 140 143 146 149 152 155 158 161 164 167 170 173 176 179 182 185 188 191 194 197 200 203 206 209 212 216 219 222 225 0 
3 6 9 12 15 18 21 24 27 30 33 36 39 42 46 49 52 55 58 61 64 67 70 73 76 79 82 85 88 91 94 97 100 103 106 109 112 115 118 121 124 128 131 134 137 140 143 146 149 152 155 158 161 164 167 170 173 176 179 182 185 188 191 194 197 200 203 206 209 212 216 219 222 225 228 0 3 6 9 12 15 18 21 24 27 30 33 36 39 42 46 49 52 55 58 61 64 67 70 73 76 79 82 85 88 91 94 97 100 103 106 109 112 115 118 121 124 128 131 134 137 140 143 146 149 152 155 158 161 164 167 170 173 176 179 182 185 188 191 194 197 200 203 206 209 212 216 219 222 225 228 0 3 6 9 12 15 18 21 24 27 30 33 36 39 42 46 49 52 55 58 61 64 67 70 73 76 79 82 85 88 91 94 97 100 103 106 109 112 115 118 121 124 128 131 134 137 140 143 146 149 152 155 158 161 164 167 170 173 176 179 182 185 188 191 194 197 200 203 206 209 212 216 219 222 225 228 0 3 6 9 12 15 18 21 24 27 30 33 36 39 42 46 49 52 55 58 61 64 67 70 73 76 79 82 85 88 91 94 97 100 103 106 109 112 115 118 121 124 128 131 134 137 140 143 146 149 152 155 158 161 164 167 170 173 176 179 182 185 188 191 194 197 200 203 206 209 212 216 219 
3 6 9 12 15 18 21 24 27 30 33 36 39 42 46 49 52 55 58 61 64 67 70 73 76 79 82 85 88 91 94 97 100 103 106 109 112 115 118 121 124 128 131 134 137 140 143 146 149 152 155 158 161 164 167 170 173 176 179 182 185 188 191 194 197 200 203 206 209 212 216 219 222 225 228 231 0 3 6 9 12 15 18 21 24 27 30 33 36 39 42 46 49 52 55 58 61 64 67 70 73 76 79 82 85 88 91 94 97 100 103 106 109 112 115 118 121 124 128 131 134 137 140 143 146 149 152 155 158 161 164 167 170 173 176 179 182 185 188 191 194 197 200 203 206 209 212 216 219 222 225 228 231 0 3 6 9 12 15 18 21 24 27 30 33 36 39 42 46 49 52 55 58 61 64 67 70 73 76 79 82 85 88 91 94 97 100 103 106 109 112 115 118 121 124 128 131 134 137 140 143 146 149 152 155 158 161 164 167 170 173 176 179 182 185 188 191 194 197 200 203 206 209 212 216 219 222 225 228 231 0 3 6 9 12 15 18 21 24 27 30 33 36 39 42 46 49 52 55 58 61 64 67 70 73 76 79 82 85 88 91 94 97 100 103 106 109 112 115 118 121 124 128 131 134 137 140 143 146 149 152 155 158 161 164 167 170 173 176 179 182 185 188 191 194 197 200 203 206 209 
3 6 9 12 15 18 21 24 27 30 33 36 39 42 46 49 52 55 58 61 64 67 70 73 76 79 82 85 88 91 94 97 100 103 106 109 112 115 118 121 124 128 131 134 137 140 143 146 149 152 155 158 161 164 167 170 173 176 179 182 185 188 191 194 197 200 203 206 209 212 216 219 222 225 228 231 234 0 3 6 9 12 15 18 21 24 27 30 33 36 39 42 46 49 52 55 58 61 64 67 70 73 76 79 82 85 88 91 94 97 100 103 106 109 112 115 118 121 124 128 131 134 137 140 143 146 149 152 155 158 161 164 167 170 173 176 179 182 185 188 191 194 197 200 203 206 209 212 216 219 222 225 228 231 234 0 3 6 9 12 15 18 21 24 27 30 33 36 39 42 46 49 52 55 58 61 64 67 70 73 76 79 82 85 88 91 94 97 100 103 106 109 112 115 118 121 124 128 131 134 137 140 143 146 149 152 155 158 161 164 167 170 173 176 179 182 185 188 191 194 197 200 203 206 209 212 216 219 222 225 228 231 234 0 3 6 9 12 15 18 21 24 27 30 33 36 39 42 46 49 52 55 58 61 64 67 70 73 76 79 82 85 88 91 94 97 100 103 106 109 112 115 118 121 124 128 131 134 137 140 143 146 149 152 155 158 161 164 167 170 173 176 179 182 185 188 191 194 197 200 
3 6 9 12 15 18 21 24 27 30 33 36 39 42 46 49 52 55 58 61 64 67 70 73 76 79 82 85 88 91 94 97 100 103 106 109 112 115 118 121 124 128 131 134 137 140 143 146 149 152 155 158 161 164 167 170 173 176 179 182 185 188 191 194 197 200 203 206 209 212 216 219 222 225 228 231 234 237 0 3 6 9 12 15 18 21 24 27 30 33 36 39 42 46 49 52 55 58 61 64 67 70 73 76 79 82 85 88 91 94 97 100 103 106 109 112 115 118 121 124 128 131 134 137 140 143 146 149 152 155 158 161 164 167 170 173 176 179 182 185 188 191 194 197 200 203 206 209 212 216 219 222 225 228 231 234 237 0 3 6 9 12 15 18 21 24 27 30 33 36 39 42 46 49 52 55 58 61 64 67 70 73 76 79 82 85 88 91 94 97 100 103 106 109 112 115 118 121 124 128 131 134 137 140 143 146 149 152 155 158 161 164 167 170 173 176 179 182 185 188 191 194 197 200 203 206 209 212 216 219 222 225 228 231 234 237 0 3 6 9 12 15 18 21 24 27 30 33 36 39 42 46 49 52 55 58 61 64 67 70 73 76 79 82 85 88 91 94 97 100 103 106 109 112 115 118 121 124 128 131 134 137 140 143 146 149 152 155 158 161 164 167 170 173 176 179 182 185 188 191 
3 6 9 12 15 18 21 24 27 30 33 36 39 42 46 49 52 55 58 61 64 67 70 73 76 79 82 85 88 91 94 97 100 103 106 109 112 115 118 121 124 128 131 134 137 140 143 146 149 152 155 158 161 164 167 170 173 176 179 182 185 188 191 194 197 200 203 206 209 212 216 219 222 225 228 231 234 237 240 0 3 6 9 12 15 18 21 24 27 30 33 36 39 42 46 49 52 55 58 61 64 67 70 73 76 79 82 85 88 91 94 97 100 103 106 109 112 115 118 121 124 128 131 134 137 140 143 146 149 152 155 158 161 164 167 170 173 176 179 182 185 188 191 194 197 200 203 206 209 212 216 219 222 225 228 231 234 237 240 0 3 6 9 12 15 18 21 24 27 30 33 36 39 42 46 49 52 55 58 61 64 67 70 73 76 79 82 85 88 91 94 97 100 103 106 109 112 115 118 121 124 128 131 134 137 140 143 146 149 152 155 158 161 164 167 170 173 176 179 182 185 188 191 194 197 200 203 206 209 212 216 219 222 225 228 231 234 237 240 0 3 6 9 12 15 18 21 24 27 30 33 36 39 42 46 49 52 55 58 61 64 67 70 73 76 79 82 85 88 91 94 97 100 103 106 109 112 115 118 121 124 128 131 134 137 140 143 146 149 152 155 158 161 164 167 170 173 176 179 182 
3 6 9 12 15 18 21 24 27 30 33 36 39 42 46 49 52 55 58 61 64 67 70 73 76 79 82 85 88 91 94 97 100 103 106 109 112 115 118 121 124 128 131 134 137 140 143 146 149 152 155 158 161 164 167 170 173 176 179 182 185 188 191 194 197 200 203 206 209 212 216 219 222 225 228 231 234 237 240 243 0 3 6 9 12 15 18 21 24 27 30 33 36 39 42 46 49 52 55 58 61 64 67 70 73 76 79 82 85 88 91 94 97 100 103 106 109 112 115 118 121 124 128 131 134 137 140 143 146 149 152 155 158 161 164 167 170 173 176 179 182 185 188 191 194 197 200 203 206 209 212 216 219 222 225 228 231 234 237 240 243 0 3 6 9 12 15 18 21 24 27 30 33 36 39 42 46 49 52 55 58 61 64 67 70 73 76 79 82 85 88 91 94 97 100 103 106 109 112 115 118 121 124 128 131 134 137 140 143 146 149 152 155 158 161 164 167 170 173 176 179 182 185 188 191 194 197 200 203 206 209 212 216 219 222 225 228 231 234 237 240 243 0 3 6 9 12 15 18 21 24 27 30 33 36 39 42 46 49 52 55 58 61 64 67 70 73 76 79 82 85 88 91 94 97 100 103 106 109 112 115 118 121 124 128 131 134 137 140 143 146 149 152 155 158 161 164 167 170 173 
3 6 9 12 15 18 21 24 27 30 33 36 39 42 46 49 52 55 58 61 64 67 70 73 76 79 82 85 88 91 94 97 100 103 106 109 112 115 118 121 124 128 131 134 137 140 143 146 149 152 155 158 161 164 167 170 173 176 179 182 185 188 191 194 197 200 203 206 209 212 216 219 222 225 228 231 234 237 240 243 246 0 3 6 9 12 15 18 21 24 27 30 33 36 39 42 46 49 52 55 58 61 64 67 70 73 76 79 82 85 88 91 94 97 100 103 106 109 112 115 118 121 124 128 131 134 137 140 143 146 149 152 155 158 161 164 167 170 173 176 179 182 185 188 191 194 197 200 203 206 209 212 216 219 222 225 228 231 234 237 240 243 246 0 3 6 9 12 15 18 21 24 27 30 33 36 39 42 46 49 52 55 58 61 64 67 70 73 76 79 82 85 88 91 94 97 100 103 106 109 112 115 118 121 124 128 131 134 137 140 143 146 149 152 155 158 161 164 167 170 173 176 179 182 185 188 191 194 197 200 203 206 209 212 216 219 222 225 228 231 234 237 240 243 246 0 3 6 9 12 15 18 21 24 27 30 33 36 39 42 46 49 52 55 58 61 64 67 70 73 76 79 82 85 88 91 94 97 100 103 106 109 112 115 118 121 124 128 131 134 137 140 143 146 149 152 155 158 161 164 
3 6 9 12 15 18 21 24 27 30 33 36 39 42 46 49 52 55 58 61 64 67 70 73 76 79 82 85 88 91 94 97 100 103 106 109 112 115 118 121 124 128 131 134 137 140 143 146 149 152 155 158 161 164 167 170 173 176 179 182 185 188 191 194 197 200 203 206 209 212 216 219 222 225 228 231 234 237 240 243 246 249 0 3 6 9 12 15 18 21 24 27 30 33 36 39 42 46 49 52 55 58 61 64 67 70 73 76 79 82 85 88 91 94 97 100 103 106 109 112 115 118 121 124 128 131 134 137 140 143 146 149 152 155 158 161 164 167 170 173 176 179 182 185 188 191 194 197 200 203 206 209 212 216 219 222 225 228 231 234 237 240 243 246 249 0 3 6 9 12 15 18 21 24 27 30 33 36 39 42 46 49 52 55 58 61 64 67 70 73 76 79 82 85 88 91 94 97 100 103 106 109 112 115 118 121 124 128 131 134 137 140 143 146 149 152 155 158 161 164 167 170 173 176 179 182 185 188 191 194 197 200 203 206 209 212 216 219 222 225 228 231 234 237 240 243 246 249 0 3 6 9 12 15 18 21 24 27 30 33 36 39 42 46 49 52 55 58 61 64 67 70 73 76 79 82 85 88 91 94 97 100 103 106 109 112 115 118 121 124 128 131 134 137 140 143 146 149 152 155 
3 6 9 12 15 18 21 24 27 30 33 36 39 42 46 49 52 55 58 61 64 67 70 73 76 79 82 85 88 91 94 97 100 103 106 109 112 115 118 121 124 128 131 134 137 140 143 146 149 152 155 158 161 164 167 170 173 176 179 182 185 188 191 194 197 200 203 206 209 212 216 219 222 225 228 231 234 237 240 243 246 249 252 0 3 6 9 12 15 18 21 24 27 30 33 36 39 42 46 49 52 55 58 61 64 67 70 73 76 79 82 85 88 91 94 97 100 103 106 109 112 115 118 121 124 128 131 134 137 140 143 146 149 152 155 158 161 164 167 170 173 176 179 182 185 188 191 194 197 200 203 206 209 212 216 219 222 225 228 231 234 237 240 243 246 249 252 0 3 6 9 12 15 18 21 24 27 30 33 36 39 42 46 49 52 55 58 61 64 67 70 73 76 79 82 85 88 91 94 97 100 103 106 109 112 115 118 121 124 128 131 134 137 140 143 146 149 152 155 158 161 164 167 170 173 176 179 182 185 188 191 194 197 200 203 206 209 212 216 219 222 225 228 231 234 237 240 243 246 249 252 0 3 6 9 12 15 18 21 24 27 30 33 36 39 42 46 49 52 55 58 61 64 67 70 73 76 79 82 85 88 91 94 97 100 103 106 109 112 115 118 121 124 128 131 134 137 140 143 146 
3 6 9 12 15 18 21 24 27 30 33 36 39 42 46 49 52 55 58 61 64 67 70 73 76 79 82 85 88 91 94 97 100 103 106 109 112 115 118 121 124 128 131 134 137 140 143 146 149 152 155 158 161 164 167 170 173 176 179 182 185 188 191 194 197 200 203 206 209 212 216 219 222 225 228 231 234 237 240 243 246 249 252 255 0 3 6 9 12 15 18 21 24 27 30 33 36 39 42 46 49 52 55 58 61 64 67 70 73 76 79 82 85 88 91 94 97 100 103 106 109 112 115 118 121 124 128 131 134 137 140 143 146 149 152 155 158 161 164 167 170 173 176 179 182 185 188 191 194 197 200 203 206 209 212 216 219 222 225 228 231 234 237 240 243 246 249 252 255 0 3 6 9 12 15 18 21 24 27 30 33 36 39 42 46 49 52 55 58 61 64 67 70 73 76 79 82 85 88 91 94 97 100 103 106 109 112 115 118 121 124 128 131 134 137 140 143 146 149 152 155 158 161 164 167 170 173 176 179 182 185 188 191 194 197 200 203 206 209 212 216 219 222 225 228 231 234 237 240 243 246 249 252 255 0 3 6 9 12 15 18 21 24 27 30 33 36 39 42 46 49 52 55 58 61 64 67 70 73 76 79 82 85 88 91 94 97 100 103 106 109 112 115 118 121 124 128 131 134 137 
2 4 6 8 10 12 14 16 18 20 22 24 26 28 30 32 34 36 38 40 42 45 47 49 51 53 55 57 59 61 63 65 67 69 71 73 75 77 79 81 83 85 87 89 91 93 95 97 99 101 103 105 107 109 111 113 115 117 119 121 123 125 128 130 132 134 136 138 140 142 144 146 148 150 152 154 156 158 160 162 164 166 168 170 172 0 2 4 6 8 10 12 14 16 18 20 22 24 26 28 30 32 34 36 38 40 42 45 47 49 51 53 55 57 59 61 63 65 67 69 71 73 75 77 79 81 83 85 87 89 91 93 95 97 99 101 103 105 107 109 111 113 115 117 119 121 123 125 128 130 132 134 136 138 140 142 144 146 148 150 152 154 156 158 160 162 164 166 168 170 172 0 2 4 6 8 10 12 14 16 18 20 22 24 26 28 30 32 34 36 38 40 42 45 47 49 51 53 55 57 59 61 63 65 67 69 71 73 75 77 79 81 83 85 87 89 91 93 95 97 99 101 103 105 107 109 111 113 115 117 119 121 123 125 128 130 132 134 136 138 140 142 144 146 148 150 152 154 156 158 160 162 164 166 168 170 172 0 2 4 6 8 10 12 14 16 18 20 22 24 26 28 30 32 34 36 38 40 42 45 47 49 51 53 55 57 59 61 63 65 67 69 71 73 75 77 79 81 83 85 
2 4 6 8 10 12 14 16 18 20 22 24 26 28 30 32 34 36 38 40 42 45 47 49 51 53 55 57 59 61 63 65 67 69 71 73 75 77 79 81 83 85 87 89 91 93 95 97 99 101 103 105 107 109 111 113 115 117 119 121 123 125 128 130 132 134 136 138 140 142 144 146 148 150 152 154 156 158 160 162 164 166 168 170 172 174 0 2 4 6 8 10 12 14 16 18 20 22 24 26 28 30 32 34 36 38 40 42 45 47 49 51 53 55 57 59 61 63 65 67 69 71 73 75 77 79 81 83 85 87 89 91 93 95 97 99 101 103 105 107 109 111 113 115 117 119 121 123 125 128 130 132 134 136 138 140 142 144 146 148 150 152 154 156 158 160 162 164 166 168 170 172 174 0 2 4 6 8 10 12 14 16 18 20 22 24 26 28 30 32 34 36 38 40 42 45 47 49 51 53 55 57 59 61 63 65 67 69 71 73 75 77 79 81 83 85 87 89 91 93 95 97 99 101 103 105 107 109 111 113 115 117 119 121 123 125 128 130 132 134 136 138 140 142 144 146 148 150 152 154 156 158 160 162 164 166 168 170 172 174 0 2 4 6 8 10 12 14 16 18 20 22 24 26 28 30 32 34 36 38 40 42 45 47 49 51 53 55 57 59 61 63 65 67 69 71 73 75 77 79 
2 4 6 8 10 12 14 16 18 20 22 24 26 28 30 32 34 36 38 40 42 45 47 49 51 53 55 57 59 61 63 65 67 69 71 73 75 77 79 81 83 85 87 89 91 93 95 97 99 101 103 105 107 109 111 113 115 117 119 121 123 125 128 130 132 134 136 138 140 142 144 146 148 150 152 154 156 158 160 162 164 166 168 170 172 174 176 0 2 4 6 8 10 12 14 16 18 20 22 24 26 28 30 32 34 36 38 40 42 45 47 49 51 53 55 57 59 61 63 65 67 69 71 73 75 77 79 81 83 85 87 89 91 93 95 97 99 101 103 105 107 109 111 113 115 117 119 121 123 125 128 130 132 134 136 138 140 142 144 146 148 150 152 154 156 158 160 162 164 166 168 170 172 174 176 0 2 4 6 8 10 12 14 16 18 20 22 24 26 28 30 32 34 36 38 40 42 45 47 49 51 53 55 57 59 61 63 65 67 69 71 73 75 77 79 81 83 85 87 89 91 93 95 97 99 101 103 105 107 109 111 113 115 117 119 121 123 125 128 130 132 134 136 138 140 142 144 146 148 150 152 154 156 158 160 162 164 166 168 170 172 174 176 0 2 4 6 8 10 12 14 16 18 20 22 24 26 28 30 32 34 36 38 40 42 45 47 49 51 53 55 57 59 61 63 65 67 69 71 73 
2 4 6 8 10 12 14 16 18 20 22 24 26 28 30 32 34 36 38 40 42 45 47 49 51 53 55 57 59 61 63 65 67 69 71 73 75 77 79 81 83 85 87 89 91 93 95 97 99 101 103 105 107 109 111 113 115 117 119 121 123 125 128 130 132 134 136 138 140 142 144 146 148 150 152 154 156 158 160 162 164 166 168 170 172 174 176 178 0 2 4 6 8 10 12 14 16 18 20 22 24 26 28 30 32 34 36 38 40 42 45 47 49 51 53 55 57 59 61 63 65 67 69 71 73 75 77 79 81 83 85 87 89 91 93 95 97 99 101 103 105 107 109 111 113 115 117 119 121 123 125 128 130 132 134 136 138 140 142 144 146 148 150 152 154 156 158 160 162 164 166 168 170 172 174 176 178 0 2 4 6 8 10 12 14 16 18 20 22 24 26 28 30 32 34 36 38 40 42 45 47 49 51 53 55 57 59 61 63 65 67 69 71 73 75 77 79 81 83 85 87 89 91 93 95 97 99 101 103 105 107 109 111 113 115 117 119 121 123 125 128 130 132 134 136 138 140 142 144 146 148 150 152 154 156 158 160 162 164 166 168 170 172 174 176 178 0 2 4 6 8 10 12 14 16 18 20 22 24 26 28 30 32 34 36 38 40 42 45 47 49 51 53 55 57 59 61 63 65 67 
2 4 6 8 10 12 14 16 18 20 22 24 26 28 30 32 34 36 38 40 42 45 47 49 51 53 55 57 59 61 63 65 67 69 71 73 75 77 79 81 83 85 87 89 91 93 95 97 99 101 103 105 107 109 111 113 115 117 119 121 123 125 128 130 132 134 136 138 140 142 144 146 148 150 152 154 156 158 160 162 164 166 168 170 172 174 176 178 180 0 2 4 6 8 10 12 14 16 18 20 22 24 26 28 30 32 34 36 38 40 42 45 47 49 51 53 55 57 59 61 63 65 67 69 71 73 75 77 79 81 83 85 87 89 91 93 95 97 99 101 103 105 107 109 111 113 115 117 119 121 123 125 128 130 132 134 136 138 140 142 144 146 148 150 152 154 156 158 160 162 164 166 168 170 172 174 176 178 180 0 2 4 6 8 10 12 14 16 18 20 22 24 26 28 30 32 34 36 38 40 42 45 47 49 51 53 55 57 59 61 63 65 67 69 71 73 75 77 79 81 83 85 87 89 91 93 95 97 99 101 103 105 107 109 111 113 115 117 119 121 123 125 128 130 132 134 136 138 140 142 144 146 148 150 152 154 156 158 160 162 164 166 168 170 172 174 176 178 180 0 2 4 6 8 10 12 14 16 18 20 22 24 26 28 30 32 34 36 38 40 42 45 47 49 51 53 55 57 59 61 
2 4 6 8 10 12 14 16 18 20 22 24 26 28 30 32 34 36 38 40 42 45 47 49 51 53 55 57 59 61 63 65 67 69 71 73 75 77 79 81 83 85 87 89 91 93 95 97 99 101 103 105 107 109 111 113 115 117 119 121 123 125 128 130 132 134 136 138 140 142 144 146 148 150 152 154 156 158 160 162 164 166 168 170 172 174 176 178 180 182 0 2 4 6 8 10 12 14 16 18 20 22 24 26 28 30 32 34 36 38 40 42 45 47 49 51 53 55 57 59 61 63 65 67 69 71 73 75 77 79 81 83 85 87 89 91 93 95 97 99 101 103 105 107 109 111 113 115 117 119 121 123 125 128 130 132 134 136 138 140 142 144 146 148 150 152 154 156 158 160 162 164 166 168 170 172 174 176 178 180 182 0 2 4 6 8 10 12 14 16 18 20 22 24 26 28 30 32 34 36 38 40 42 45 47 49 51 53 55 57 59 61 63 65 67 69 71 73 75 77 79 81 83 85 87 89 91 93 95 97 99 101 103 105 107 109 111 113 115 117 119 121 123 125 128 130 132 134 136 138 140 142 144 146 148 150 152 154 156 158 160 162 164 166 168 170 172 174 176 178 180 182 0 2 4 6 8 10 12 14 16 18 20 22 24 26 28 30 32 34 36 38 40 42 45 47 49 51 53 55 
2 4 6 8 10 12 14 16 18 20 22 24 26 28 30 32 34 36 38 40 42 45 47 49 51 53 55 57 59 61 63 65 67 69 71 73 75 77 79 81 83 85 87 89 91 93 95 97 99 101 103 105 107 109 111 113 115 117 119 121 123 125 128 130 132 134 136 138 140 142 144 146 148 150 152 154 156 158 160 162 164 166 168 170 172 174 176 178 180 182 184 0 2 4 6 8 10 12 14 16 18 20 22 24 26 28 30 32 34 36 38 40 42 45 47 49 51 53 55 57 59 61 63 65 67 69 71 73 75 77 79 81 83 85 87 89 91 93 95 97 99 101 103 105 107 109 111 113 115 117 119 121 123 125 128 130 132 134 136 138 140 142 144 146 148 150 152 154 156 158 160 162 164 166 168 170 172 174 176 178 180 182 184 0 2 4 6 8 10 12 14 16 18 20 22 24 26 28 30 32 34 36 38 40 42 45 47 49 51 53 55 57 59 61 63 65 67 69 71 73 75 77 79 81 83 85 87 89 91 93 95 97 99 101 103 105 107 109 111 113 115 117 119 121 123 125 128 130 132 134 136 138 140 142 144 146 148 150 152 154 156 158 160 162 164 166 168 170 172 174 176 178 180 182 184 0 2 4 6 8 10 12 14 16 18 20 22 24 26 28 30 32 34 36 38 40 42 45 47 49 
2 4 6 8 10 12 14 16 18 20 22 24 26 28 30 32 34 36 38 40 42 45 47 49 51 53 55 57 59 61 63 65 67 69 71 73 75 77 79 81 83 85 87 89 91 93 95 97 99 101 103 105 107 109 111 113 115 117 119 121 123 125 128 130 132 134 136 138 140 142 144 146 148 150 152 154 156 158 160 162 164 166 168 170 172 174 176 178 180 182 184 186 0 2 4 6 8 10 12 14 16 18 20 22 24 26 28 30 32 34 36 38 40 42 45 47 49 51 53 55 57 59 61 63 65 67 69 71 73 75 77 79 81 83 85 87 89 91 93 95 97 99 101 103 105 107 109 111 113 115 117 119 121 123 125 128 130 132 134 136 138 140 142 144 146 148 150 152 154 156 158 160 162 164 166 168 170 172 174 176 178 180 182 184 186 0 2 4 6 8 10 12 14 16 18 20 22 24 26 28 30 32 34 36 38 40 42 45 47 49 51 53 55 57 59 61 63 65 67 69 71 73 75 77 79 81 83 85 87 89 91 93 95 97 99 101 103 105 107 109 111 113 115 117 119 121 123 125 128 130 132 134 136 138 140 142 144 146 148 150 152 154 156 158 160 162 164 166 168 170 172 174 176 178 180 182 184 186 0 2 4 6 8 10 12 14 16 18 20 22 24 26 28 30 32 34 36 38 40 42 
2 4 6 8 10 12 14 16 18 20 22 24 26 28 30 32 34 36 38 40 42 45 47 49 51 53 55 57 59 61 63 65 67 69 71 73 75 77 79 81 83 85 87 89 91 93 95 97 99 101 103 105 107 109 111 113 115 117 119 121 123 125 128 130 132 134 136 138 140 142 144 146 148 150 152 154 156 158 160 162 164 166 168 170 172 174 176 178 180 182 184 186 188 0 2 4 6 8 10 12 14 16 18 20 22 24 26 28 30 32 34 36 38 40 42 45 47 49 51 53 55 57 59 61 63 65 67 69 71 73 75 77 79 81 83 85 87 89 91 93 95 97 99 101 103 105 107 109 111 113 115 117 119 121 123 125 128 130 132 134 136 138 140 142 144 146 148 150 152 154 156 158 160 162 164 166 168 170 172 174 176 178 180 182 184 186 188 0 2 4 6 8 10 12 14 16 18 20 22 24 26 28 30 32 34 36 38 40 42 45 47 49 51 53 55 57 59 61 63 65 67 69 71 73 75 77 79 81 83 85 87 89 91 93 95 97 99 101 103 105 107 109 111 113 115 117 119 121 123 125 128 130 132 134 136 138 140 142 144 146 148 150 152 154 156 158 160 162 164 166 168 170 172 174 176 178 180 182 184 186 188 0 2 4 6 8 10 12 14 16 18 20 22 24 26 28 30 32 34 36 
2 4 6 8 10 12 14 16 18 20 22 24 26 28 30 32 34 36 38 40 42 45 47 49 51 53 55 57 59 61 63 65 67 69 71 73 75 77 79 81 83 85 87 89 91 93 95 97 99 101 103 105 107 109 111 113 115 117 119 121 123 125 128 130 132 134 136 138 140 142 144 146 148 150 152 154 156 158 160 162 164 166 168 170 172 174 176 178 180 182 184 186 188 190 0 2 4 6 8 10 12 14 16 18 20 22 24 26 28 30 32 34 36 38 40 42 45 47 49 51 53 55 57 59 61 63 65 67 69 71 73 75 77 79 81 83 85 87 89 91 93 95 97 99 101 103 105 107 109 111 113 115 117 119 121 123 125 128 130 132 134 136 138 140 142 144 146 148 150 152 154 156 158 160 162 164 166 168 170 172 174 176 178 180 182 184 186 188 190 0 2 4 6 8 10 12 14 16 18 20 22 24 26 28 30 32 34 36 38 40 42 45 47 49 51 53 55 57 59 61 63 65 67 69 71 73 75 77 79 81 83 85 87 89 91 93 95 97 99 101 103 105 107 109 111 113 115 117 119 121 123 125 128 130 132 134 136 138 140 142 144 146 148 150 152 154 156 158 160 162 164 166 168 170 172 174 176 178 180 182 184 186 188 190 0 2 4 6 8 10 12 14 16 18 20 22 24 26 28 30 
2 4 6 8 10 12 14 16 18 20 22 24 26 28 30 32 34 36 38 40 42 45 47 49 51 53 55 57 59 61 63 65 67 69 71 73 75 77 79 81 83 85 87 89 91 93 95 97 99 101 103 105 107 109 111 113 115 117 119 121 123 125 128 130 132 134 136 138 140 142 144 146 148 150 152 154 156 158 160 162 164 166 168 170 172 174 176 178 180 182 184 186 188 190 192 0 2 4 6 8 10 12 14 16 18 20 22 24 26 28 30 32 34 36 38 40 42 45 47 49 51 53 55 57 59 61 63 65 67 69 71 73 75 77 79 81 83 85 87 89 91 93 95 97 99 101 103 105 107 109 111 113 115 117 119 121 123 125 128 130 132 134 136 138 140 142 144 146 148 150 152 154 156 158 160 162 164 166 168 170 172 174 176 178 180 182 184 186 188 190 192 0 2 4 6 8 10 12 14 16 18 20 22 24 26 28 30 32 34 36 38 40 42 45 47 49 51 53 55 57 59 61 63 65 67 69 71 73 75 77 79 81 83 85 87 89 91 93 95 97 99 101 103 105 107 109 111 113 115 117 119 121 123 125 128 130 132 134 136 138 140 142 144 146 148 150 152 154 156 158 160 162 164 166 168 170 172 174 176 178 180 182 184 186 188 190 192 0 2 4 6 8 10 12 14 16 18 20 22 24 
2 4 6 8 10 12 14 16 18 20 22 24 26 28 30 32 34 36 38 40 42 45 47 49 51 53 55 57 59 61 63 65 67 69 71 73 75 77 79 81 83 85 87 89 91 93 95 97 99 101 103 105 107 109 111 113 115 117 119 121 123 125 128 130 132 134 136 138 140 142 144 146 148 150 152 154 156 158 160 162 164 166 168 170 172 174 176 178 180 182 184 186 188 190 192 194 0 2 4 6 8 10 12 14 16 18 20 22 24 26 28 30 32 34 36 38 40 42 45 47 49 51 53 55 57 59 61 63 65 67 69 71 73 75 77 79 81 83 85 87 89 91 93 95 97 99 101 103 105 107 109 111 113 115 117 119 121 123 125 128 130 132 134 136 138 140 142 144 146 148 150 152 154 156 158 160 162 164 166 168 170 172 174 176 178 180 182 184 186 188 190 192 194 0 2 4 6 8 10 12 14 16 18 20 22 24 26 28 30 32 34 36 38 40 42 45 47 49 51 53 55 57 59 61 63 65 67 69 71 73 75 77 79 81 83 85 87 89 91 93 95 97 99 101 103 105 107 109 111 113 115 117 119 121 123 125 128 130 132 134 136 138 140 142 144 146 148 150 152 154 156 158 160 162 164 166 168 170 172 174 176 178 180 182 184 186 188 190 192 194 0 2 4 6 8 10 12 14 16 18 
2 4 6 8 10 12 14 16 18 20 22 24 26 28 30 32 34 36 38 40 42 45 47 49 51 53 55 57 59 61 63 65 67 69 71 73 75 77 79 81 83 85 87 89 91 93 95 97 99 101 103 105 107 109 111 113 115 117 119 121 123 125 128 130 132 134 136 138 140 142 144 146 148 150 152 154 156 158 160 162 164 166 168 170 172 174 176 178 180 182 184 186 188 190 192 194 196 0 2 4 6 8 10 12 14 16 18 20 22 24 26 28 30 32 34 36 38 40 42 45 47 49 51 53 55 57 59 61 63 65 67 69 71 73 75 77 79 81 83 85 87 89 91 93 95 97 99 101 103 105 107 109 111 113 115 117 119 121 123 125 128 130 132 134 136 138 140 142 144 146 148 150 152 154 156 158 160 162 164 166 168 170 172 174 176 178 180 182 184 186 188 190 192 194 196 0 2 4 6 8 10 12 14 16 18 20 22 24 26 28 30 32 34 36 38 40 42 45 47 49 51 53 55 57 59 61 63 65 67 69 71 73 75 77 79 81 83 85 87 89 91 93 95 97 99 101 103 105 107 109 111 113 115 117 119 121 123 125 128 130 132 134 136 138 140 142 144 146 148 150 152 154 156 158 160 162 164 166 168 170 172 174 176 178 180 182 184 186 188 190 192 194 196 0 2 4 6 8 10 12 
2 4 6 8 10 12 14 16 18 20 22 24 26 28 30 32 34 36 38 40 42 45 47 49 51 53 55 57 59 61 63 65 67 69 71 73 75 77 79 81 83 85 87 89 91 93 95 97 99 101 103 105 107 109 111 113 115 117 119 121 123 125 128 130 132 134 136 138 140 142 144 146 148 150 152 154 156 158 160 162 164 166 168 170 172 174 176 178 180 182 184 186 188 190 192 194 196 198 0 2 4 6 8 10 12 14 16 18 20 22 24 26 28 30 32 34 36 38 40 42 45 47 49 51 53 55 57 59 61 63 65 67 69 71 73 75 77 79 81 83 85 87 89 91 93 95 97 99 101 103 105 107 109 111 113 115 117 119 121 123 125 128 130 132 134 136 138 140 142 144 146 148 150 152 154 156 158 160 162 164 166 168 170 172 174 176 178 180 182 184 186 188 190 192 194 196 198 0 2 4 6 8 10 12 14 16 18 20 22 24 26 28 30 32 34 36 38 40 42 45 47 49 51 53 55 57 59 61 63 65 67 69 71 73 75 77 79 81 83 85 87 89 91 93 95 97 99 101 103 105 107 109 111 113 115 117 119 121 123 125 128 130 132 134 136 138 140 142 144 146 148 150 152 154 156 158 160 162 164 166 168 170 172 174 176 178 180 182 184 186 188 190 192 194 196 198 0 2 4 6 
2 4 6 8 10 12 14 16 18 20 22 24 26 28 30 32 34 36 38 40 42 45 47 49 51 53 55 57 59 61 63 65 67 69 71 73 75 77 79 81 83 85 87 89 91 93 95 97 99 101 103 105 107 109 111 113 115 117 119 121 123 125 128 130 132 134 136 138 140 142 144 146 148 150 152 154 156 158 160 162 164 166 168 170 172 174 176 178 180 182 184 186 188 190 192 194 196 198 200 0 2 4 6 8 10 12 14 16 18 20 22 24 26 28 30 32 34 36 38 40 42 45 47 49 51 53 55 57 59 61 63 65 67 69 71 73 75 77 79 81 83 85 87 89 91 93 95 97 99 101 103 105 107 109 111 113 115 117 119 121 123 125 128 130 132 134 136 138 140 142 144 146 148 150 152 154 156 158 160 162 164 166 168 170 172 174 176 178 180 182 184 186 188 190 192 194 196 198 200 0 2 4 6 8 10 12 14 16 18 20 22 24 26 28 30 32 34 36 38 40 42 45 47 49 51 53 55 57 59 61 63 65 67 69 71 73 75 77 79 81 83 85 87 89 91 93 95 97 99 101 103 105 107 109 111 113 115 117 119 121 123 125 128 130 132 134 136 138 140 142 144 146 148 150 152 154 156 158 160 162 164 166 168 170 172 174 176 178 180 182 184 186 188 190 192 194 196 198 200 0 
2 4 6 8 10 12 14 16 18 20 22 24 26 28 30 32 34 36 38 40 42 45 47 49 51 53 55 57 59 61 63 65 67 69 71 73 75 77 79 81 83 85 87 89 91 93 95 97 99 101 103 105 107 109 111 113 115 117 119 121 123 125 128 130 132 134 136 138 140 142 144 146 148 150 152 154 156 158 160 162 164 166 168 170 172 174 176 178 180 182 184 186 188 190 192 194 196 198 200 202 0 2 4 6 8 10 12 14 16 18 20 22 24 26 28 30 32 34 36 38 40 42 45 47 49 51 53 55 57 59 61 63 65 67 69 71 73 75 77 79 81 83 85 87 89 91 93 95 97 99 101 103 105 107 109 111 113 115 117 119 121 123 125 128 130 132 134 136 138 140 142 144 146 148 150 152 154 156 158 160 162 164 166 168 170 172 174 176 178 180 182 184 186 188 190 192 194 196 198 200 202 0 2 4 6 8 10 12 14 16 18 20 22 24 26 28 30 32 34 36 38 40 42 45 47 49 51 53 55 57 59 61 63 65 67 69 71 73 75 77 79 81 83 85 87 89 91 93 95 97 99 101 103 105 107 109 111 113 115 117 119 121 123 125 128 130 132 134 136 138 140 142 144 146 148 150 152 154 156 158 160 162 164 166 168 170 172 174 176 178 180 182 184 186 188 190 192 194 196 198 
2 4 6 8 10 12 14 16 18 20 22 24 26 28 30 32 34 36 38 40 42 45 47 49 51 53 55 57 59 61 63 65 67 69 71 73 75 77 79 81 83 85 87 89 91 93 95 97 99 101 103 105 107 109 111 113 115 117 119 121 123 125 128 130 132 134 136 138 140 142 144 146 148 150 152 154 156 158 160 162 164 166 168 170 172 174 176 178 180 182 184 186 188 190 192 194 196 198 200 202 204 0 2 4 6 8 10 12 14 16 18 20 22 24 26 28 30 32 34 36 38 40 42 45 47 49 51 53 55 57 59 61 63 65 67 69 71 73 75 77 79 81 83 85 87 89 91 93 95 97 99 101 103 105 107 109 111 113 115 117 119 121 123 125 128 130 132 134 136 138 140 142 144 146 148 150 152 154 156 158 160 162 164 166 168 170 172 174 176 178 180 182 184 186 188 190 192 194 196 198 200 202 204 0 2 4 6 8 10 12 14 16 18 20 22 24 26 28 30 32 34 36 38 40 42 45 47 49 51 53 55 57 59 61 63 65 67 69 71 73 75 77 79 81 83 85 87 89 91 93 95 97 99 101 103 105 107 109 111 113 115 117 119 121 123 125 128 130 132 134 136 138 140 142 144 146 148 150 152 154 156 158 160 162 164 166 168 170 172 174 176 178 180 182 184 186 188 190 192 194 
2 4 6 8 10 12 14 16 18 20 22 24 26 28 30 32 34 36 38 40 42 45 47 49 51 53 55 57 59 61 63 65 67 69 71 73 75 77 79 81 83 85 87 89 91 93 95 97 99 101 103 105 107 109 111 113 115 117 119 121 123 125 128 130 132 134 136 138 140 142 144 146 148 150 152 154 156 158 160 162 164 166 168 170 172 174 176 178 180 182 184 186 188 190 192 194 196 198 200 202 204 206 0 2 4 6 8 10 12 14 16 18 20 22 24 26 28 30 32 34 36 38 40 42 45 47 49 51 53 55 57 59 61 63 65 67 69 71 73 75 77 79 81 83 85 87 89 91 93 95 97 99 101 103 105 107 109 111 113 115 117 119 121 123 125 128 130 132 134 136 138 140 142 144 146 148 150 152 154 156 158 160 162 164 166 168 170 172 174 176 178 180 182 184 186 188 190 192 194 196 198 200 202 204 206 0 2 4 6 8 10 12 14 16 18 20 22 24 26 28 30 32 34 36 38 40 42 45 47 49 51 53 55 57 59 61 63 65 67 69 71 73 75 77 79 81 83 85 87 89 91 93 95 97 99 101 103 105 107 109 111 113 115 117 119 121 123 125 128 130 132 134 136 138 140 142 144 146 148 150 152 154 156 158 160 162 164 166 168 170 172 174 176 178 180 182 184 186 188 190 
2 4 6 8 10 12 14 16 18 20 22 24 26 28 30 32 34 36 38 40 42 45 47 49 51 53 55 57 59 61 63 65 67 69 71 73 75 77 79 81 83 85 87 89 91 93 95 97 99 101 103 105 107 109 111 113 115 117 119 121 123 125 128 130 132 134 136 138 140 142 144 146 148 150 152 154 156 158 160 162 164 166 168 170 172 174 176 178 180 182 184 186 188 190 192 194 196 198 200 202 204 206 208 0 2 4 6 8 10 12 14 16 18 20 22 24 26 28 30 32 34 36 38 40 42 45 47 49 51 53 55 57 59 61 63 65 67 69 71 73 75 77 79 81 83 85 87 89 91 93 95 97 99 101 103 105 107 109 111 113 115 117 119 121 123 125 128 130 132 134 136 138 140 142 144 146 148 150 152 154 156 158 160 162 164 166 168 170 172 174 176 178 180 182 184 186 188 190 192 194 196 198 200 202 204 206 208 0 2 4 6 8 10 12 14 16 18 20 22 24 26 28 30 32 34 36 38 40 42 45 47 49 51 53 55 57 59 61 63 65 67 69 71 73 75 77 79 81 83 85 87 89 91 93 95 97 99 101 103 105 107 109 111 113 115 117 119 121 123 125 128 130 132 134 136 138 140 142 144 146 148 150 152 154 156 158 160 162 164 166 168 170 172 174 176 178 180 182 184 186 
2 4 6 8 10 12 14 16 18 20 22 24 26 28 30 32 34 36 38 40 42 45 47 49 51 53 55 57 59 61 63 65 67 69 71 73 75 77 79 81 83 85 87 89 91 93 95 97 99 101 103 105 107 109 111 113 115 117 119 121 123 125 128 130 132 134 136 138 140 142 144 146 148 150 152 154 156 158 160 162 164 166 168 170 172 174 176 178 180 182 184 186 188 190 192 194 196 198 200 202 204 206 208 210 0 2 4 6 8 10 12 14 16 18 20 22 24 26 28 30 32 34 36 38 40 42 45 47 49 51 53 55 57 59 61 63 65 67 69 71 73 75 77 79 81 83 85 87 89 91 93 95 97 99 101 103 105 107 109 111 113 115 117 119 121 123 125 128 130 132 134 136 138 140 142 144 146 148 150 152 154 156 158 160 162 164 166 168 170 172 174 176 178 180 182 184 186 188 190 192 194 196 198 200 202 204 206 208 210 0 2 4 6 8 10 12 14 16 18 20 22 24 26 28 30 32 34 36 38 40 42 45 47 49 51 53 55 57 59 61 63 65 67 69 71 73 75 77 79 81 83 85 87 89 91 93 95 97 99 101 103 105 107 109 111 113 115 117 119 121 123 125 128 130 132 134 136 138 140 142 144 146 148 150 152 154 156 158 160 162 164 166 168 170 172 174 176 178 180 182 
2 4 6 8 10 12 14 16 18 20 22 24 26 28 30 32 34 36 38 40 42 45 47 49 51 53 55 57 59 61 63 65 67 69 71 73 75 77 79 81 83 85 87 89 91 93 95 97 99 101 103 105 107 109 111 113 115 117 119 121 123 125 128 130 132 134 136 138 140 142 144 146 148 150 152 154 156 158 160 162 164 166 168 170 172 174 176 178 180 182 184 186 188 190 192 194 196 198 200 202 204 206 208 210 212 0 2 4 6 8 10 12 14 16 18 20 22 24 26 28 30 32 34 36 38 40 42 45 47 49 51 53 55 57 59 61 63 65 67 69 71 73 75 77 79 81 83 85 87 89 91 93 95 97 99 101 103 105 107 109 111 113 115 117 119 121 123 125 128 130 132 134 136 138 140 142 144 146 148 150 152 154 156 158 160 162 164 166 168 170 172 174 176 178 180 182 184 186 188 190 192 194 196 198 200 202 204 206 208 210 212 0 2 4 6 8 10 12 14 16 18 20 22 24 26 28 30 32 34 36 38 40 42 45 47 49 51 53 55 57 59 61 63 65 67 69 71 73 75 77 79 81 83 85 87 89 91 93 95 97 99 101 103 105 107 109 111 113 115 117 119 121 123 125 128 130 132 134 136 138 140 142 144 146 148 150 152 154 156 158 160 162 164 166 168 170 172 174 176 178 
2 4 6 8 10 12 14 16 18 20 22 24 26 28 30 32 34 36 38 40 42 45 47 49 51 53 55 57 59 61 63 65 67 69 71 73 75 77 79 81 83 85 87 89 91 93 95 97 99 101 103 105 107 109 111 113 115 117 119 121 123 125 128 130 132 134 136 138 140 142 144 146 148 150 152 154 156 158 160 162 164 166 168 170 172 174 176 178 180 182 184 186 188 190 192 194 196 198 200 202 204 206 208 210 212 215 0 2 4 6 8 10 12 14 16 18 20 22 24 26 28 30 32 34 36 38 40 42 45 47 49 51 53 55 57 59 61 63 65 67 69 71 73 75 77 79 81 83 85 87 89 91 93 95 97 99 101 103 105 107 109 111 113 115 117 119 121 123 125 128 130 132 134 136 138 140 142 144 146 148 150 152 154 156 158 160 162 164 166 168 170 172 174 176 178 180 182 184 186 188 190 192 194 196 198 200 202 204 206 208 210 212 215 0 2 4 6 8 10 12 14 16 18 20 22 24 26 28 30 32 34 36 38 40 42 45 47 49 51 53 55 57 59 61 63 65 67 69 71 73 75 77 79 81 83 85 87 89 91 93 95 97 99 101 103 105 107 109 111 113 115 117 119 121 123 125 128 130 132 134 136 138 140 142 144 146 148 150 152 154 156 158 160 162 164 166 168 170 172 174 
2 4 6 8 10 12 14 16 18 20 22 24 26 28 30 32 34 36 38 40 42 45 47 49 51 53 55 57 59 61 63 65 67 69 71 73 75 77 79 81 83 85 87 89 91 93 95 97 99 101 103 105 107 109 111 113 115 117 119 121 123 125 128 130 132 134 136 138 140 142 144 146 148 150 152 154 156 158 160 162 164 166 168 170 172 174 176 178 180 182 184 186 188 190 192 194 196 198 200 202 204 206 208 210 212 215 217 0 2 4 6 8 10 12 14 16 18 20 22 24 26 28 30 32 34 36 38 40 42 45 47 49 51 53 55 57 59 61 63 65 67 69 71 73 75 77 79 81 83 85 87 89 91 93 95 97 99 101 103 105 107 109 111 113 115 117 119 121 123 125 128 130 132 134 136 138 140 142 144 146 148 150 152 154 156 158 160 162 164 166 168 170 172 174 176 178 180 182 184 186 188 190 192 194 196 198 200 202 204 206 208 210 212 215 217 0 2 4 6 8 10 12 14 16 18 20 22 24 26 28 30 32 34 36 38 40 42 45 47 49 51 53 55 57 59 61 63 65 67 69 71 73 75 77 79 81 83 85 87 89 91 93 95 97 99 101 103 105 107 109 111 113 115 117 119 121 123 125 128 130 132 134 136 138 140 142 144 146 148 150 152 154 156 158 160 162 164 166 168 170 
2 4 6 8 10 12 14 16 18 20 22 24 26 28 30 32 34 36 38 40 42 45 47 49 51 53 55 57 59 61 63 65 67 69 71 73 75 77 79 81 83 85 87 89 91 93 95 97 99 101 103 105 107 109 111 113 115 117 119 121 123 125 128 130 132 134 136 138 140 142 144 146 148 150 152 154 156 158 160 162 164 166 168 170 172 174 176 178 180 182 184 186 188 190 192 194 196 198 200 202 204 206 208 210 212 215 217 219 0 2 4 6 8 10 12 14 16 18 20 22 24 26 28 30 32 34 36 38 40 42 45 47 49 51 53 55 57 59 61 63 65 67 69 71 73 75 77 79 81 83 85 87 89 91 93 95 97 99 101 103 105 107 109 111 113 115 117 119 121 123 125 128 130 132 134 136 138 140 142 144 146 148 150 152 154 156 158 160 162 164 166 168 170 172 174 176 178 180 182 184 186 188 190 192 194 196 198 200 202 204 206 208 210 212 215 217 219 0 2 4 6 8 10 12 14 16 18 20 22 24 26 28 30 32 34 36 38 40 42 45 47 49 51 53 55 57 59 61 63 65 67 69 71 73 75 77 79 81 83 85 87 89 91 93 95 97 99 101 103 105 107 109 111 113 115 117 119 121 123 125 128 130 132 134 136 138 140 142 144 146 148 150 152 154 156 158 160 162 164 166 
2 4 6 8 10 12 14 16 18 20 22 24 26 28 30 32 34 36 38 40 42 45 47 49 51 53 55 57 59 61 63 65 67 69 71 73 75 77 79 81 83 85 87 89 91 93 95 97 99 101 103 105 107 109 111 113 115 117 119 121 123 125 128 130 132 134 136 138 140 142 144 146 148 150 152 154 156 158 160 162 164 166 168 170 172 174 176 178 180 182 184 186 188 190 192 194 196 198 200 202 204 206 208 210 212 215 217 219 221 0 2 4 6 8 10 12 14 16 18 20 22 24 26 28 30 32 34 36 38 40 42 45 47 49 51 53 55 57 59 61 63 65 67 69 71 73 75 77 79 81 83 85 87 89 91 93 95 97 99 101 103 105 107 109 111 113 115 117 119 121 123 125 128 130 132 134 136 138 140 142 144 146 148 150 152 154 156 158 160 162 164 166 168 170 172 174 176 178 180 182 184 186 188 190 192 194 196 198 200 202 204 206 208 210 212 215 217 219 221 0 2 4 6 8 10 12 14 16 18 20 22 24 26 28 30 32 34 36 38 40 42 45 47 49 51 53 55 57 59 61 63 65 67 69 71 73 75 77 79 81 83 85 87 89 91 93 95 97 99 101 103 105 107 109 111 113 115 117 119 121 123 125 128 130 132 134 136 138 140 142 144 146 148 150 152 154 156 158 160 162 
2 4 6 8 10 12 14 16 18 20 22 24 26 28 30 32 34 36 38 40 42 45 47 49 51 53 55 57 59 61 63 65 67 69 71 73 75 77 79 81 83 85 87 89 91 93 95 97 99 101 103 105 107 109 111 113 115 117 119 121 123 125 128 130 132 134 136 138 140 142 144 146 148 150 152 154 156 158 160 162 164 166 168 170 172 174 176 178 180 182 184 186 188 190 192 194 196 198 200 202 204 206 208 210 212 215 217 219 221 223 0 2 4 6 8 10 12 14 16 18 20 22 24 26 28 30 32 34 36 38 40 42 45 47 49 51 53 55 57 59 61 63 65 67 69 71 73 75 77 79 81 83 85 87 89 91 93 95 97 99 101 103 105 107 109 111 113 115 117 119 121 123 125 128 130 132 134 136 138 140 142 144 146 148 150 152 154 156 158 160 162 164 166 168 170 172 174 176 178 180 182 184 186 188 190 192 194 196 198 200 202 204 206 208 210 212 215 217 219 221 223 0 2 4 6 8 10 12 14 16 18 20 22 24 26 28 30 32 34 36 38 40 42 45 47 49 51 53 55 57 59 61 63 65 67 69 71 73 75 77 79 81 83 85 87 89 91 93 95 97 99 101 103 105 107 109 111 113 115 117 119 121 123 125 128 130 132 134 136 138 140 142 144 146 148 150 152 154 156 158 
2 4 6 8 10 12 14 16 18 20 22 24 26 28 30 32 34 36 38 40 42 45 47 49 51 53 55 57 59 61 63 65 67 69 71 73 75 77 79 81 83 85 87 89 91 93 95 97 99 101 103 105 107 109 111 113 115 117 119 121 123 125 128 130 132 134 136 138 140 142 144 146 148 150 152 154 156 158 160 162 164 166 168 170 172 174 176 178 180 182 184 186 188 190 192 194 196 198 200 202 204 206 208 210 212 215 217 219 221 223 225 0 2 4 6 8 10 12 14 16 18 20 22 24 26 28 30 32 34 36 38 40 42 45 47 49 51 53 55 57 59 61 63 65 67 69 71 73 75 77 79 81 83 85 87 89 91 93 95 97 99 101 103 105 107 109 111 113 115 117 119 121 123 125 128 130 132 134 136 138 140 142 144 146 148 150 152 154 156 158 160 162 164 166 168 170 172 174 176 178 180 182 184 186 188 190 192 194 196 198 200 202 204 206 208 210 212 215 217 219 221 223 225 0 2 4 6 8 10 12 14 16 18 20 22 24 26 28 30 32 34 36 38 40 42 45 47 49 51 53 55 57 59 61 63 65 67 69 71 73 75 77 79 81 83 85 87 89 91 93 95 97 99 101 103 105 107 109 111 113 115 117 119 121 123 125 128 130 132 134 136 138 140 142 144 146 148 150 152 154 
2 4 6 8 10 12 14 16 18 20 22 24 26 28 30 32 34 36 38 40 42 45 47 49 51 53 55 57 59 61 63 65 67 69 71 73 75 77 79 81 83 85 87 89 91 93 95 97 99 101 103 105 107 109 111 113 115 117 119 121 123 125 128 130 132 134 136 138 140 142 144 146 148 150 152 154 156 158 160 162 164 166 168 170 172 174 176 178 180 182 184 186 188 190 192 194 196 198 200 202 204 206 208 210 212 215 217 219 221 223 225 227 0 2 4 6 8 10 12 14 16 18 20 22 24 26 28 30 32 34 36 38 40 42 45 47 49 51 53 55 57 59 61 63 65 67 69 71 73 75 77 79 81 83 85 87 89 91 93 95 97 99 101 103 105 107 109 111 113 115 117 119 121 123 125 128 130 132 134 136 138 140 142 144 146 148 150 152 154 156 158 160 162 164 166 168 170 172 174 176 178 180 182 184 186 188 190 192 194 196 198 200 202 204 206 208 210 212 215 217 219 221 223 225 227 0 2 4 6 8 10 12 14 16 18 20 22 24 26 28 30 32 34 36 38 40 42 45 47 49 51 53 55 57 59 61 63 65 67 69 71 73 75 77 79 81 83 85 87 89 91 93 95 97 99 101 103 105 107 109 111 113 115 117 119 121 123 125 128 130 132 134 136 138 140 142 144 146 148 150 
2 4 6 8 10 12 14 16 18 20 22 24 26 28 30 32 34 36 38 40 42 45 47 49 51 53 55 57 59 61 63 65 67 69 71 73 75 77 79 81 83 85 87 89 91 93 95 97 99 101 103 105 107 109 111 113 115 117 119 121 123 125 128 130 132 134 136 138 140 142 144 146 148 150 152 154 156 158 160 162 164 166 168 170 172 174 176 178 180 182 184 186 188 190 192 194 196 198 200 202 204 206 208 210 212 215 217 219 221 223 225 227 229 0 2 4 6 8 10 12 14 16 18 20 22 24 26 28 30 32 34 36 38 40 42 45 47 49 51 53 55 57 59 61 63 65 67 69 71 73 75 77 79 81 83 85 87 89 91 93 95 97 99 101 103 105 107 109 111 113 115 117 119 121 123 125 128 130 132 134 136 138 140 142 144 146 148 150 152 154 156 158 160 162 164 166 168 170 172 174 176 178 180 182 184 186 188 190 192 194 196 198 200 202 204 206 208 210 212 215 217 219 221 223 225 227 229 0 2 4 6 8 10 12 14 16 18 20 22 24 26 28 30 32 34 36 38 40 42 45 47 49 51 53 55 57 59 61 63 65 67 69 71 73 75 77 79 81 83 85 87 89 91 93 95 97 99 101 103 105 107 109 111 113 115 117 119 121 123 125 128 130 132 134 136 138 140 142 144 146 
2 4 6 8 10 12 14 16 18 20 22 24 26 28 30 32 34 36 38 40 42 45 47 49 51 53 55 57 59 61 63 65 67 69 71 73 75 77 79 81 83 85 87 89 91 93 95 97 99 101 103 105 107 109 111 113 115 117 119 121 123 125 128 130 132 134 136 138 140 142 144 146 148 150 152 154 156 158 160 162 164 166 168 170 172 174 176 178 180 182 184 186 188 190 192 194 196 198 200 202 204 206 208 210 212 215 217 219 221 223 225 227 229 231 0 2 4 6 8 10 12 14 16 18 20 22 24 26 28 30 32 34 36 38 40 42 45 47 49 51 53 55 57 59 61 63 65 67 69 71 73 75 77 79 81 83 85 87 89 91 93 95 97 99 101 103 105 107 109 111 113 115 117 119 121 123 125 128 130 132 134 136 138 140 142 144 146 148 150 152 154 156 158 160 162 164 166 168 170 172 174 176 178 180 182 184 186 188 190 192 194 196 198 200 202 204 206 208 210 212 215 217 219 221 223 225 227 229 231 0 2 4 6 8 10 12 14 16 18 20 22 24 26 28 30 32 34 36 38 40 42 45 47 49 51 53 55 57 59 61 63 65 67 69 71 73 75 77 79 81 83 85 87 89 91 93 95 97 99 101 103 105 107 109 111 113 115 117 119 121 123 125 128 130 132 134 136 138 140 142 
2 4 6 8 10 12 14 16 18 20 22 24 26 28 30 32 34 36 38 40 42 45 47 49 51 53 55 57 59 61 63 65 67 69 71 73 75 77 79 81 83 85 87 89 91 93 95 97 99 101 103 105 107 109 111 113 115 117 119 121 123 125 128 130 132 134 136 138 140 142 144 146 148 150 152 154 156 158 160 162 164 166 168 170 172 174 176 178 180 182 184 186 188 190 192 194 196 198 200 202 204 206 208 210 212 215 217 219 221 223 225 227 229 231 233 0 2 4 6 8 10 12 14 16 18 20 22 24 26 28 30 32 34 36 38 40 42 45 47 49 51 53 55 57 59 61 63 65 67 69 71 73 75 77 79 81 83 85 87 89 91 93 95 97 99 101 103 105 107 109 111 113 115 117 119 121 123 125 128 130 132 134 136 138 140 142 144 146 148 150 152 154 156 158 160 162 164 166 168 170 172 174 176 178 180 182 184 186 188 190 192 194 196 198 200 202 204 206 208 210 212 215 217 219 221 223 225 227 229 231 233 0 2 4 6 8 10 12 14 16 18 20 22 24 26 28 30 32 34 36 38 40 42 45 47 49 51 53 55 57 59 61 63 65 67 69 71 73 75 77 79 81 83 85 87 89 91 93 95 97 99 101 103 105 107 109 111 113 115 117 119 121 123 125 128 130 132 134 136 138 
2 4 6 8 10 12 14 16 18 20 22 24 26 28 30 32 34 36 38 40 42 45 47 49 51 53 55 57 59 61 63 65 67 69 71 73 75 77 79 81 83 85 87 89 91 93 95 97 99 101 103 105 107 109 111 113 115 117 119 121 123 125 128 130 132 134 136 138 140 142 144 146 148 150 152 154 156 158 160 162 164 166 168 170 172 174 176 178 180 182 184 186 188 190 192 194 196 198 200 202 204 206 208 210 212 215 217 219 221 223 225 227 229 231 233 235 0 2 4 6 8 10 12 14 16 18 20 22 24 26 28 30 32 34 36 38 40 42 45 47 49 51 53 55 57 59 61 63 65 67 69 71 73 75 77 79 81 83 85 87 89 91 93 95 97 99 101 103 105 107 109 111 113 115 117 119 121 123 125 128 130 132 134 136 138 140 142 144 146 148 150 152 154 156 158 160 162 164 166 168 170 172 174 176 178 180 182 184 186 188 190 192 194 196 198 200 202 204 206 208 210 212 215 217 219 221 223 225 227 229 231 233 235 0 2 4 6 8 10 12 14 16 18 20 22 24 26 28 30 32 34 36 38 40 42 45 47 49 51 53 55 57 59 61 63 65 67 69 71 73 75 77 79 81 83 85 87 89 91 93 95 97 99 101 103 105 107 109 111 113 115 117 119 121 123 125 128 130 132 134 
2 4 6 8 10 12 14 16 18 20 22 24 26 28 30 32 34 36 38 40 42 45 47 49 51 53 55 57 59 61 63 65 67 69 71 73 75 77 79 81 83 85 87 89 91 93 95 97 99 101 103 105 107 109 111 113 115 117 119 121 123 125 128 130 132 134 136 138 140 142 144 146 148 150 152 154 156 158 160 162 164 166 168 170 172 174 176 178 180 182 184 186 188 190 192 194 196 198 200 202 204 206 208 210 212 215 217 219 221 223 225 227 229 231 233 235 237 0 2 4 6 8 10 12 14 16 18 20 22 24 26 28 30 32 34 36 38 40 42 45 47 49 51 53 55 57 59 61 63 65 67 69 71 73 75 77 79 81 83 85 87 89 91 93 95 97 99 101 103 105 107 109 111 113 115 117 119 121 123 125 128 130 132 134 136 138 140 142 144 146 148 150 152 154 156 158 160 162 164 166 168 170 172 174 176 178 180 182 184 186 188 190 192 194 196 198 200 202 204 206 208 210 212 215 217 219 221 223 225 227 229 231 233 235 237 0 2 4 6 8 10 12 14 16 18 20 22 24 26 28 30 32 34 36 38 40 42 45 47 49 51 53 55 57 59 61 63 65 67 69 71 73 75 77 79 81 83 85 87 89 91 93 95 97 99 101 103 105 107 109 111 113 115 117 119 121 123 125 128 130 
2 4 6 8 10 12 14 16 18 20 22 24 26 28 30 32 34 36 38 40 42 45 47 49 51 53 55 57 59 61 63 65 67 69 71 73 75 77 79 81 83 85 87 89 91 93 95 97 99 101 103 105 107 109 111 113 115 117 119 121 123 125 128 130 132 134 136 138 140 142 144 146 148 150 152 154 156 158 160 162 164 166 168 170 172 174 176 178 180 182 184 186 188 190 192 194 196 198 200 202 204 206 208 210 212 215 217 219 221 223 225 227 229 231 233 235 237 239 0 2 4 6 8 10 12 14 16 18 20 22 24 26 28 30 32 34 36 38 40 42 45 47 49 51 53 55 57 59 61 63 65 67 69 71 73 75 77 79 81 83 85 87 89 91 93 95 97 99 101 103 105 107 109 111 113 115 117 119 121 123 125 128 130 132 134 136 138 140 142 144 146 148 150 152 154 156 158 160 162 164 166 168 170 172 174 176 178 180 182 184 186 188 190 192 194 196 198 200 202 204 206 208 210 212 215 217 219 221 223 225 227 229 231 233 235 237 239 0 2 4 6 8 10 12 14 16 18 20 22 24 26 28 30 32 34 36 38 40 42 45 47 49 51 53 55 57 59 61 63 65 67 69 71 73 75 77 79 81 83 85 87 89 91 93 95 97 99 101 103 105 107 109 111 113 115 117 119 121 123 125 
2 4 6 8 10 12 14 16 18 20 22 24 26 28 30 32 34 36 38 40 42 45 47 49 51 53 55 57 59 61 63 65 67 69 71 73 75 77 79 81 83 85 87 89 91 93 95 97 99 101 103 105 107 109 111 113 115 117 119 121 123 125 128 130 132 134 136 138 140 142 144 146 148 150 152 154 156 158 160 162 164 166 168 170 172 174 176 178 180 182 184 186 188 190 192 194 196 198 200 202 204 206 208 210 212 215 217 219 221 223 225 227 229 231 233 235 237 239 241 0 2 4 6 8 10 12 14 16 18 20 22 24 26 28 30 32 34 36 38 40 42 45 47 49 51 53 55 57 59 61 63 65 67 69 71 73 75 77 79 81 83 85 87 89 91 93 95 97 99 101 103 105 107 109 111 113 115 117 119 121 123 125 128 130 132 134 136 138 140 142 144 146 148 150 152 154 156 158 160 162 164 166 168 170 172 174 176 178 180 182 184 186 188 190 192 194 196 198 200 202 204 206 208 210 212 215 217 219 221 223 225 227 229 231 233 235 237 239 241 0 2 4 6 8 10 12 14 16 18 20 22 24 26 28 30 32 34 36 38 40 42 45 47 49 51 53 55 57 59 61 63 65 67 69 71 73 75 77 79 81 83 85 87 89 91 93 95 97 99 101 103 105 107 109 111 113 115 117 119 121 
2 4 6 8 10 12 14 16 18 20 22 24 26 28 30 32 34 36 38 40 42 45 47 49 51 53 55 57 59 61 63 65 67 69 71 73 75 77 79 81 83 85 87 89 91 93 95 97 99 101 103 105 107 109 111 113 115 117 119 121 123 125 128 130 132 134 136 138 140 142 144 146 148 150 152 154 156 158 160 162 164 166 168 170 172 174 176 178 180 182 184 186 188 190 192 194 196 198 200 202 204 206 208 210 212 215 217 219 221 223 225 227 229 231 233 235 237 239 241 243 0 2 4 6 8 10 12 14 16 18 20 22 24 26 28 30 32 34 36 38 40 42 45 47 49 51 53 55 57 59 61 63 65 67 69 71 73 75 77 79 81 83 85 87 89 91 93 95 97 99 101 103 105 107 109 111 113 115 117 119 121 123 125 128 130 132 134 136 138 140 142 144 146 148 150 152 154 156 158 160 162 164 166 168 170 172 174 176 178 180 182 184 186 188 190 192 194 196 198 200 202 204 206 208 210 212 215 217 219 221 223 225 227 229 231 233 235 237 239 241 243 0 2 4 6 8 10 12 14 16 18 20 22 24 26 28 30 32 34 36 38 40 42 45 47 49 51 53 55 57 59 61 63 65 67 69 71 73 75 77 79 81 83 85 87 89 91 93 95 97 99 101 103 105 107 109 111 113 115 117 
2 4 6 8 10 12 14 16 18 20 22 24 26 28 30 32 34 36 38 40 42 45 47 49 51 53 55 57 59 61 63 65 67 69 71 73 75 77 79 81 83 85 87 89 91 93 95 97 99 101 103 105 107 109 111 113 115 117 119 121 123 125 128 130 132 134 136 138 140 142 144 146 148 150 152 154 156 158 160 162 164 166 168 170 172 174 176 178 180 182 184 186 188 190 192 194 196 198 200 202 204 206 208 210 212 215 217 219 221 223 225 227 229 231 233 235 237 239 241 243 245 0 2 4 6 8 10 12 14 16 18 20 22 24 26 28 30 32 34 36 38 40 42 45 47 49 51 53 55 57 59 61 63 65 67 69 71 73 75 77 79 81 83 85 87 89 91 93 95 97 99 101 103 105 107 109 111 113 115 117 119 121 123 125 128 130 132 134 136 138 140 142 144 146 148 150 152 154 156 158 160 162 164 166 168 170 172 174 176 178 180 182 184 186 188 190 192 194 196 198 200 202 204 206 208 210 212 215 217 219 221 223 225 227 229 231 233 235 237 239 241 243 245 0 2 4 6 8 10 12 14 16 18 20 22 24 26 28 30 32 34 36 38 40 42 45 47 49 51 53 55 57 59 61 63 65 67 69 71 73 75 77 79 81 83 85 87 89 91 93 95 97 99 101 103 105 107 109 111 113 
2 4 6 8 10 12 14 16 18 20 22 24 26 28 30 32 34 36 38 40 42 45 47 49 51 53 55 57 59 61 63 65 67 69 71 73 75 77 79 81 83 85 87 89 91 93 95 97 99 101 103 105 107 109 111 113 115 117 119 121 123 125 128 130 132 134 136 138 140 142 144 146 148 150 152 154 156 158 160 162 164 166 168 170 172 174 176 178 180 182 184 186 188 190 192 194 196 198 200 202 204 206 208 210 212 215 217 219 221 223 225 227 229 231 233 235 237 239 241 243 245 247 0 2 4 6 8 10 12 14 16 18 20 22 24 26 28 30 32 34 36 38 40 42 45 47 49 51 53 55 57 59 61 63 65 67 69 71 73 75 77 79 81 83 85 87 89 91 93 95 97 99 101 103 105 107 109 111 113 115 117 119 121 123 125 128 130 132 134 136 138 140 142 144 146 148 150 152 154 156 158 160 162 164 166 168 170 172 174 176 178 180 182 184 186 188 190 192 194 196 198 200 202 204 206 208 210 212 215 217 219 221 223 225 227 229 231 233 235 237 239 241 243 245 247 0 2 4 6 8 10 12 14 16 18 20 22 24 26 28 30 32 34 36 38 40 42 45 47 49 51 53 55 57 59 61 63 65 67 69 71 73 75 77 79 81 83 85 87 89 91 93 95 97 99 101 103 105 107 109 
2 4 6 8 10 12 14 16 18 20 22 24 26 28 30 32 34 36 38 40 42 45 47 49 51 53 55 57 59 61 63 65 67 69 71 73 75 77 79 81 83 85 87 89 91 93 95 97 99 101 103 105 107 109 111 113 115 117 119 121 123 125 128 130 132 134 136 138 140 142 144 146 148 150 152 154 156 158 160 162 164 166 168 170 172 174 176 178 180 182 184 186 188 190 192 194 196 198 200 202 204 206 208 210 212 215 217 219 221 223 225 227 229 231 233 235 237 239 241 243 245 247 249 0 2 4 6 8 10 12 14 16 18 20 22 24 26 28 30 32 34 36 38 40 42 45 47 49 51 53 55 57 59 61 63 65 67 69 71 73 75 77 79 81 83 85 87 89 91 93 95 97 99 101 103 105 107 109 111 113 115 117 119 121 123 125 128 130 132 134 136 138 140 142 144 146 148 150 152 154 156 158 160 162 164 166 168 170 172 174 176 178 180 182 184 186 188 190 192 194 196 198 200 202 204 206 208 210 212 215 217 219 221 223 225 227 229 231 233 235 237 239 241 243 245 247 249 0 2 4 6 8 10 12 14 16 18 20 22 24 26 28 30 32 34 36 38 40 42 45 47 49 51 53 55 57 59 61 63 65 67 69 71 73 75 77 79 81 83 85 87 89 91 93 95 97 99 101 103 105 
2 4 6 8 10 12 14 16 18 20 22 24 26 28 30 32 34 36 38 40 42 45 47 49 51 53 55 57 59 61 63 65 67 69 71 73 75 77 79 81 83 85 87 89 91 93 95 97 99 101 103 105 107 109 111 113 115 117 119 121 123 125 128 130 132 134 136 138 140 142 144 146 148 150 152 154 156 158 160 162 164 166 168 170 172 174 176 178 180 182 184 186 188 190 192 194 196 198 200 202 204 206 208 210 212 215 217 219 221 223 225 227 229 231 233 235 237 239 241 243 245 247 249 251 0 2 4 6 8 10 12 14 16 18 20 22 24 26 28 30 32 34 36 38 40 42 45 47 49 51 53 55 57 59 61 63 65 67 69 71 73 75 77 79 81 83 85 87 89 91 93 95 97 99 101 103 105 107 109 111 113 115 117 119 121 123 125 128 130 132 134 136 138 140 142 144 146 148 150 152 154 156 158 160 162 164 166 168 170 172 174 176 178 180 182 184 186 188 190 192 194 196 198 200 202 204 206 208 210 212 215 217 219 221 223 225 227 229 231 233 235 237 239 241 243 245 247 249 251 0 2 4 6 8 10 12 14 16 18 20 22 24 26 28 30 32 34 36 38 40 42 45 47 49 51 53 55 57 59 61 63 65 67 69 71 73 75 77 79 81 83 85 87 89 91 93 95 97 99 101 
2 4 6 8 10 12 14 16 18 20 22 24 26 28 30 32 34 36 38 40 42 45 47 49 51 53 55 57 59 61 63 65 67 69 71 73 75 77 79 81 83 85 87 89 91 93 95 97 99 101 103 105 107 109 111 113 115 117 119 121 123 125 128 130 132 134 136 138 140 142 144 146 148 150 152 154 156 158 160 162 164 166 168 170 172 174 176 178 180 182 184 186 188 190 192 194 196 198 200 202 204 206 208 210 212 215 217 219 221 223 225 227 229 231 233 235 237 239 241 243 245 247 249 251 253 0 2 4 6 8 10 12 14 16 18 20 22 24 26 28 30 32 34 36 38 40 42 45 47 49 51 53 55 57 59 61 63 65 67 69 71 73 75 77 79 81 83 85 87 89 91 93 95 97 99 101 103 105 107 109 111 113 115 117 119 121 123 125 128 130 132 134 136 138 140 142 144 146 148 150 152 154 156 158 160 162 164 166 168 170 172 174 176 178 180 182 184 186 188 190 192 194 196 198 200 202 204 206 208 210 212 215 217 219 221 223 225 227 229 231 233 235 237 239 241 243 245 247 249 251 253 0 2 4 6 8 10 12 14 16 18 20 22 24 26 28 30 32 34 36 38 40 42 45 47 49 51 53 55 57 59 61 63 65 67 69 71 73 75 77 79 81 83 85 87 89 91 93 95 97 
2 4 6 8 10 12 14 16 18 20 22 24 26 28 30 32 34 36 38 40 42 45 47 49 51 53 55 57 59 61 63 65 67 69 71 73 75 77 79 81 83 85 87 89 91 93 95 97 99 101 103 105 107 109 111 113 115 117 119 121 123 125 128 130 132 134 136 138 140 142 144 146 148 150 152 154 156 158 160 162 164 166 168 170 172 174 176 178 180 182 184 186 188 190 192 194 196 198 200 202 204 206 208 210 212 215 217 219 221 223 225 227 229 231 233 235 237 239 241 243 245 247 249 251 253 255 0 2 4 6 8 10 12 14 16 18 20 22 24 26 28 30 32 34 36 38 40 42 45 47 49 51 53 55 57 59 61 63 65 67 69 71 73 75 77 79 81 83 85 87 89 91 93 95 97 99 101 103 105 107 109 111 113 115 117 119 121 123 125 128 130 132 134 136 138 140 142 144 146 148 150 152 154 156 158 160 162 164 166 168 170 172 174 176 178 180 182 184 186 188 190 192 194 196 198 200 202 204 206 208 210 212 215 217 219 221 223 225 227 229 231 233 235 237 239 241 243 245 247 249 251 253 255 0 2 4 6 8 10 12 14 16 18 20 22 24 26 28 30 32 34 36 38 40 42 45 47 49 51 53 55 57 59 61 63 65 67 69 71 73 75 77 79 81 83 85 87 89 91 93 
1 2 3 4 5 6 7 8 9 10 11 12 13 14 15 16 17 18 19 20 21 22 23 24 25 26 27 28 29 30 31 32 33 34 35 36 37 38 39 40 41 42 44 45 46 47 48 49 50 51 52 53 54 55 56 57 58 59 60 61 62 63 64 65 66 67 68 69 70 71 72 73 74 75 76 77 78 79 80 81 82 83 84 85 86 87 88 89 90 91 92 93 94 95 96 97 98 99 100 101 102 103 104 105 106 107 108 109 110 111 112 113 114 115 116 117 118 119 120 121 122 123 124 125 126 128 129 0 1 2 3 4 5 6 7 8 9 10 11 12 13 14 15 16 17 18 19 20 21 22 23 24 25 26 27 28 29 30 31 32 33 34 35 36 37 38 39 40 41 42 44 45 46 47 48 49 50 51 52 53 54 55 56 57 58 59 60 61 62 63 64 65 66 67 68 69 70 71 72 73 74 75 76 77 78 79 80 81 82 83 84 85 86 87 88 89 90 91 92 93 94 95 96 97 98 99 100 101 102 103 104 105 106 107 108 109 110 111 112 113 114 115 116 117 118 119 120 121 122 123 124 125 126 128 129 0 1 2 3 4 5 6 7 8 9 10 11 12 13 14 15 16 17 18 19 20 21 22 23 24 25 26 27 28 29 30 31 32 33 34 35 36 37 38 39 40 41 42 44 45 
1 2 3 4 5 6 7 8 9 10 11 12 13 14 15 16 17 18 19 20 21 22 23 24 25 26 27 28 29 30 31 32 33 34 35 36 37 38 39 40 41 42 44 45 46 47 48 49 50 51 52 53 54 55 56 57 58 59 60 61 62 63 64 65 66 67 68 69 70 71 72 73 74 75 76 77 78 79 80 81 82 83 84 85 86 87 88 89 90 91 92 93 94 95 96 97 98 99 100 101 102 103 104 105 106 107 108 109 110 111 112 113 114 115 116 117 118 119 120 121 122 123 124 125 126 128 129 130 0 1 2 3 4 5 6 7 8 9 10 11 12 13 14 15 16 17 18 19 20 21 22 23 24 25 26 27 28 29 30 31 32 33 34 35 36 37 38 39 40 41 42 44 45 46 47 48 49 50 51 52 53 54 55 56 57 58 59 60 61 62 63 64 65 66 67 68 69 70 71 72 73 74 75 76 77 78 79 80 81 82 83 84 85 86 87 88 89 90 91 92 93 94 95 96 97 98 99 100 101 102 103 104 105 106 107 108 109 110 111 112 113 114 115 116 117 118 119 120 121 122 123 124 125 126 128 129 130 0 1 2 3 4 5 6 7 8 9 10 11 12 13 14 15 16 17 18 19 20 21 22 23 24 25 26 27 28 29 30 31 32 33 34 35 36 37 38 39 40 41 42 
1 2 3 4 5 6 7 8 9 10 11 12 13 14 15 16 17 18 19 20 21 22 23 24 25 26 27 28 29 30 31 32 33 34 35 36 37 38 39 40 41 42 44 45 46 47 48 49 50 51 52 53 54 55 56 57 58 59 60 61 62 63 64 65 66 67 68 69 70 71 72 73 74 75 76 77 78 79 80 81 82 83 84 85 86 87 88 89 90 91 92 93 94 95 96 97 98 99 100 101 102 103 104 105 106 107 108 109 110 111 112 113 114 115 116 117 118 119 120 121 122 123 124 125 126 128 129 130 131 0 1 2 3 4 5 6 7 8 9 10 11 12 13 14 15 16 17 18 19 20 21 22 23 24 25 26 27 28 29 30 31 32 33 34 35 36 37 38 39 40 41 42 44 45 46 47 48 49 50 51 52 53 54 55 56 57 58 59 60 61 62 63 64 65 66 67 68 69 70 71 72 73 74 75 76 77 78 79 80 81 82 83 84 85 86 87 88 89 90 91 92 93 94 95 96 97 98 99 100 101 102 103 104 105 106 107 108 109 110 111 112 113 114 115 116 117 118 119 120 121 122 123 124 125 126 128 129 130 131 0 1 2 3 4 5 6 7 8 9 10 11 12 13 14 15 16 17 18 19 20 21 22 23 24 25 26 27 28 29 30 31 32 33 34 35 36 37 38 39 40 
1 2 3 4 5 6 7 8 9 10 11 12 13 14 15 16 17 18 19 20 21 22 23 24 25 26 27 28 29 30 31 32 33 34 35 36 37 38 39 40 41 42 44 45 46 47 48 49 50 51 52 53 54 55 56 57 58 59 60 61 62 63 64 65 66 67 68 69 70 71 72 73 74 75 76 77 78 79 80 81 82 83 84 85 86 87 88 89 90 91 92 93 94 95 96 97 98 99 100 101 102 103 104 105 106 107 108 109 110 111 112 113 114 115 116 117 118 119 120 121 122 123 124 125 126 128 129 130 131 132 0 1 2 3 4 5 6 7 8 9 10 11 12 13 14 15 16 17 18 19 20 21 22 23 24 25 26 27 28 29 30 31 32 33 34 35 36 37 38 39 40 41 42 44 45 46 47 48 49 50 51 52 53 54 55 56 57 58 59 60 61 62 63 64 65 66 67 68 69 70 71 72 73 74 75 76 77 78 79 80 81 82 83 84 85 86 87 88 89 90 91 92 93 94 95 96 97 98 99 100 101 102 103 104 105 106 107 108 109 110 111 112 113 114 115 116 117 118 119 120 121 122 123 124 125 126 128 129 130 131 132 0 1 2 3 4 5 6 7 8 9 10 11 12 13 14 15 16 17 18 19 20 21 22 23 24 25 26 27 28 29 30 31 32 33 34 35 36 37 38 
1 2 3 4 5 6 7 8 9 10 11 12 13 14 15 16 17 18 19 20 21 22 23 24 25 26 27 28 29 30 31 32 33 34 35 36 37 38 39 40 41 42 44 45 46 47 48 49 50 51 52 53 54 55 56 57 58 59 60 61 62 63 64 65 66 67 68 69 70 71 72 73 74 75 76 77 78 79 80 81 82 83 84 85 86 87 88 89 90 91 92 93 94 95 96 97 98 99 100 101 102 103 104 105 106 107 108 109 110 111 112 113 114 115 116 117 118 119 120 121 122 123 124 125 126 128 129 130 131 132 133 0 1 2 3 4 5 6 7 8 9 10 11 12 13 14 15 16 17 18 19 20 21 22 23 24 25 26 27 28 29 30 31 32 33 34 35 36 37 38 39 40 41 42 44 45 46 47 48 49 50 51 52 53 54 55 56 57 58 59 60 61 62 63 64 65 66 67 68 69 70 71 72 73 74 75 76 77 78 79 80 81 82 83 84 85 86 87 88 89 90 91 92 93 94 95 96 97 98 99 100 101 102 103 104 105 106 107 108 109 110 111 112 113 114 115 116 117 118 119 120 121 122 123 124 125 126 128 129 130 131 132 133 0 1 2 3 4 5 6 7 8 9 10 11 12 13 14 15 16 17 18 19 20 21 22 23 24 25 26 27 28 29 30 31 32 33 34 35 36 
1 2 3 4 5 6 7 8 9 10 11 12 13 14 15 16 17 18 19 20 21 22 23 24 25 26 27 28 29 30 31 32 33 34 35 36 37 38 39 40 41 42 44 45 46 47 48 49 50 51 52 53 54 55 56 57 58 59 60 61 62 63 64 65 66 67 68 69 70 71 72 73 74 75 76 77 78 79 80 81 82 83 84 85 86 87 88 89 90 91 92 93 94 95 96 97 98 99 100 101 102 103 104 105 106 107 108 109 110 111 112 113 114 115 116 117 118 119 120 121 122 123 124 125 126 128 129 130 131 132 133 134 0 1 2 3 4 5 6 7 8 9 10 11 12 13 14 15 16 17 18 19 20 21 22 23 24 25 26 27 28 29 30 31 32 33 34 35 36 37 38 39 40 41 42 44 45 46 47 48 49 50 51 52 53 54 55 56 57 58 59 60 61 62 63 64 65 66 67 68 69 70 71 72 73 74 75 76 77 78 79 80 81 82 83 84 85 86 87 88 89 90 91 92 93 94 95 96 97 98 99 100 101 102 103 104 105 106 107 108 109 110 111 112 113 114 115 116 117 118 119 120 121 122 123 124 125 126 128 129 130 131 132 133 134 0 1 2 3 4 5 6 7 8 9 10 11 12 13 14 15 16 17 18 19 20 21 22 23 24 25 26 27 28 29 30 31 32 33 34 
1 2 3 4 5 6 7 8 9 10 11 12 13 14 15 16 17 18 19 20 21 22 23 24 25 26 27 28 29 30 31 32 33 34 35 36 37 38 39 40 41 42 44 45 46 47 48 49 50 51 52 53 54 55 56 57 58 59 60 61 62 63 64 65 66 67 68 69 70 71 72 73 74 75 76 77 78 79 80 81 82 83 84 85 86 87 88 89 90 91 92 93 94 95 96 97 98 99 100 101 102 103 104 105 106 107 108 109 110 111 112 113 114 115 116 117 118 119 120 121 122 123 124 125 126 128 129 130 131 132 133 134 135 0 1 2 3 4 5 6 7 8 9 10 11 12 13 14 15 16 17 18 19 20 21 22 23 24 25 26 27 28 29 30 31 32 33 34 35 36 37 38 39 40 41 42 44 45 46 47 48 49 50 51 52 53 54 55 56 57 58 59 60 61 62 63 64 65 66 67 68 69 70 71 72 73 74 75 76 77 78 79 80 81 82 83 84 85 86 87 88 89 90 91 92 93 94 95 96 97 98 99 100 101 102 103 104 105 106 107 108 109 110 111 112 113 114 115 116 117 118 119 120 121 122 123 124 125 126 128 129 130 131 132 133 134 135 0 1 2 3 4 5 6 7 8 9 10 11 12 13 14 15 16 17 18 19 20 21 22 23 24 25 26 27 28 29 30 31 32 
1 2 3 4 5 6 7 8 9 10 11 12 13 14 15 16 17 18 19 20 21 22 23 24 25 26 27 28 29 30 31 32 33 34 35 36 37 38 39 40 41 42 44 45 46 47 48 49 50 51 52 53 54 55 56 57 58 59 60 61 62 63 64 65 66 67 68 69 70 71 72 73 74 75 76 77 78 79 80 81 82 83 84 85 86 87 88 89 90 91 92 93 94 95 96 97 98 99 100 101 102 103 104 105 106 107 108 109 110 111 112 113 114 115 116 117 118 119 120 121 122 123 124 125 126 128 129 130 131 132 133 134 135 136 0 1 2 3 4 5 6 7 8 9 10 11 12 13 14 15 16 17 18 19 20 21 22 23 24 25 26 27 28 29 30 31 32 33 34 35 36 37 38 39 40 41 42 44 45 46 47 48 49 50 51 52 53 54 55 56 57 58 59 60 61 62 63 64 65 66 67 68 69 70 71 72 73 74 75 76 77 78 79 80 81 82 83 84 85 86 87 88 89 90 91 92 93 94 95 96 97 98 99 100 101 102 103 104 105 106 107 108 109 110 111 112 113 114 115 116 117 118 119 120 121 122 123 124 125 126 128 129 130 131 132 133 134 135 136 0 1 2 3 4 5 6 7 8 9 10 11 12 13 14 15 16 17 18 19 20 21 22 23 24 25 26 27 28 29 30 
1 2 3 4 5 6 7 8 9 10 11 12 13 14 15 16 17 18 19 20 21 22 23 24 25 26 27 28 29 30 31 32 33 34 35 36 37 38 39 40 41 42 44 45 46 47 48 49 50 51 52 53 54 55 56 57 58 59 60 61 62 63 64 65 66 67 68 69 70 71 72 73 74 75 76 77 78 79 80 81 82 83 84 85 86 87 88 89 90 91 92 93 94 95 96 97 98 99 100 101 102 103 104 105 106 107 108 109 110 111 112 113 114 115 116 117 118 119 120 121 122 123 124 125 126 128 129 130 131 132 133 134 135 136 137 0 1 2 3 4 5 6 7 8 9 10 11 12 13 14 15 16 17 18 19 20 21 22 23 24 25 26 27 28 29 30 31 32 33 34 35 36 37 38 39 40 41 42 44 45 46 47 48 49 50 51 52 53 54 55 56 57 58 59 60 61 62 63 64 65 66 67 68 69 70 71 72 73 74 75 76 77 78 79 80 81 82 83 84 85 86 87 88 89 90 91 92 93 94 95 96 97 98 99 100 101 102 103 104 105 106 107 108 109 110 111 112 113 114 115 116 117 118 119 120 121 122 123 124 125 126 128 129 130 131 132 133 134 135 136 137 0 1 2 3 4 5 6 7 8 9 10 11 12 13 14 15 16 17 18 19 20 21 22 23 24 25 26 27 28 
1 2 3 4 5 6 7 8 9 10 11 12 13 14 15 16 17 18 19 20 21 22 23 24 25 26 27 28 29 30 31 32 33 34 35 36 37 38 39 40 41 42 44 45 46 47 48 49 50 51 52 53 54 55 56 57 58 59 60 61 62 63 64 65 66 67 68 69 70 71 72 73 74 75 76 77 78 79 80 81 82 83 84 85 86 87 88 89 90 91 92 93 94 95 96 97 98 99 100 101 102 103 104 105 106 107 108 109 110 111 112 113 114 115 116 117 118 119 120 121 122 123 124 125 126 128 129 130 131 132 133 134 135 136 137 138 0 1 2 3 4 5 6 7 8 9 10 11 12 13 14 15 16 17 18 19 20 21 22 23 24 25 26 27 28 29 30 31 32 33 34 35 36 37 38 39 40 41 42 44 45 46 47 48 49 50 51 52 53 54 55 56 57 58 59 60 61 62 63 64 65 66 67 68 69 70 71 72 73 74 75 76 77 78 79 80 81 82 83 84 85 86 87 88 89 90 91 92 93 94 95 96 97 98 99 100 101 102 103 104 105 106 107 108 109 110 111 112 113 114 115 116 117 118 119 120 121 122 123 124 125 126 128 129 130 131 132 133 134 135 136 137 138 0 1 2 3 4 5 6 7 8 9 10 11 12 13 14 15 16 17 18 19 20 21 22 23 24 25 26 
1 2 3 4 5 6 7 8 9 10 11 12 13 14 15 16 17 18 19 20 21 22 23 24 25 26 27 28 29 30 31 32 33 34 35 36 37 38 39 40 41 42 44 45 46 47 48 49 50 51 52 53 54 55 56 57 58 59 60 61 62 63 64 65 66 67 68 69 70 71 72 73 74 75 76 77 78 79 80 81 82 83 84 85 86 87 88 89 90 91 92 93 94 95 96 97 98 99 100 101 102 103 104 105 106 107 108 109 110 111 112 113 114 115 116 117 118 119 120 121 122 123 124 125 126 128 129 130 131 132 133 134 135 136 137 138 139 0 1 2 3 4 5 6 7 8 9 10 11 12 13 14 15 16 17 18 19 20 21 22 23 24 25 26 27 28 29 30 31 32 33 34 35 36 37 38 39 40 41 42 44 45 46 47 48 49 50 51 52 53 54 55 56 57 58 59 60 61 62 63 64 65 66 67 68 69 70 71 72 73 74 75 76 77 78 79 80 81 82 83 84 85 86 87 88 89 90 91 92 93 94 95 96 97 98 99 100 101 102 103 104 105 106 107 108 109 110 111 112 113 114 115 116 117 118 119 120 121 122 123 124 125 126 128 129 130 131 132 133 134 135 136 137 138 139 0 1 2 3 4 5 6 7 8 9 10 11 12 13 14 15 16 17 18 19 20 21 22 23 24 
1 2 3 4 5 6 7 8 9 10 11 12 13 14 15 16 17 18 19 20 21 22 23 24 25 26 27 28 29 30 31 32 33 34 35 36 37 38 39 40 41 42 44 45 46 47 48 49 50 51 52 53 54 55 56 57 58 59 60 61 62 63 64 65 66 67 68 69 70 71 72 73 74 75 76 77 78 79 80 81 82 83 84 85 86 87 88 89 90 91 92 93 94 95 96 97 98 99 100 101 102 103 104 105 106 107 108 109 110 111 112 113 114 115 116 117 118 119 120 121 122 123 124 125 126 128 129 130 131 132 133 134 135 136 137 138 139 140 0 1 2 3 4 5 6 7 8 9 10 11 12 13 14 15 16 17 18 19 20 21 22 23 24 25 26 27 28 29 30 31 32 33 34 35 36 37 38 39 40 41 42 44 45 46 47 48 49 50 51 52 53 54 55 56 57 58 59 60 61 62 63 64 65 66 67 68 69 70 71 72 73 74 75 76 77 78 79 80 81 82 83 84 85 86 87 88 89 90 91 92 93 94 95 96 97 98 99 100 101 102 103 104 105 106 107 108 109 110 111 112 113 114 115 116 117 118 119 120 121 122 123 124 125 126 128 129 130 131 132 133 134 135 136 137 138 139 140 0 1 2 3 4 5 6 7 8 9 10 11 12 13 14 15 16 17 18 19 20 21 22 
1 2 3 4 5 6 7 8 9 10 11 12 13 14 15 16 17 18 19 20 21 22 23 24 25 26 27 28 29 30 31 32 33 34 35 36 37 38 39 40 41 42 44 45 46 47 48 49 50 51 52 53 54 55 56 57 58 59 60 61 62 63 64 65 66 67 68 69 70 71 72 73 74 75 76 77 78 79 80 81 82 83 84 85 86 87 88 89 90 91 92 93 94 95 96 97 98 99 100 101 102 103 104 105 106 107 108 109 110 111 112 113 114 115 116 117 118 119 120 121 122 123 124 125 126 128 129 130 131 132 133 134 135 136 137 138 139 140 141 0 1 2 3 4 5 6 7 8 9 10 11 12 13 14 15 16 17 18 19 20 21 22 23 24 25 26 27 28 29 30 31 32 33 34 35 36 37 38 39 40 41 42 44 45 46 47 48 49 50 51 52 53 54 55 56 57 58 59 60 61 62 63 64 65 66 67 68 69 70 71 72 73 74 75 76 77 78 79 80 81 82 83 84 85 86 87 88 89 90 91 92 93 94 95 96 97 98 99 100 101 102 103 104 105 106 107 108 109 110 111 112 113 114 115 116 117 118 119 120 121 122 123 124 125 126 128 129 130 131 132 133 134 135 136 137 138 139 140 141 0 1 2 3 4 5 6 7 8 9 10 11 12 13 14 15 16 17 18 19 20 
1 2 3 4 5 6 7 8 9 10 11 12 13 14 15 16 17 18 19 20 21 22 23 24 25 26 27 28 29 30 31 32 33 34 35 36 37 38 39 40 41 42 44 45 46 47 48 49 50 51 52 53 54 55 56 57 58 59 60 61 62 63 64 65 66 67 68 69 70 71 72 73 74 75 76 77 78 79 80 81 82 83 84 85 86 87 88 89 90 91 92 93 94 95 96 97 98 99 100 101 102 103 104 105 106 107 108 109 110 111 112 113 114 115 116 117 118 119 120 121 122 123 124 125 126 128 129 130 131 132 133 134 135 136 137 138 139 140 141 142 0 1 2 3 4 5 6 7 8 9 10 11 12 13 14 15 16 17 18 19 20 21 22 23 24 25 26 27 28 29 30 31 32 33 34 35 36 37 38 39 40 41 42 44 45 46 47 48 49 50 51 52 53 54 55 56 57 58 59 60 61 62 63 64 65 66 67 68 69 70 71 72 73 74 75 76 77 78 79 80 81 82 83 84 85 86 87 88 89 90 91 92 93 94 95 96 97 98 99 100 101 102 103 104 105 106 107 108 109 110 111 112 113 114 115 116 117 118 119 120 121 122 123 124 125 126 128 129 130 131 132 133 134 135 136 137 138 139 140 141 142 0 1 2 3 4 5 6 7 8 9 10 11 12 13 14 15 16 17 18 
1 2 3 4 5 6 7 8 9 10 11 12 13 14 15 16 17 18 19 20 21 22 23 24 25 26 27 28 29 30 31 32 33 34 35 36 37 38 39 40 41 42 44 45 46 47 48 49 50 51 52 53 54 55 56 57 58 59 60 61 62 63 64 65 66 67 68 69 70 71 72 73 74 75 76 77 78 79 80 81 82 83 84 85 86 87 88 89 90 91 92 93 94 95 96 97 98 99 100 101 102 103 104 105 106 107 108 109 110 111 112 113 114 115 116 117 118 119 120 121 122 123 124 125 126 128 129 130 131 132 133 134 135 136 137 138 139 140 141 142 143 0 1 2 3 4 5 6 7 8 9 10 11 12 13 14 15 16 17 18 19 20 21 22 23 24 25 26 27 28 29 30 31 32 33 34 35 36 37 38 39 40 41 42 44 45 46 47 48 49 50 51 52 53 54 55 56 57 58 59 60 61 62 63 64 65 66 67 68 69 70 71 72 73 74 75 76 77 78 79 80 81 82 83 84 85 86 87 88 89 90 91 92 93 94 95 96 97 98 99 100 101 102 103 104 105 106 107 108 109 110 111 112 113 114 115 116 117 118 119 120 121 122 123 124 125 126 128 129 130 131 132 133 134 135 136 137 138 139 140 141 142 143 0 1 2 3 4 5 6 7 8 9 10 11 12 13 14 15 16 
1 2 3 4 5 6 7 8 9 10 11 12 13 14 15 16 17 18 19 20 21 22 23 24 25 26 27 28 29 30 31 32 33 34 35 36 37 38 39 40 41 42 44 45 46 47 48 49 50 51 52 53 54 55 56 57 58 59 60 61 62 63 64 65 66 67 68 69 70 71 72 73 74 75 76 77 78 79 80 81 82 83 84 85 86 87 88 89 90 91 92 93 94 95 96 97 98 99 100 101 102 103 104 105 106 107 108 109 110 111 112 113 114 115 116 117 118 119 120 121 122 123 124 125 126 128 129 130 131 132 133 134 135 136 137 138 139 140 141 142 143 144 0 1 2 3 4 5 6 7 8 9 10 11 12 13 14 15 16 17 18 19 20 21 22 23 24 25 26 27 28 29 30 31 32 33 34 35 36 37 38 39 40 41 42 44 45 46 47 48 49 50 51 52 53 54 55 56 57 58 59 60 61 62 63 64 65 66 67 68 69 70 71 72 73 74 75 76 77 78 79 80 81 82 83 84 85 86 87 88 89 90 91 92 93 94 95 96 97 98 99 100 101 102 103 104 105 106 107 108 109 110 111 112 113 114 115 116 117 118 119 120 121 122 123 124 125 126 128 129 130 131 132 133 134 135 136 137 138 139 140 141 142 143 144 0 1 2 3 4 5 6 7 8 9 10 11 12 13 14 
1 2 3 4 5 6 7 8 9 10 11 12 13 14 15 16 17 18 19 20 21 22 23 24 25 26 27 28 29 30 31 32 33 34 35 36 37 38 39 40 41 42 44 45 46 47 48 49 50 51 52 53 54 55 56 57 58 59 60 61 62 63 64 65 66 67 68 69 70 71 72 73 74 75 76 77 78 79 80 81 82 83 84 85 86 87 88 89 90 91 92 93 94 95 96 97 98 99 100 101 102 103 104 105 106 107 108 109 110 111 112 113 114 115 116 117 118 119 120 121 122 123 124 125 126 128 129 130 131 132 133 134 135 136 137 138 139 140 141 142 143 144 145 0 1 2 3 4 5 6 7 8 9 10 11 12 13 14 15 16 17 18 19 20 21 22 23 24 25 26 27 28 29 30 31 32 33 34 35 36 37 38 39 40 41 42 44 45 46 47 48 49 50 51 52 53 54 55 56 57 58 59 60 61 62 63 64 65 66 67 68 69 70 71 72 73 74 75 76 77 78 79 80 81 82 83 84 85 86 87 88 89 90 91 92 93 94 95 96 97 98 99 100 101 102 103 104 105 106 107 108 109 110 111 112 113 114 115 116 117 118 119 120 121 122 123 124 125 126 128 129 130 131 132 133 134 135 136 137 138 139 140 141 142 143 144 145 0 1 2 3 4 5 6 7 8 9 10 11 12 
1 2 3 4 5 6 7 8 9 10 11 12 13 14 15 16 17 18 19 20 21 22 23 24 25 26 27 28 29 30 31 32 33 34 35 36 37 38 39 40 41 42 44 45 46 47 48 49 50 51 52 53 54 55 56 57 58 59 60 61 62 63 64 65 66 67 68 69 70 71 72 73 74 75 76 77 78 79 80 81 82 83 84 85 86 87 88 89 90 91 92 93 94 95 96 97 98 99 100 101 102 103 104 105 106 107 108 109 110 111 112 113 114 115 116 117 118 119 120 121 122 123 124 125 126 128 129 130 131 132 133 134 135 136 137 138 139 140 141 142 143 144 145 146 0 1 2 3 4 5 6 7 8 9 10 11 12 13 14 15 16 17 18 19 20 21 22 23 24 25 26 27 28 29 30 31 32 33 34 35 36 37 38 39 40 41 42 44 45 46 47 48 49 50 51 52 53 54 55 56 57 58 59 60 61 62 63 64 65 66 67 68 69 70 71 72 73 74 75 76 77 78 79 80 81 82 83 84 85 86 87 88 89 90 91 92 93 94 95 96 97 98 99 100 101 102 103 104 105 106 107 108 109 110 111 112 113 114 115 116 117 118 119 120 121 122 123 124 125 126 128 129 130 131 132 133 134 135 136 137 138 139 140 141 142 143 144 145 146 0 1 2 3 4 5 6 7 8 9 10 
1 2 3 4 5 6 7 8 9 10 11 12 13 14 15 16 17 18 19 20 21 22 23 24 25 26 27 28 29 30 31 32 33 34 35 36 37 38 39 40 41 42 44 45 46 47 48 49 50 51 52 53 54 55 56 57 58 59 60 61 62 63 64 65 66 67 68 69 70 71 72 73 74 75 76 77 78 79 80 81 82 83 84 85 86 87 88 89 90 91 92 93 94 95 96 97 98 99 100 101 102 103 104 105 106 107 108 109 110 111 112 113 114 115 116 117 118 119 120 121 122 123 124 125 126 128 129 130 131 132 133 134 135 136 137 138 139 140 141 142 143 144 145 146 147 0 1 2 3 4 5 6 7 8 9 10 11 12 13 14 15 16 17 18 19 20 21 22 23 24 25 26 27 28 29 30 31 32 33 34 35 36 37 38 39 40 41 42 44 45 46 47 48 49 50 51 52 53 54 55 56 57 58 59 60 61 62 63 64 65 66 67 68 69 70 71 72 73 74 75 76 77 78 79 80 81 82 83 84 85 86 87 88 89 90 91 92 93 94 95 96 97 98 99 100 101 102 103 104 105 106 107 108 109 110 111 112 113 114 115 116 117 118 119 120 121 122 123 124 125 126 128 129 130 131 132 133 134 135 136 137 138 139 140 141 142 143 144 145 146 147 0 1 2 3 4 5 6 7 8 
1 2 3 4 5 6 7 8 9 10 11 12 13 14 15 16 17 18 19 20 21 22 23 24 25 26 27 28 29 30 31 32 33 34 35 36 37 38 39 40 41 42 44 45 46 47 48 49 50 51 52 53 54 55 56 57 58 59 60 61 62 63 64 65 66 67 68 69 70 71 72 73 74 75 76 77 78 79 80 81 82 83 84 85 86 87 88 89 90 91 92 93 94 95 96 97 98 99 100 101 102 103 104 105 106 107 108 109 110 111 112 113 114 115 116 117 118 119 120 121 122 123 124 125 126 128 129 130 131 132 133 134 135 136 137 138 139 140 141 142 143 144 145 146 147 148 0 1 2 3 4 5 6 7 8 9 10 11 12 13 14 15 16 17 18 19 20 21 22 23 24 25 26 27 28 29 30 31 32 33 34 35 36 37 38 39 40 41 42 44 45 46 47 48 49 50 51 52 53 54 55 56 57 58 59 60 61 62 63 64 65 66 67 68 69 70 71 72 73 74 75 76 77 78 79 80 81 82 83 84 85 86 87 88 89 90 91 92 93 94 95 96 97 98 99 100 101 102 103 104 105 106 107 108 109 110 111 112 113 114 115 116 117 118 119 120 121 122 123 124 125 126 128 129 130 131 132 133 134 135 136 137 138 139 140 141 142 143 144 145 146 147 148 0 1 2 3 4 5 6 
1 2 3 4 5 6 7 8 9 10 11 12 13 14 15 16 17 18 19 20 21 22 23 24 25 26 27 28 29 30 31 32 33 34 35 36 37 38 39 40 41 42 44 45 46 47 48 49 50 51 52 53 54 55 56 57 58 59 60 61 62 63 64 65 66 67 68 69 70 71 72 73 74 75 76 77 78 79 80 81 82 83 84 85 86 87 88 89 90 91 92 93 94 95 96 97 98 99 100 101 102 103 104 105 106 107 108 109 110 111 112 113 114 115 116 117 118 119 120 121 122 123 124 125 126 128 129 130 131 132 133 134 135 136 137 138 139 140 141 142 143 144 145 146 147 148 149 0 1 2 3 4 5 6 7 8 9 10 11 12 13 14 15 16 17 18 19 20 21 22 23 24 25 26 27 28 29 30 31 32 33 34 35 36 37 38 39 40 41 42 44 45 46 47 48 49 50 51 52 53 54 55 56 57 58 59 60 61 62 63 64 65 66 67 68 69 70 71 72 73 74 75 76 77 78 79 80 81 82 83 84 85 86 87 88 89 90 91 92 93 94 95 96 97 98 99 100 101 102 103 104 105 106 107 108 109 110 111 112 113 114 115 116 117 118 119 120 121 122 123 124 125 126 128 129 130 131 132 133 134 135 136 137 138 139 140 141 142 143 144 145 146 147 148 149 0 1 2 3 4 
1 2 3 4 5 6 7 8 9 10 11 12 13 14 15 16 17 18 19 20 21 22 23 24 25 26 27 28 29 30 31 32 33 34 35 36 37 38 39 40 41 42 44 45 46 47 48 49 50 51 52 53 54 55 56 57 58 59 60 61 62 63 64 65 66 67 68 69 70 71 72 73 74 75 76 77 78 79 80 81 82 83 84 85 86 87 88 89 90 91 92 93 94 95 96 97 98 99 100 101 102 103 104 105 106 107 108 109 110 111 112 113 114 115 116 117 118 119 120 121 122 123 124 125 126 128 129 130 131 132 133 134 135 136 137 138 139 140 141 142 143 144 145 146 147 148 149 150 0 1 2 3 4 5 6 7 8 9 10 11 12 13 14 15 16 17 18 19 20 21 22 23 24 25 26 27 28 29 30 31 32 33 34 35 36 37 38 39 40 41 42 44 45 46 47 48 49 50 51 52 53 54 55 56 57 58 59 60 61 62 63 64 65 66 67 68 69 70 71 72 73 74 75 76 77 78 79 80 81 82 83 84 85 86 87 88 89 90 91 92 93 94 95 96 97 98 99 100 101 102 103 104 105 106 107 108 109 110 111 112 113 114 115 116 117 118 119 120 121 122 123 124 125 126 128 129 130 131 132 133 134 135 136 137 138 139 140 141 142 143 144 145 146 147 148 149 150 0 1 2 
1 2 3 4 5 6 7 8 9 10 11 12 13 14 15 16 17 18 19 20 21 22 23 24 25 26 27 28 29 30 31 32 33 34 35 36 37 38 39 40 41 42 44 45 46 47 48 49 50 51 52 53 54 55 56 57 58 59 60 61 62 63 64 65 66 67 68 69 70 71 72 73 74 75 76 77 78 79 80 81 82 83 84 85 86 87 88 89 90 91 92 93 94 95 96 97 98 99 100 101 102 103 104 105 106 107 108 109 110 111 112 113 114 115 116 117 118 119 120 121 122 123 124 125 126 128 129 130 131 132 133 134 135 136 137 138 139 140 141 142 143 144 145 146 147 148 149 150 151 0 1 2 3 4 5 6 7 8 9 10 11 12 13 14 15 16 17 18 19 20 21 22 23 24 25 26 27 28 29 30 31 32 33 34 35 36 37 38 39 40 41 42 44 45 46 47 48 49 50 51 52 53 54 55 56 57 58 59 60 61 62 63 64 65 66 67 68 69 70 71 72 73 74 75 76 77 78 79 80 81 82 83 84 85 86 87 88 89 90 91 92 93 94 95 96 97 98 99 100 101 102 103 104 105 106 107 108 109 110 111 112 113 114 115 116 117 118 119 120 121 122 123 124 125 126 128 129 130 131 132 133 134 135 136 137 138 139 140 141 142 143 144 145 146 147 148 149 150 151 0 
1 2 3 4 5 6 7 8 9 10 11 12 13 14 15 16 17 18 19 20 21 22 23 24 25 26 27 28 29 30 31 32 33 34 35 36 37 38 39 40 41 42 44 45 46 47 48 49 50 51 52 53 54 55 56 57 58 59 60 61 62 63 64 65 66 67 68 69 70 71 72 73 74 75 76 77 78 79 80 81 82 83 84 85 86 87 88 89 90 91 92 93 94 95 96 97 98 99 100 101 102 103 104 105 106 107 108 109 110 111 112 113 114 115 116 117 118 119 120 121 122 123 124 125 126 128 129 130 131 132 133 134 135 136 137 138 139 140 141 142 143 144 145 146 147 148 149 150 151 152 0 1 2 3 4 5 6 7 8 9 10 11 12 13 14 15 16 17 18 19 20 21 22 23 24 25 26 27 28 29 30 31 32 33 34 35 36 37 38 39 40 41 42 44 45 46 47 48 49 50 51 52 53 54 55 56 57 58 59 60 61 62 63 64 65 66 67 68 69 70 71 72 73 74 75 76 77 78 79 80 81 82 83 84 85 86 87 88 89 90 91 92 93 94 95 96 97 98 99 100 101 102 103 104 105 106 107 108 109 110 111 112 113 114 115 116 117 118 119 120 121 122 123 124 125 126 128 129 130 131 132 133 134 135 136 137 138 139 140 141 142 143 144 145 146 147 148 149 150 151 
1 2 3 4 5 6 7 8 9 10 11 12 13 14 15 16 17 18 19 20 21 22 23 24 25 26 27 28 29 30 31 32 33 34 35 36 37 38 39 40 41 42 44 45 46 47 48 49 50 51 52 53 54 55 56 57 58 59 60 61 62 63 64 65 66 67 68 69 70 71 72 73 74 75 76 77 78 79 80 81 82 83 84 85 86 87 88 89 90 91 92 93 94 95 96 97 98 99 100 101 102 103 104 105 106 107 108 109 110 111 112 113 114 115 116 117 118 119 120 121 122 123 124 125 126 128 129 130 131 132 133 134 135 136 137 138 139 140 141 142 143 144 145 146 147 148 149 150 151 152 153 0 1 2 3 4 5 6 7 8 9 10 11 12 13 14 15 16 17 18 19 20 21 22 23 24 25 26 27 28 29 30 31 32 33 34 35 36 37 38 39 40 41 42 44 45 46 47 48 49 50 51 52 53 54 55 56 57 58 59 60 61 62 63 64 65 66 67 68 69 70 71 72 73 74 75 76 77 78 79 80 81 82 83 84 85 86 87 88 89 90 91 92 93 94 95 96 97 98 99 100 101 102 103 104 105 106 107 108 109 110 111 112 113 114 115 116 117 118 119 120 121 122 123 124 125 126 128 129 130 131 132 133 134 135 136 137 138 139 140 141 142 143 144 145 146 147 148 149 150 
1 2 3 4 5 6 7 8 9 10 11 12 13 14 15 16 17 18 19 20 21 22 23 24 25 26 27 28 29 30 31 32 33 34 35 36 37 38 39 40 41 42 44 45 46 47 48 49 50 51 52 53 54 55 56 57 58 59 60 61 62 63 64 65 66 67 68 69 70 71 72 73 74 75 76 77 78 79 80 81 82 83 84 85 86 87 88 89 90 91 92 93 94 95 96 97 98 99 100 101 102 103 104 105 106 107 108 109 110 111 112 113 114 115 116 117 118 119 120 121 122 123 124 125 126 128 129 130 131 132 133 134 135 136 137 138 139 140 141 142 143 144 145 146 147 148 149 150 151 152 153 154 0 1 2 3 4 5 6 7 8 9 10 11 12 13 14 15 16 17 18 19 20 21 22 23 24 25 26 27 28 29 30 31 32 33 34 35 36 37 38 39 40 41 42 44 45 46 47 48 49 50 51 52 53 54 55 56 57 58 59 60 61 62 63 64 65 66 67 68 69 70 71 72 73 74 75 76 77 78 79 80 81 82 83 84 85 86 87 88 89 90 91 92 93 94 95 96 97 98 99 100 101 102 103 104 105 106 107 108 109 110 111 112 113 114 115 116 117 118 119 120 121 122 123 124 125 126 128 129 130 131 132 133 134 135 136 137 138 139 140 141 142 143 144 145 146 147 148 149 
1 2 3 4 5 6 7 8 9 10 11 12 13 14 15 16 17 18 19 20 21 22 23 24 25 26 27 28 29 30 31 32 33 34 35 36 37 38 39 40 41 42 44 45 46 47 48 49 50 51 52 53 54 55 56 57 58 59 60 61 62 63 64 65 66 67 68 69 70 71 72 73 74 75 76 77 78 79 80 81 82 83 84 85 86 87 88 89 90 91 92 93 94 95 96 97 98 99 100 101 102 103 104 105 106 107 108 109 110 111 112 113 114 115 116 117 118 119 120 121 122 123 124 125 126 128 129 130 131 132 133 134 135 136 137 138 139 140 141 142 143 144 145 146 147 148 149 150 151 152 153 154 155 0 1 2 3 4 5 6 7 8 9 10 11 12 13 14 15 16 17 18 19 20 21 22 23 24 25 26 27 28 29 30 31 32 33 34 35 36 37 38 39 40 41 42 44 45 46 47 48 49 50 51 52 53 54 55 56 57 58 59 60 61 62 63 64 65 66 67 68 69 70 71 72 73 74 75 76 77 78 79 80 81 82 83 84 85 86 87 88 89 90 91 92 93 94 95 96 97 98 99 100 101 102 103 104 105 106 107 108 109 110 111 112 113 114 115 116 117 118 119 120 121 122 123 124 125 126 128 129 130 131 132 133 134 135 136 137 138 139 140 141 142 143 144 145 146 147 148 
1 2 3 4 5 6 7 8 9 10 11 12 13 14 15 16 17 18 19 20 21 22 23 24 25 26 27 28 29 30 31 32 33 34 35 36 37 38 39 40 41 42 44 45 46 47 48 49 50 51 52 53 54 55 56 57 58 59 60 61 62 63 64 65 66 67 68 69 70 71 72 73 74 75 76 77 78 79 80 81 82 83 84 85 86 87 88 89 90 91 92 93 94 95 96 97 98 99 100 101 102 103 104 105 106 107 108 109 110 111 112 113 114 115 116 117 118 119 120 121 122 123 124 125 126 128 129 130 131 132 133 134 135 136 137 138 139 140 141 142 143 144 145 146 147 148 149 150 151 152 153 154 155 156 0 1 2 3 4 5 6 7 8 9 10 11 12 13 14 15 16 17 18 19 20 21 22 23 24 25 26 27 28 29 30 31 32 33 34 35 36 37 38 39 40 41 42 44 45 46 47 48 49 50 51 52 53 54 55 56 57 58 59 60 61 62 63 64 65 66 67 68 69 70 71 72 73 74 75 76 77 78 79 80 81 82 83 84 85 86 87 88 89 90 91 92 93 94 95 96 97 98 99 100 101 102 103 104 105 106 107 108 109 110 111 112 113 114 115 116 117 118 119 120 121 122 123 124 125 126 128 129 130 131 132 133 134 135 136 137 138 139 140 141 142 143 144 145 146 147 
1 2 3 4 5 6 7 8 9 10 11 12 13 14 15 16 17 18 19 20 21 22 23 24 25 26 27 28 29 30 31 32 33 34 35 36 37 38 39 40 41 42 44 45 46 47 48 49 50 51 52 53 54 55 56 57 58 59 60 61 62 63 64 65 66 67 68 69 70 71 72 73 74 75 76 77 78 79 80 81 82 83 84 85 86 87 88 89 90 91 92 93 94 95 96 97 98 99 100 101 102 103 104 105 106 107 108 109 110 111 112 113 114 115 116 117 118 119 120 121 122 123 124 125 126 128 129 130 131 132 133 134 135 136 137 138 139 140 141 142 143 144 145 146 147 148 149 150 151 152 153 154 155 156 157 0 1 2 3 4 5 6 7 8 9 10 11 12 13 14 15 16 17 18 19 20 21 22 23 24 25 26 27 28 29 30 31 32 33 34 35 36 37 38 39 40 41 42 44 45 46 47 48 49 50 51 52 53 54 55 56 57 58 59 60 61 62 63 64 65 66 67 68 69 70 71 72 73 74 75 76 77 78 79 80 81 82 83 84 85 86 87 88 89 90 91 92 93 94 95 96 97 98 99 100 101 102 103 104 105 106 107 108 109 110 111 112 113 114 115 116 117 118 119 120 121 122 123 124 125 126 128 129 130 131 132 133 134 135 136 137 138 139 140 141 142 143 144 145 146 
1 2 3 4 5 6 7 8 9 10 11 12 13 14 15 16 17 18 19 20 21 22 23 24 25 26 27 28 29 30 31 32 33 34 35 36 37 38 39 40 41 42 44 45 46 47 48 49 50 51 52 53 54 55 56 57 58 59 60 61 62 63 64 65 66 67 68 69 70 71 72 73 74 75 76 77 78 79 80 81 82 83 84 85 86 87 88 89 90 91 92 93 94 95 96 97 98 99 100 101 102 103 104 105 106 107 108 109 110 111 112 113 114 115 116 117 118 119 120 121 122 123 124 125 126 128 129 130 131 132 133 134 135 136 137 138 139 140 141 142 143 144 145 146 147 148 149 150 151 152 153 154 155 156 157 158 0 1 2 3 4 5 6 7 8 9 10 11 12 13 14 15 16 17 18 19 20 21 22 23 24 25 26 27 28 29 30 31 32 33 34 35 36 37 38 39 40 41 42 44 45 46 47 48 49 50 51 52 53 54 55 56 57 58 59 60 61 62 63 64 65 66 67 68 69 70 71 72 73 74 75 76 77 78 79 80 81 82 83 84 85 86 87 88 89 90 91 92 93 94 95 96 97 98 99 100 101 102 103 104 105 106 107 108 109 110 111 112 113 114 115 116 117 118 119 120 121 122 123 124 125 126 128 129 130 131 132 133 134 135 136 137 138 139 140 141 142 143 144 145 
1 2 3 4 5 6 7 8 9 10 11 12 13 14 15 16 17 18 19 20 21 22 23 24 25 26 27 28 29 30 31 32 33 34 35 36 37 38 39 40 41 42 44 45 46 47 48 49 50 51 52 53 54 55 56 57 58 59 60 61 62 63 64 65 66 67 68 69 70 71 72 73 74 75 76 77 78 79 80 81 82 83 84 85 86 87 88 89 90 91 92 93 94 95 96 97 98 99 100 101 102 103 104 105 106 107 108 109 110 111 112 113 114 115 116 117 118 119 120 121 122 123 124 125 126 128 129 130 131 132 133 134 135 136 137 138 139 140 141 142 143 144 145 146 147 148 149 150 151 152 153 154 155 156 157 158 159 0 1 2 3 4 5 6 7 8 9 10 11 12 13 14 15 16 17 18 19 20 21 22 23 24 25 26 27 28 29 30 31 32 33 34 35 36 37 38 39 40 41 42 44 45 46 47 48 49 50 51 52 53 54 55 56 57 58 59 60 61 62 63 64 65 66 67 68 69 70 71 72 73 74 75 76 77 78 79 80 81 82 83 84 85 86 87 88 89 90 91 92 93 94 95 96 97 98 99 100 101 102 103 104 105 106 107 108 109 110 111 112 113 114 115 116 117 118 119 120 121 122 123 124 125 126 128 129 130 131 132 133 134 135 136 137 138 139 140 141 142 143 144 
1 2 3 4 5 6 7 8 9 10 11 12 13 14 15 16 17 18 19 20 21 22 23 24 25 26 27 28 29 30 31 32 33 34 35 36 37 38 39 40 41 42 44 45 46 47 48 49 50 51 52 53 54 55 56 57 58 59 60 61 62 63 64 65 66 67 68 69 70 71 72 73 74 75 76 77 78 79 80 81 82 83 84 85 86 87 88 89 90 91 92 93 94 95 96 97 98 99 100 101 102 103 104 105 106 107 108 109 110 111 112 113 114 115 116 117 118 119 120 121 122 123 124 125 126 128 129 130 131 132 133 134 135 136 137 138 139 140 141 142 143 144 145 146 147 148 149 150 151 152 153 154 155 156 157 158 159 160 0 1 2 3 4 5 6 7 8 9 10 11 12 13 14 15 16 17 18 19 20 21 22 23 24 25 26 27 28 29 30 31 32 33 34 35 36 37 38 39 40 41 42 44 45 46 47 48 49 50 51 52 53 54 55 56 57 58 59 60 61 62 63 64 65 66 67 68 69 70 71 72 73 74 75 76 77 78 79 80 81 82 83 84 85 86 87 88 89 90 91 92 93 94 95 96 97 98 99 100 101 102 103 104 105 106 107 108 109 110 111 112 113 114 115 116 117 118 119 120 121 122 123 124 125 126 128 129 130 131 132 133 134 135 136 137 138 139 140 141 142 143 
1 2 3 4 5 6 7 8 9 10 11 12 13 14 15 16 17 18 19 20 21 22 23 24 25 26 27 28 29 30 31 32 33 34 35 36 37 38 39 40 41 42 44 45 46 47 48 49 50 51 52 53 54 55 56 57 58 59 60 61 62 63 64 65 66 67 68 69 70 71 72 73 74 75 76 77 78 79 80 81 82 83 84 85 86 87 88 89 90 91 92 93 94 95 96 97 98 99 100 101 102 103 104 105 106 107 108 109 110 111 112 113 114 115 116 117 118 119 120 121 122 123 124 125 126 128 129 130 131 132 133 134 135 136 137 138 139 140 141 142 143 144 145 146 147 148 149 150 151 152 153 154 155 156 157 158 159 160 161 0 1 2 3 4 5 6 7 8 9 10 11 12 13 14 15 16 17 18 19 20 21 22 23 24 25 26 27 28 29 30 31 32 33 34 35 36 37 38 39 40 41 42 44 45 46 47 48 49 50 51 52 53 54 55 56 57 58 59 60 61 62 63 64 65 66 67 68 69 70 71 72 73 74 75 76 77 78 79 80 81 82 83 84 85 86 87 88 89 90 91 92 93 94 95 96 97 98 99 100 101 102 103 104 105 106 107 108 109 110 111 112 113 114 115 116 117 118 119 120 121 122 123 124 125 126 128 129 130 131 132 133 134 135 136 137 138 139 140 141 142 
1 2 3 4 5 6 7 8 9 10 11 12 13 14 15 16 17 18 19 20 21 22 23 24 25 26 27 28 29 30 31 32 33 34 35 36 37 38 39 40 41 42 44 45 46 47 48 49 50 51 52 53 54 55 56 57 58 59 60 61 62 63 64 65 66 67 68 69 70 71 72 73 74 75 76 77 78 79 80 81 82 83 84 85 86 87 88 89 90 91 92 93 94 95 96 97 98 99 100 101 102 103 104 105 106 107 108 109 110 111 112 113 114 115 116 117 118 119 120 121 122 123 124 125 126 128 129 130 131 132 133 134 135 136 137 138 139 140 141 142 143 144 145 146 147 148 149 150 151 152 153 154 155 156 157 158 159 160 161 162 0 1 2 3 4 5 6 7 8 9 10 11 12 13 14 15 16 17 18 19 20 21 22 23 24 25 26 27 28 29 30 31 32 33 34 35 36 37 38 39 40 41 42 44 45 46 47 48 49 50 51 52 53 54 55 56 57 58 59 60 61 62 63 64 65 66 67 68 69 70 71 72 73 74 75 76 77 78 79 80 81 82 83 84 85 86 87 88 89 90 91 92 93 94 95 96 97 98 99 100 101 102 103 104 105 106 107 108 109 110 111 112 113 114 115 116 117 118 119 120 121 122 123 124 125 126 128 129 130 131 132 133 134 135 136 137 138 139 140 141 
1 2 3 4 5 6 7 8 9 10 11 12 13 14 15 16 17 18 19 20 21 22 23 24 25 26 27 28 29 30 31 32 33 34 35 36 37 38 39 40 41 42 44 45 46 47 48 49 50 51 52 53 54 55 56 57 58 59 60 61 62 63 64 65 66 67 68 69 70 71 72 73 74 75 76 77 78 79 80 81 82 83 84 85 86 87 88 89 90 91 92 93 94 95 96 97 98 99 100 101 102 103 104 105 106 107 108 109 110 111 112 113 114 115 116 117 118 119 120 121 122 123 124 125 126 128 129 130 131 132 133 134 135 136 137 138 139 140 141 142 143 144 145 146 147 148 149 150 151 152 153 154 155 156 157 158 159 160 161 162 163 0 1 2 3 4 5 6 7 8 9 10 11 12 13 14 15 16 17 18 19 20 21 22 23 24 25 26 27 28 29 30 31 32 33 34 35 36 37 38 39 40 41 42 44 45 46 47 48 49 50 51 52 53 54 55 56 57 58 59 60 61 62 63 64 65 66 67 68 69 70 71 72 73 74 75 76 77 78 79 80 81 82 83 84 85 86 87 88 89 90 91 92 93 94 95 96 97 98 99 100 101 102 103 104 105 106 107 108 109 110 111 112 113 114 115 116 117 118 119 120 121 122 123 124 125 126 128 129 130 131 132 133 134 135 136 137 138 139 140 
1 2 3 4 5 6 7 8 9 10 11 12 13 14 15 16 17 18 19 20 21 22 23 24 25 26 27 28 29 30 31 32 33 34 35 36 37 38 39 40 41 42 44 45 46 47 48 49 50 51 52 53 54 55 56 57 58 59 60 61 62 63 64 65 66 67 68 69 70 71 72 73 74 75 76 77 78 79 80 81 82 83 84 85 86 87 88 89 90 91 92 93 94 95 96 97 98 99 100 101 102 103 104 105 106 107 108 109 110 111 112 113 114 115 116 117 118 119 120 121 122 123 124 125 126 128 129 130 131 132 133 134 135 136 137 138 139 140 141 142 143 144 145 146 147 148 149 150 151 152 153 154 155 156 157 158 159 160 161 162 163 164 0 1 2 3 4 5 6 7 8 9 10 11 12 13 14 15 16 17 18 19 20 21 22 23 24 25 26 27 28 29 30 31 32 33 34 35 36 37 38 39 40 41 42 44 45 46 47 48 49 50 51 52 53 54 55 56 57 58 59 60 61 62 63 64 65 66 67 68 69 70 71 72 73 74 75 76 77 78 79 80 81 82 83 84 85 86 87 88 89 90 91 92 93 94 95 96 97 98 99 100 101 102 103 104 105 106 107 108 109 110 111 112 113 114 115 116 117 118 119 120 121 122 123 124 125 126 128 129 130 131 132 133 134 135 136 137 138 139 
1 2 3 4 5 6 7 8 9 10 11 12 13 14 15 16 17 18 19 20 21 22 23 24 25 26 27 28 29 30 31 32 33 34 35 36 37 38 39 40 41 42 44 45 46 47 48 49 50 51 52 53 54 55 56 57 58 59 60 61 62 63 64 65 66 67 68 69 70 71 72 73 74 75 76 77 78 79 80 81 82 83 84 85 86 87 88 89 90 91 92 93 94 95 96 97 98 99 100 101 102 103 104 105 106 107 108 109 110 111 112 113 114 115 116 117 118 119 120 121 122 123 124 125 126 128 129 130 131 132 133 134 135 136 137 138 139 140 141 142 143 144 145 146 147 148 149 150 151 152 153 154 155 156 157 158 159 160 161 162 163 164 165 0 1 2 3 4 5 6 7 8 9 10 11 12 13 14 15 16 17 18 19 20 21 22 23 24 25 26 27 28 29 30 31 32 33 34 35 36 37 38 39 40 41 42 44 45 46 47 48 49 50 51 52 53 54 55 56 57 58 59 60 61 62 63 64 65 66 67 68 69 70 71 72 73 74 75 76 77 78 79 80 81 82 83 84 85 86 87 88 89 90 91 92 93 94 95 96 97 98 99 100 101 102 103 104 105 106 107 108 109 110 111 112 113 114 115 116 117 118 119 120 121 122 123 124 125 126 128 129 130 131 132 133 134 135 136 137 138 
1 2 3 4 5 6 7 8 9 10 11 12 13 14 15 16 17 18 19 20 21 22 23 24 25 26 27 28 29 30 31 32 33 34 35 36 37 38 39 40 41 42 44 45 46 47 48 49 50 51 52 53 54 55 56 57 58 59 60 61 62 63 64 65 66 67 68 69 70 71 72 73 74 75 76 77 78 79 80 81 82 83 84 85 86 87 88 89 90 91 92 93 94 95 96 97 98 99 100 101 102 103 104 105 106 107 108 109 110 111 112 113 114 115 116 117 118 119 120 121 122 123 124 125 126 128 129 130 131 132 133 134 135 136 137 138 139 140 141 142 143 144 145 146 147 148 149 150 151 152 153 154 155 156 157 158 159 160 161 162 163 164 165 166 0 1 2 3 4 5 6 7 8 9 10 11 12 13 14 15 16 17 18 19 20 21 22 23 24 25 26 27 28 29 30 31 32 33 34 35 36 37 38 39 40 41 42 44 45 46 47 48 49 50 51 52 53 54 55 56 57 58 59 60 61 62 63 64 65 66 67 68 69 70 71 72 73 74 75 76 77 78 79 80 81 82 83 84 85 86 87 88 89 90 91 92 93 94 95 96 97 98 99 100 101 102 103 104 105 106 107 108 109 110 111 112 113 114 115 116 117 118 119 120 121 122 123 124 125 126 128 129 130 131 132 133 134 135 136 137 
1 2 3 4 5 6 7 8 9 10 11 12 13 14 15 16 17 18 19 20 21 22 23 24 25 26 27 28 29 30 31 32 33 34 35 36 37 38 39 40 41 42 44 45 46 47 48 49 50 51 52 53 54 55 56 57 58 59 60 61 62 63 64 65 66 67 68 69 70 71 72 73 74 75 76 77 78 79 80 81 82 83 84 85 86 87 88 89 90 91 92 93 94 95 96 97 98 99 100 101 102 103 104 105 106 107 108 109 110 111 112 113 114 115 116 117 118 119 120 121 122 123 124 125 126 128 129 130 131 132 133 134 135 136 137 138 139 140 141 142 143 144 145 146 147 148 149 150 151 152 153 154 155 156 157 158 159 160 161 162 163 164 165 166 167 0 1 2 3 4 5 6 7 8 9 10 11 12 13 14 15 16 17 18 19 20 21 22 23 24 25 26 27 28 29 30 31 32 33 34 35 36 37 38 39 40 41 42 44 45 46 47 48 49 50 51 52 53 54 55 56 57 58 59 60 61 62 63 64 65 66 67 68 69 70 71 72 73 74 75 76 77 78 79 80 81 82 83 84 85 86 87 88 89 90 91 92 93 94 95 96 97 98 99 100 101 102 103 104 105 106 107 108 109 110 111 112 113 114 115 116 117 118 119 120 121 122 123 124 125 126 128 129 130 131 132 133 134 135 136 
1 2 3 4 5 6 7 8 9 10 11 12 13 14 15 16 17 18 19 20 21 22 23 24 25 26 27 28 29 30 31 32 33 34 35 36 37 38 39 40 41 42 44 45 46 47 48 49 50 51 52 53 54 55 56 57 58 59 60 61 62 63 64 65 66 67 68 69 70 71 72 73 74 75 76 77 78 79 80 81 82 83 84 85 86 87 88 89 90 91 92 93 94 95 96 97 98 99 100 101 102 103 104 105 106 107 108 109 110 111 112 113 114 115 116 117 118 119 120 121 122 123 124 125 126 128 129 130 131 132 133 134 135 136 137 138 139 140 141 142 143 144 145 146 147 148 149 150 151 152 153 154 155 156 157 158 159 160 161 162 163 164 165 166 167 168 0 1 2 3 4 5 6 7 8 9 10 11 12 13 14 15 16 17 18 19 20 21 22 23 24 25 26 27 28 29 30 31 32 33 34 35 36 37 38 39 40 41 42 44 45 46 47 48 49 50 51 52 53 54 55 56 57 58 59 60 61 62 63 64 65 66 67 68 69 70 71 72 73 74 75 76 77 78 79 80 81 82 83 84 85 86 87 88 89 90 91 92 93 94 95 96 97 98 99 100 101 102 103 104 105 106 107 108 109 110 111 112 113 114 115 116 117 118 119 120 121 122 123 124 125 126 128 129 130 131 132 133 134 135 
1 2 3 4 5 6 7 8 9 10 11 12 13 14 15 16 17 18 19 20 21 22 23 24 25 26 27 28 29 30 31 32 33 34 35 36 37 38 39 40 41 42 44 45 46 47 48 49 50 51 52 53 54 55 56 57 58 59 60 61 62 63 64 65 66 67 68 69 70 71 72 73 74 75 76 77 78 79 80 81 82 83 84 85 86 87 88 89 90 91 92 93 94 95 96 97 98 99 100 101 102 103 104 105 106 107 108 109 110 111 112 113 114 115 116 117 118 119 120 121 122 123 124 125 126 128 129 130 131 132 133 134 135 136 137 138 139 140 141 142 143 144 145 146 147 148 149 150 151 152 153 154 155 156 157 158 159 160 161 162 163 164 165 166 167 168 169 0 1 2 3 4 5 6 7 8 9 10 11 12 13 14 15 16 17 18 19 20 21 22 23 24 25 26 27 28 29 30 31 32 33 34 35 36 37 38 39 40 41 42 44 45 46 47 48 49 50 51 52 53 54 55 56 57 58 59 60 61 62 63 64 65 66 67 68 69 70 71 72 73 74 75 76 77 78 79 80 81 82 83 84 85 86 87 88 89 90 91 92 93 94 95 96 97 98 99 100 101 102 103 104 105 106 107 108 109 110 111 112 113 114 115 116 117 118 119 120 121 122 123 124 125 126 128 129 130 131 132 133 134 
1 2 3 4 5 6 7 8 9 10 11 12 13 14 15 16 17 18 19 20 21 22 23 24 25 26 27 28 29 30 31 32 33 34 35 36 37 38 39 40 41 42 44 45 46 47 48 49 50 51 52 53 54 55 56 57 58 59 60 61 62 63 64 65 66 67 68 69 70 71 72 73 74 75 76 77 78 79 80 81 82 83 84 85 86 87 88 89 90 91 92 93 94 95 96 97 98 99 100 101 102 103 104 105 106 107 108 109 110 111 112 113 114 115 116 117 118 119 120 121 122 123 124 125 126 128 129 130 131 132 133 134 135 136 137 138 139 140 141 142 143 144 145 146 147 148 149 150 151 152 153 154 155 156 157 158 159 160 161 162 163 164 165 166 167 168 169 170 0 1 2 3 4 5 6 7 8 9 10 11 12 13 14 15 16 17 18 19 20 21 22 23 24 25 26 27 28 29 30 31 32 33 34 35 36 37 38 39 40 41 42 44 45 46 47 48 49 50 51 52 53 54 55 56 57 58 59 60 61 62 63 64 65 66 67 68 69 70 71 72 73 74 75 76 77 78 79 80 81 82 83 84 85 86 87 88 89 90 91 92 93 94 95 96 97 98 99 100 101 102 103 104 105 106 107 108 109 110 111 112 113 114 115 116 117 118 119 120 121 122 123 124 125 126 128 129 130 131 132 133 
1 2 3 4 5 6 7 8 9 10 11 12 13 14 15 16 17 18 19 20 21 22 23 24 25 26 27 28 29 30 31 32 33 34 35 36 37 38 39 40 41 42 44 45 46 47 48 49 50 51 52 53 54 55 56 57 58 59 60 61 62 63 64 65 66 67 68 69 70 71 72 73 74 75 76 77 78 79 80 81 82 83 84 85 86 87 88 89 90 91 92 93 94 95 96 97 98 99 100 101 102 103 104 105 106 107 108 109 110 111 112 113 114 115 116 117 118 119 120 121 122 123 124 125 126 128 129 130 131 132 133 134 135 136 137 138 139 140 141 142 143 144 145 146 147 148 149 150 151 152 153 154 155 156 157 158 159 160 161 162 163 164 165 166 167 168 169 170 171 0 1 2 3 4 5 6 7 8 9 10 11 12 13 14 15 16 17 18 19 20 21 22 23 24 25 26 27 28 29 30 31 32 33 34 35 36 37 38 39 40 41 42 44 45 46 47 48 49 50 51 52 53 54 55 56 57 58 59 60 61 62 63 64 65 66 67 68 69 70 71 72 73 74 75 76 77 78 79 80 81 82 83 84 85 86 87 88 89 90 91 92 93 94 95 96 97 98 99 100 101 102 103 104 105 106 107 108 109 110 111 112 113 114 115 116 117 118 119 120 121 122 123 124 125 126 128 129 130 131 132 
1 2 3 4 5 6 7 8 9 10 11 12 13 14 15 16 17 18 19 20 21 22 23 24 25 26 27 28 29 30 31 32 33 34 35 36 37 38 39 40 41 42 44 45 46 47 48 49 50 51 52 53 54 55 56 57 58 59 60 61 62 63 64 65 66 67 68 69 70 71 72 73 74 75 76 77 78 79 80 81 82 83 84 85 86 87 88 89 90 91 92 93 94 95 96 97 98 99 100 101 102 103 104 105 106 107 108 109 110 111 112 113 114 115 116 117 118 119 120 121 122 123 124 125 126 128 129 130 131 132 133 134 135 136 137 138 139 140 141 142 143 144 145 146 147 148 149 150 151 152 153 154 155 156 157 158 159 160 161 162 163 164 165 166 167 168 169 170 171 172 0 1 2 3 4 5 6 7 8 9 10 11 12 13 14 15 16 17 18 19 20 21 22 23 24 25 26 27 28 29 30 31 32 33 34 35 36 37 38 39 40 41 42 44 45 46 47 48 49 50 51 52 53 54 55 56 57 58 59 60 61 62 63 64 65 66 67 68 69 70 71 72 73 74 75 76 77 78 79 80 81 82 83 84 85 86 87 88 89 90 91 92 93 94 95 96 97 98 99 100 101 102 103 104 105 106 107 108 109 110 111 112 113 114 115 116 117 118 119 120 121 122 123 124 125 126 128 129 130 131 
1 2 3 4 5 6 7 8 9 10 11 12 13 14 15 16 17 18 19 20 21 22 23 24 25 26 27 28 29 30 31 32 33 34 35 36 37 38 39 40 41 42 44 45 46 47 48 49 50 51 52 53 54 55 56 57 58 59 60 61 62 63 64 65 66 67 68 69 70 71 72 73 74 75 76 77 78 79 80 81 82 83 84 85 86 87 88 89 90 91 92 93 94 95 96 97 98 99 100 101 102 103 104 105 106 107 108 109 110 111 112 113 114 115 116 117 118 119 120 121 122 123 124 125 126 128 129 130 131 132 133 134 135 136 137 138 139 140 141 142 143 144 145 146 147 148 149 150 151 152 153 154 155 156 157 158 159 160 161 162 163 164 165 166 167 168 169 170 171 172 173 0 1 2 3 4 5 6 7 8 9 10 11 12 13 14 15 16 17 18 19 20 21 22 23 24 25 26 27 28 29 30 31 32 33 34 35 36 37 38 39 40 41 42 44 45 46 47 48 49 50 51 52 53 54 55 56 57 58 59 60 61 62 63 64 65 66 67 68 69 70 71 72 73 74 75 76 77 78 79 80 81 82 83 84 85 86 87 88 89 90 91 92 93 94 95 96 97 98 99 100 101 102 103 104 105 106 107 108 109 110 111 112 113 114 115 116 117 118 119 120 121 122 123 124 125 126 128 129 130 
1 2 3 4 5 6 7 8 9 10 11 12 13 14 15 16 17 18 19 20 21 22 23 24 25 26 27 28 29 30 31 32 33 34 35 36 37 38 39 40 41 42 44 45 46 47 48 49 50 51 52 53 54 55 56 57 58 59 60 61 62 63 64 65 66 67 68 69 70 71 72 73 74 75 76 77 78 79 80 81 82 83 84 85 86 87 88 89 90 91 92 93 94 95 96 97 98 99 100 101 102 103 104 105 106 107 108 109 110 111 112 113 114 115 116 117 118 119 120 121 122 123 124 125 126 128 129 130 131 132 133 134 135 136 137 138 139 140 141 142 143 144 145 146 147 148 149 150 151 152 153 154 155 156 157 158 159 160 161 162 163 164 165 166 167 168 169 170 171 172 173 174 0 1 2 3 4 5 6 7 8 9 10 11 12 13 14 15 16 17 18 19 20 21 22 23 24 25 26 27 28 29 30 31 32 33 34 35 36 37 38 39 40 41 42 44 45 46 47 48 49 50 51 52 53 54 55 56 57 58 59 60 61 62 63 64 65 66 67 68 69 70 71 72 73 74 75 76 77 78 79 80 81 82 83 84 85 86 87 88 89 90 91 92 93 94 95 96 97 98 99 100 101 102 103 104 105 106 107 108 109 110 111 112 113 114 115 116 117 118 119 120 121 122 123 124 125 126 128 129 
1 2 3 4 5 6 7 8 9 10 11 12 13 14 15 16 17 18 19 20 21 22 23 24 25 26 27 28 29 30 31 32 33 34 35 36 37 38 39 40 41 42 44 45 46 47 48 49 50 51 52 53 54 55 56 57 58 59 60 61 62 63 64 65 66 67 68 69 70 71 72 73 74 75 76 77 78 79 80 81 82 83 84 85 86 87 88 89 90 91 92 93 94 95 96 97 98 99 100 101 102 103 104 105 106 107 108 109 110 111 112 113 114 115 116 117 118 119 120 121 122 123 124 125 126 128 129 130 131 132 133 134 135 136 137 138 139 140 141 142 143 144 145 146 147 148 149 150 151 152 153 154 155 156 157 158 159 160 161 162 163 164 165 166 167 168 169 170 171 172 173 174 175 0 1 2 3 4 5 6 7 8 9 10 11 12 13 14 15 16 17 18 19 20 21 22 23 24 25 26 27 28 29 30 31 32 33 34 35 36 37 38 39 40 41 42 44 45 46 47 48 49 50 51 52 53 54 55 56 57 58 59 60 61 62 63 64 65 66 67 68 69 70 71 72 73 74 75 76 77 78 79 80 81 82 83 84 85 86 87 88 89 90 91 92 93 94 95 96 97 98 99 100 101 102 103 104 105 106 107 108 109 110 111 112 113 114 115 116 117 118 119 120 121 122 123 124 125 126 128 
1 2 3 4 5 6 7 8 9 10 11 12 13 14 15 16 17 18 19 20 21 22 23 24 25 26 27 28 29 30 31 32 33 34 35 36 37 38 39 40 41 42 44 45 46 47 48 49 50 51 52 53 54 55 56 57 58 59 60 61 62 63 64 65 66 67 68 69 70 71 72 73 74 75 76 77 78 79 80 81 82 83 84 85 86 87 88 89 90 91 92 93 94 95 96 97 98 99 100 101 102 103 104 105 106 107 108 109 110 111 112 113 114 115 116 117 118 119 120 121 122 123 124 125 126 128 129 130 131 132 133 134 135 136 137 138 139 140 141 142 143 144 145 146 147 148 149 150 151 152 153 154 155 156 157 158 159 160 161 162 163 164 165 166 167 168 169 170 171 172 173 174 175 176 0 1 2 3 4 5 6 7 8 9 10 11 12 13 14 15 16 17 18 19 20 21 22 23 24 25 26 27 28 29 30 31 32 33 34 35 36 37 38 39 40 41 42 44 45 46 47 48 49 50 51 52 53 54 55 56 57 58 59 60 61 62 63 64 65 66 67 68 69 70 71 72 73 74 75 76 77 78 79 80 81 82 83 84 85 86 87 88 89 90 91 92 93 94 95 96 97 98 99 100 101 102 103 104 105 106 107 108 109 110 111 112 113 114 115 116 117 118 119 120 121 122 123 124 125 126 
1 2 3 4 5 6 7 8 9 10 11 12 13 14 15 16 17 18 19 20 21 22 23 24 25 26 27 28 29 30 31 32 33 34 35 36 37 38 39 40 41 42 44 45 46 47 48 49 50 51 52 53 54 55 56 57 58 59 60 61 62 63 64 65 66 67 68 69 70 71 72 73 74 75 76 77 78 79 80 81 82 83 84 85 86 87 88 89 90 91 92 93 94 95 96 97 98 99 100 101 102 103 104 105 106 107 108 109 110 111 112 113 114 115 116 117 118 119 120 121 122 123 124 125 126 128 129 130 131 132 133 134 135 136 137 138 139 140 141 142 143 144 145 146 147 148 149 150 151 152 153 154 155 156 157 158 159 160 161 162 163 164 165 166 167 168 169 170 171 172 173 174 175 176 177 0 1 2 3 4 5 6 7 8 9 10 11 12 13 14 15 16 17 18 19 20 21 22 23 24 25 26 27 28 29 30 31 32 33 34 35 36 37 38 39 40 41 42 44 45 46 47 48 49 50 51 52 53 54 55 56 57 58 59 60 61 62 63 64 65 66 67 68 69 70 71 72 73 74 75 76 77 78 79 80 81 82 83 84 85 86 87 88 89 90 91 92 93 94 95 96 97 98 99 100 101 102 103 104 105 106 107 108 109 110 111 112 113 114 115 116 117 118 119 120 121 122 123 124 125 
1 2 3 4 5 6 7 8 9 10 11 12 13 14 15 16 17 18 19 20 21 22 23 24 25 26 27 28 29 30 31 32 33 34 35 36 37 38 39 40 41 42 44 45 46 47 48 49 50 51 52 53 54 55 56 57 58 59 60 61 62 63 64 65 66 67 68 69 70 71 72 73 74 75 76 77 78 79 80 81 82 83 84 85 86 87 88 89 90 91 92 93 94 95 96 97 98 99 100 101 102 103 104 105 106 107 108 109 110 111 112 113 114 115 116 117 118 119 120 121 122 123 124 125 126 128 129 130 131 132 133 134 135 136 137 138 139 140 141 142 143 144 145 146 147 148 149 150 151 152 153 154 155 156 157 158 159 160 161 162 163 164 165 166 167 168 169 170 171 172 173 174 175 176 177 178 0 1 2 3 4 5 6 7 8 9 10 11 12 13 14 15 16 17 18 19 20 21 22 23 24 25 26 27 28 29 30 31 32 33 34 35 36 37 38 39 40 41 42 44 45 46 47 48 49 50 51 52 53 54 55 56 57 58 59 60 61 62 63 64 65 66 67 68 69 70 71 72 73 74 75 76 77 78 79 80 81 82 83 84 85 86 87 88 89 90 91 92 93 94 95 96 97 98 99 100 101 102 103 104 105 106 107 108 109 110 111 112 113 114 115 116 117 118 119 120 121 122 123 124 
1 2 3 4 5 6 7 8 9 10 11 12 13 14 15 16 17 18 19 20 21 22 23 24 25 26 27 28 29 30 31 32 33 34 35 36 37 38 39 40 41 42 44 45 46 47 48 49 50 51 52 53 54 55 56 57 58 59 60 61 62 63 64 65 66 67 68 69 70 71 72 73 74 75 76 77 78 79 80 81 82 83 84 85 86 87 88 89 90 91 92 93 94 95 96 97 98 99 100 101 102 103 104 105 106 107 108 109 110 111 112 113 114 115 116 117 118 119 120 121 122 123 124 125 126 128 129 130 131 132 133 134 135 136 137 138 139 140 141 142 143 144 145 146 147 148 149 150 151 152 153 154 155 156 157 158 159 160 161 162 163 164 165 166 167 168 169 170 171 172 173 174 175 176 177 178 179 0 1 2 3 4 5 6 7 8 9 10 11 12 13 14 15 16 17 18 19 20 21 22 23 24 25 26 27 28 29 30 31 32 33 34 35 36 37 38 39 40 41 42 44 45 46 47 48 49 50 51 52 53 54 55 56 57 58 59 60 61 62 63 64 65 66 67 68 69 70 71 72 73 74 75 76 77 78 79 80 81 82 83 84 85 86 87 88 89 90 91 92 93 94 95 96 97 98 99 100 101 102 103 104 105 106 107 108 109 110 111 112 113 114 115 116 117 118 119 120 121 122 123 
1 2 3 4 5 6 7 8 9 10 11 12 13 14 15 16 17 18 19 20 21 22 23 24 25 26 27 28 29 30 31 32 33 34 35 36 37 38 39 40 41 42 44 45 46 47 48 49 50 51 52 53 54 55 56 57 58 59 60 61 62 63 64 65 66 67 68 69 70 71 72 73 74 75 76 77 78 79 80 81 82 83 84 85 86 87 88 89 90 91 92 93 94 95 96 97 98 99 100 101 102 103 104 105 106 107 108 109 110 111 112 113 114 115 116 117 118 119 120 121 122 123 124 125 126 128 129 130 131 132 133 134 135 136 137 138 139 140 141 142 143 144 145 146 147 148 149 150 151 152 153 154 155 156 157 158 159 160 161 162 163 164 165 166 167 168 169 170 171 172 173 174 175 176 177 178 179 180 0 1 2 3 4 5 6 7 8 9 10 11 12 13 14 15 16 17 18 19 20 21 22 23 24 25 26 27 28 29 30 31 32 33 34 35 36 37 38 39 40 41 42 44 45 46 47 48 49 50 51 52 53 54 55 56 57 58 59 60 61 62 63 64 65 66 67 68 69 70 71 72 73 74 75 76 77 78 79 80 81 82 83 84 85 86 87 88 89 90 91 92 93 94 95 96 97 98 99 100 101 102 103 104 105 106 107 108 109 110 111 112 113 114 115 116 117 118 119 120 121 122 
1 2 3 4 5 6 7 8 9 10 11 12 13 14 15 16 17 18 19 20 21 22 23 24 25 26 27 28 29 30 31 32 33 34 35 36 37 38 39 40 41 42 44 45 46 47 48 49 50 51 52 53 54 55 56 57 58 59 60 61 62 63 64 65 66 67 68 69 70 71 72 73 74 75 76 77 78 79 80 81 82 83 84 85 86 87 88 89 90 91 92 93 94 95 96 97 98 99 100 101 102 103 104 105 106 107 108 109 110 111 112 113 114 115 116 117 118 119 120 121 122 123 124 125 126 128 129 130 131 132 133 134 135 136 137 138 139 140 141 142 143 144 145 146 147 148 149 150 151 152 153 154 155 156 157 158 159 160 161 162 163 164 165 166 167 168 169 170 171 172 173 174 175 176 177 178 179 180 181 0 1 2 3 4 5 6 7 8 9 10 11 12 13 14 15 16 17 18 19 20 21 22 23 24 25 26 27 28 29 30 31 32 33 34 35 36 37 38 39 40 41 42 44 45 46 47 48 49 50 51 52 53 54 55 56 57 58 59 60 61 62 63 64 65 66 67 68 69 70 71 72 73 74 75 76 77 78 79 80 81 82 83 84 85 86 87 88 89 90 91 92 93 94 95 96 97 98 99 100 101 102 103 104 105 106 107 108 109 110 111 112 113 114 115 116 117 118 119 120 121 
1 2 3 4 5 6 7 8 9 10 11 12 13 14 15 16 17 18 19 20 21 22 23 24 25 26 27 28 29 30 31 32 33 34 35 36 37 38 39 40 41 42 44 45 46 47 48 49 50 51 52 53 54 55 56 57 58 59 60 61 62 63 64 65 66 67 68 69 70 71 72 73 74 75 76 77 78 79 80 81 82 83 84 85 86 87 88 89 90 91 92 93 94 95 96 97 98 99 100 101 102 103 104 105 106 107 108 109 110 111 112 113 114 115 116 117 118 119 120 121 122 123 124 125 126 128 129 130 131 132 133 134 135 136 137 138 139 140 141 142 143 144 145 146 147 148 149 150 151 152 153 154 155 156 157 158 159 160 161 162 163 164 165 166 167 168 169 170 171 172 173 174 175 176 177 178 179 180 181 182 0 1 2 3 4 5 6 7 8 9 10 11 12 13 14 15 16 17 18 19 20 21 22 23 24 25 26 27 28 29 30 31 32 33 34 35 36 37 38 39 40 41 42 44 45 46 47 48 49 50 51 52 53 54 55 56 57 58 59 60 61 62 63 64 65 66 67 68 69 70 71 72 73 74 75 76 77 78 79 80 81 82 83 84 85 86 87 88 89 90 91 92 93 94 95 96 97 98 99 100 101 102 103 104 105 106 107 108 109 110 111 112 113 114 115 116 117 118 119 120 
1 2 3 4 5 6 7 8 9 10 11 12 13 14 15 16 17 18 19 20 21 22 23 24 25 26 27 28 29 30 31 32 33 34 35 36 37 38 39 40 41 42 44 45 46 47 48 49 50 51 52 53 54 55 56 57 58 59 60 61 62 63 64 65 66 67 68 69 70 71 72 73 74 75 76 77 78 79 80 81 82 83 84 85 86 87 88 89 90 91 92 93 94 95 96 97 98 99 100 101 102 103 104 105 106 107 108 109 110 111 112 113 114 115 116 117 118 119 120 121 122 123 124 125 126 128 129 130 131 132 133 134 135 136 137 138 139 140 141 142 143 144 145 146 147 148 149 150 151 152 153 154 155 156 157 158 159 160 161 162 163 164 165 166 167 168 169 170 171 172 173 174 175 176 177 178 179 180 181 182 183 0 1 2 3 4 5 6 7 8 9 10 11 12 13 14 15 16 17 18 19 20 21 22 23 24 25 26 27 28 29 30 31 32 33 34 35 36 37 38 39 40 41 42 44 45 46 47 48 49 50 51 52 53 54 55 56 57 58 59 60 61 62 63 64 65 66 67 68 69 70 71 72 73 74 75 76 77 78 79 80 81 82 83 84 85 86 87 88 89 90 91 92 93 94 95 96 97 98 99 100 101 102 103 104 105 106 107 108 109 110 111 112 113 114 115 116 117 118 119 
1 2 3 4 5 6 7 8 9 10 11 12 13 14 15 16 17 18 19 20 21 22 23 24 25 26 27 28 29 30 31 32 33 34 35 36 37 38 39 40 41 42 44 45 46 47 48 49 50 51 52 53 54 55 56 57 58 59 60 61 62 63 64 65 66 67 68 69 70 71 72 73 74 75 76 77 78 79 80 81 82 83 84 85 86 87 88 89 90 91 92 93 94 95 96 97 98 99 100 101 102 103 104 105 106 107 108 109 110 111 112 113 114 115 116 117 118 119 120 121 122 123 124 125 126 128 129 130 131 132 133 134 135 136 137 138 139 140 141 142 143 144 145 146 147 148 149 150 151 152 153 154 155 156 157 158 159 160 161 162 163 164 165 166 167 168 169 170 171 172 173 174 175 176 177 178 179 180 181 182 183 184 0 1 2 3 4 5 6 7 8 9 10 11 12 13 14 15 16 17 18 19 20 21 22 23 24 25 26 27 28 29 30 31 32 33 34 35 36 37 38 39 40 41 42 44 45 46 47 48 49 50 51 52 53 54 55 56 57 58 59 60 61 62 63 64 65 66 67 68 69 70 71 72 73 74 75 76 77 78 79 80 81 82 83 84 85 86 87 88 89 90 91 92 93 94 95 96 97 98 99 100 101 102 103 104 105 106 107 108 109 110 111 112 113 114 115 116 117 118 
1 2 3 4 5 6 7 8 9 10 11 12 13 14 15 16 17 18 19 20 21 22 23 24 25 26 27 28 29 30 31 32 33 34 35 36 37 38 39 40 41 42 44 45 46 47 48 49 50 51 52 53 54 55 56 57 58 59 60 61 62 63 64 65 66 67 68 69 70 71 72 73 74 75 76 77 78 79 80 81 82 83 84 85 86 87 88 89 90 91 92 93 94 95 96 97 98 99 100 101 102 103 104 105 106 107 108 109 110 111 112 113 114 115 116 117 118 119 120 121 122 123 124 125 126 128 129 130 131 132 133 134 135 136 137 138 139 140 141 142 143 144 145 146 147 148 149 150 151 152 153 154 155 156 157 158 159 160 161 162 163 164 165 166 167 168 169 170 171 172 173 174 175 176 177 178 179 180 181 182 183 184 185 0 1 2 3 4 5 6 7 8 9 10 11 12 13 14 15 16 17 18 19 20 21 22 23 24 25 26 27 28 29 30 31 32 33 34 35 36 37 38 39 40 41 42 44 45 46 47 48 49 50 51 52 53 54 55 56 57 58 59 60 61 62 63 64 65 66 67 68 69 70 71 72 73 74 75 76 77 78 79 80 81 82 83 84 85 86 87 88 89 90 91 92 93 94 95 96 97 98 99 100 101 102 103 104 105 106 107 108 109 110 111 112 113 114 115 116 117 
1 2 3 4 5 6 7 8 9 10 11 12 13 14 15 16 17 18 19 20 21 22 23 24 25 26 27 28 29 30 31 32 33 34 35 36 37 38 39 40 41 42 44 45 46 47 48 49 50 51 52 53 54 55 56 57 58 59 60 61 62 63 64 65 66 67 68 69 70 71 72 73 74 75 76 77 78 79 80 81 82 83 84 85 86 87 88 89 90 91 92 93 94 95 96 97 98 99 100 101 102 103 104 105 106 107 108 109 110 111 112 113 114 115 116 117 118 119 120 121 122 123 124 125 126 128 129 130 131 132 133 134 135 136 137 138 139 140 141 142 143 144 145 146 147 148 149 150 151 152 153 154 155 156 157 158 159 160 161 162 163 164 165 166 167 168 169 170 171 172 173 174 175 176 177 178 179 180 181 182 183 184 185 186 0 1 2 3 4 5 6 7 8 9 10 11 12 13 14 15 16 17 18 19 20 21 22 23 24 25 26 27 28 29 30 31 32 33 34 35 36 37 38 39 40 41 42 44 45 46 47 48 49 50 51 52 53 54 55 56 57 58 59 60 61 62 63 64 65 66 67 68 69 70 71 72 73 74 75 76 77 78 79 80 81 82 83 84 85 86 87 88 89 90 91 92 93 94 95 96 97 98 99 100 101 102 103 104 105 106 107 108 109 110 111 112 113 114 115 116 
1 2 3 4 5 6 7 8 9 10 11 12 13 14 15 16 17 18 19 20 21 22 23 24 25 26 27 28 29 30 31 32 33 34 35 36 37 38 39 40 41 42 44 45 46 47 48 49 50 51 52 53 54 55 56 57 58 59 60 61 62 63 64 65 66 67 68 69 70 71 72 73 74 75 76 77 78 79 80 81 82 83 84 85 86 87 88 89 90 91 92 93 94 95 96 97 98 99 100 101 102 103 104 105 106 107 108 109 110 111 112 113 114 115 116 117 118 119 120 121 122 123 124 125 126 128 129 130 131 132 133 134 135 136 137 138 139 140 141 142 143 144 145 146 147 148 149 150 151 152 153 154 155 156 157 158 159 160 161 162 163 164 165 166 167 168 169 170 171 172 173 174 175 176 177 178 179 180 181 182 183 184 185 186 187 0 1 2 3 4 5 6 7 8 9 10 11 12 13 14 15 16 17 18 19 20 21 22 23 24 25 26 27 28 29 30 31 32 33 34 35 36 37 38 39 40 41 42 44 45 46 47 48 49 50 51 52 53 54 55 56 57 58 59 60 61 62 63 64 65 66 67 68 69 70 71 72 73 74 75 76 77 78 79 80 81 82 83 84 85 86 87 88 89 90 91 92 93 94 95 96 97 98 99 100 101 102 103 104 105 106 107 108 109 110 111 112 113 114 115 
1 2 3 4 5 6 7 8 9 10 11 12 13 14 15 16 17 18 19 20 21 22 23 24 25 26 27 28 29 30 31 32 33 34 35 36 37 38 39 40 41 42 44 45 46 47 48 49 50 51 52 53 54 55 56 57 58 59 60 61 62 63 64 65 66 67 68 69 70 71 72 73 74 75 76 77 78 79 80 81 82 83 84 85 86 87 88 89 90 91 92 93 94 95 96 97 98 99 100 101 102 103 104 105 106 107 108 109 110 111 112 113 114 115 116 117 118 119 120 121 122 123 124 125 126 128 129 130 131 132 133 134 135 136 137 138 139 140 141 142 143 144 145 146 147 148 149 150 151 152 153 154 155 156 157 158 159 160 161 162 163 164 165 166 167 168 169 170 171 172 173 174 175 176 177 178 179 180 181 182 183 184 185 186 187 188 0 1 2 3 4 5 6 7 8 9 10 11 12 13 14 15 16 17 18 19 20 21 22 23 24 25 26 27 28 29 30 31 32 33 34 35 36 37 38 39 40 41 42 44 45 46 47 48 49 50 51 52 53 54 55 56 57 58 59 60 61 62 63 64 65 66 67 68 69 70 71 72 73 74 75 76 77 78 79 80 81 82 83 84 85 86 87 88 89 90 91 92 93 94 95 96 97 98 99 100 101 102 103 104 105 106 107 108 109 110 111 112 113 114 
1 2 3 4 5 6 7 8 9 10 11 12 13 14 15 16 17 18 19 20 21 22 23 24 25 26 27 28 29 30 31 32 33 34 35 36 37 38 39 40 41 42 44 45 46 47 48 49 50 51 52 53 54 55 56 57 58 59 60 61 62 63 64 65 66 67 68 69 70 71 72 73 74 75 76 77 78 79 80 81 82 83 84 85 86 87 88 89 90 91 92 93 94 95 96 97 98 99 100 101 102 103 104 105 106 107 108 109 110 111 112 113 114 115 116 117 118 119 120 121 122 123 124 125 126 128 129 130 131 132 133 134 135 136 137 138 139 140 141 142 143 144 145 146 147 148 149 150 151 152 153 154 155 156 157 158 159 160 161 162 163 164 165 166 167 168 169 170 171 172 173 174 175 176 177 178 179 180 181 182 183 184 185 186 187 188 189 0 1 2 3 4 5 6 7 8 9 10 11 12 13 14 15 16 17 18 19 20 21 22 23 24 25 26 27 28 29 30 31 32 33 34 35 36 37 38 39 40 41 42 44 45 46 47 48 49 50 51 52 53 54 55 56 57 58 59 60 61 62 63 64 65 66 67 68 69 70 71 72 73 74 75 76 77 78 79 80 81 82 83 84 85 86 87 88 89 90 91 92 93 94 95 96 97 98 99 100 101 102 103 104 105 106 107 108 109 110 111 112 113 
1 2 3 4 5 6 7 8 9 10 11 12 13 14 15 16 17 18 19 20 21 22 23 24 25 26 27 28 29 30 31 32 33 34 35 36 37 38 39 40 41 42 44 45 46 47 48 49 50 51 52 53 54 55 56 57 58 59 60 61 62 63 64 65 66 67 68 69 70 71 72 73 74 75 76 77 78 79 80 81 82 83 84 85 86 87 88 89 90 91 92 93 94 95 96 97 98 99 100 101 102 103 104 105 106 107 108 109 110 111 112 113 114 115 116 117 118 119 120 121 122 123 124 125 126 128 129 130 131 132 133 134 135 136 137 138 139 140 141 142 143 144 145 146 147 148 149 150 151 152 153 154 155 156 157 158 159 160 161 162 163 164 165 166 167 168 169 170 171 172 173 174 175 176 177 178 179 180 181 182 183 184 185 186 187 188 189 190 0 1 2 3 4 5 6 7 8 9 10 11 12 13 14 15 16 17 18 19 20 21 22 23 24 25 26 27 28 29 30 31 32 33 34 35 36 37 38 39 40 41 42 44 45 46 47 48 49 50 51 52 53 54 55 56 57 58 59 60 61 62 63 64 65 66 67 68 69 70 71 72 73 74 75 76 77 78 79 80 81 82 83 84 85 86 87 88 89 90 91 92 93 94 95 96 97 98 99 100 101 102 103 104 105 106 107 108 109 110 111 112 
1 2 3 4 5 6 7 8 9 10 11 12 13 14 15 16 17 18 19 20 21 22 23 24 25 26 27 28 29 30 31 32 33 34 35 36 37 38 39 40 41 42 44 45 46 47 48 49 50 51 52 53 54 55 56 57 58 59 60 61 62 63 64 65 66 67 68 69 70 71 72 73 74 75 76 77 78 79 80 81 82 83 84 85 86 87 88 89 90 91 92 93 94 95 96 97 98 99 100 101 102 103 104 105 106 107 108 109 110 111 112 113 114 115 116 117 118 119 120 121 122 123 124 125 126 128 129 130 131 132 133 134 135 136 137 138 139 140 141 142 143 144 145 146 147 148 149 150 151 152 153 154 155 156 157 158 159 160 161 162 163 164 165 166 167 168 169 170 171 172 173 174 175 176 177 178 179 180 181 182 183 184 185 186 187 188 189 190 191 0 1 2 3 4 5 6 7 8 9 10 11 12 13 14 15 16 17 18 19 20 21 22 23 24 25 26 27 28 29 30 31 32 33 34 35 36 37 38 39 40 41 42 44 45 46 47 48 49 50 51 52 53 54 55 56 57 58 59 60 61 62 63 64 65 66 67 68 69 70 71 72 73 74 75 76 77 78 79 80 81 82 83 84 85 86 87 88 89 90 91 92 93 94 95 96 97 98 99 100 101 102 103 104 105 106 107 108 109 110 111 
1 2 3 4 5 6 7 8 9 10 11 12 13 14 15 16 17 18 19 20 21 22 23 24 25 26 27 28 29 30 31 32 33 34 35 36 37 38 39 40 41 42 44 45 46 47 48 49 50 51 52 53 54 55 56 57 58 59 60 61 62 63 64 65 66 67 68 69 70 71 72 73 74 75 76 77 78 79 80 81 82 83 84 85 86 87 88 89 90 91 92 93 94 95 96 97 98 99 100 101 102 103 104 105 106 107 108 109 110 111 112 113 114 115 116 117 118 119 120 121 122 123 124 125 126 128 129 130 131 132 133 134 135 136 137 138 139 140 141 142 143 144 145 146 147 148 149 150 151 152 153 154 155 156 157 158 159 160 161 162 163 164 165 166 167 168 169 170 171 172 173 174 175 176 177 178 179 180 181 182 183 184 185 186 187 188 189 190 191 192 0 1 2 3 4 5 6 7 8 9 10 11 12 13 14 15 16 17 18 19 20 21 22 23 24 25 26 27 28 29 30 31 32 33 34 35 36 37 38 39 40 41 42 44 45 46 47 48 49 50 51 52 53 54 55 56 57 58 59 60 61 62 63 64 65 66 67 68 69 70 71 72 73 74 75 76 77 78 79 80 81 82 83 84 85 86 87 88 89 90 91 92 93 94 95 96 97 98 99 100 101 102 103 104 105 106 107 108 109 110 
1 2 3 4 5 6 7 8 9 10 11 12 13 14 15 16 17 18 19 20 21 22 23 24 25 26 27 28 29 30 31 32 33 34 35 36 37 38 39 40 41 42 44 45 46 47 48 49 50 51 52 53 54 55 56 57 58 59 60 61 62 63 64 65 66 67 68 69 70 71 72 73 74 75 76 77 78 79 80 81 82 83 84 85 86 87 88 89 90 91 92 93 94 95 96 97 98 99 100 101 102 103 104 105 106 107 108 109 110 111 112 113 114 115 116 117 118 119 120 121 122 123 124 125 126 128 129 130 131 132 133 134 135 136 137 138 139 140 141 142 143 144 145 146 147 148 149 150 151 152 153 154 155 156 157 158 159 160 161 162 163 164 165 166 167 168 169 170 171 172 173 174 175 176 177 178 179 180 181 182 183 184 185 186 187 188 189 190 191 192 193 0 1 2 3 4 5 6 7 8 9 10 11 12 13 14 15 16 17 18 19 20 21 22 23 24 25 26 27 28 29 30 31 32 33 34 35 36 37 38 39 40 41 42 44 45 46 47 48 49 50 51 52 53 54 55 56 57 58 59 60 61 62 63 64 65 66 67 68 69 70 71 72 73 74 75 76 77 78 79 80 81 82 83 84 85 86 87 88 89 90 91 92 93 94 95 96 97 98 99 100 101 102 103 104 105 106 107 108 109 
1 2 3 4 5 6 7 8 9 10 11 12 13 14 15 16 17 18 19 20 21 22 23 24 25 26 27 28 29 30 31 32 33 34 35 36 37 38 39 40 41 42 44 45 46 47 48 49 50 51 52 53 54 55 56 57 58 59 60 61 62 63 64 65 66 67 68 69 70 71 72 73 74 75 76 77 78 79 80 81 82 83 84 85 86 87 88 89 90 91 92 93 94 95 96 97 98 99 100 101 102 103 104 105 106 107 108 109 110 111 112 113 114 115 116 117 118 119 120 121 122 123 124 125 126 128 129 130 131 132 133 134 135 136 137 138 139 140 141 142 143 144 145 146 147 148 149 150 151 152 153 154 155 156 157 158 159 160 161 162 163 164 165 166 167 168 169 170 171 172 173 174 175 176 177 178 179 180 181 182 183 184 185 186 187 188 189 190 191 192 193 194 0 1 2 3 4 5 6 7 8 9 10 11 12 13 14 15 16 17 18 19 20 21 22 23 24 25 26 27 28 29 30 31 32 33 34 35 36 37 38 39 40 41 42 44 45 46 47 48 49 50 51 52 53 54 55 56 57 58 59 60 61 62 63 64 65 66 67 68 69 70 71 72 73 74 75 76 77 78 79 80 81 82 83 84 85 86 87 88 89 90 91 92 93 94 95 96 97 98 99 100 101 102 103 104 105 106 107 108 
1 2 3 4 5 6 7 8 9 10 11 12 13 14 15 16 17 18 19 20 21 22 23 24 25 26 27 28 29 30 31 32 33 34 35 36 37 38 39 40 41 42 44 45 46 47 48 49 50 51 52 53 54 55 56 57 58 59 60 61 62 63 64 65 66 67 68 69 70 71 72 73 74 75 76 77 78 79 80 81 82 83 84 85 86 87 88 89 90 91 92 93 94 95 96 97 98 99 100 101 102 103 104 105 106 107 108 109 110 111 112 113 114 115 116 117 118 119 120 121 122 123 124 125 126 128 129 130 131 132 133 134 135 136 137 138 139 140 141 142 143 144 145 146 147 148 149 150 151 152 153 154 155 156 157 158 159 160 161 162 163 164 165 166 167 168 169 170 171 172 173 174 175 176 177 178 179 180 181 182 183 184 185 186 187 188 189 190 191 192 193 194 195 0 1 2 3 4 5 6 7 8 9 10 11 12 13 14 15 16 17 18 19 20 21 22 23 24 25 26 27 28 29 30 31 32 33 34 35 36 37 38 39 40 41 42 44 45 46 47 48 49 50 51 52 53 54 55 56 57 58 59 60 61 62 63 64 65 66 67 68 69 70 71 72 73 74 75 76 77 78 79 80 81 82 83 84 85 86 87 88 89 90 91 92 93 94 95 96 97 98 99 100 101 102 103 104 105 106 107 
1 2 3 4 5 6 7 8 9 10 11 12 13 14 15 16 17 18 19 20 21 22 23 24 25 26 27 28 29 30 31 32 33 34 35 36 37 38 39 40 41 42 44 45 46 47 48 49 50 51 52 53 54 55 56 57 58 59 60 61 62 63 64 65 66 67 68 69 70 71 72 73 74 75 76 77 78 79 80 81 82 83 84 85 86 87 88 89 90 91 92 93 94 95 96 97 98 99 100 101 102 103 104 105 106 107 108 109 110 111 112 113 114 115 116 117 118 119 120 121 122 123 124 125 126 128 129 130 131 132 133 134 135 136 137 138 139 140 141 142 143 144 145 146 147 148 149 150 151 152 153 154 155 156 157 158 159 160 161 162 163 164 165 166 167 168 169 170 171 172 173 174 175 176 177 178 179 180 181 182 183 184 185 186 187 188 189 190 191 192 193 194 195 196 0 1 2 3 4 5 6 7 8 9 10 11 12 13 14 15 16 17 18 19 20 21 22 23 24 25 26 27 28 29 30 31 32 33 34 35 36 37 38 39 40 41 42 44 45 46 47 48 49 50 51 52 53 54 55 56 57 58 59 60 61 62 63 64 65 66 67 68 69 70 71 72 73 74 75 76 77 78 79 80 81 82 83 84 85 86 87 88 89 90 91 92 93 94 95 96 97 98 99 100 101 102 103 104 105 106 
1 2 3 4 5 6 7 8 9 10 11 12 13 14 15 16 17 18 19 20 21 22 23 24 25 26 27 28 29 30 31 32 33 34 35 36 37 38 39 40 41 42 44 45 46 47 48 49 50 51 52 53 54 55 56 57 58 59 60 61 62 63 64 65 66 67 68 69 70 71 72 73 74 75 76 77 78 79 80 81 82 83 84 85 86 87 88 89 90 91 92 93 94 95 96 97 98 99 100 101 102 103 104 105 106 107 108 109 110 111 112 113 114 115 116 117 118 119 120 121 122 123 124 125 126 128 129 130 131 132 133 134 135 136 137 138 139 140 141 142 143 144 145 146 147 148 149 150 151 152 153 154 155 156 157 158 159 160 161 162 163 164 165 166 167 168 169 170 171 172 173 174 175 176 177 178 179 180 181 182 183 184 185 186 187 188 189 190 191 192 193 194 195 196 197 0 1 2 3 4 5 6 7 8 9 10 11 12 13 14 15 16 17 18 19 20 21 22 23 24 25 26 27 28 29 30 31 32 33 34 35 36 37 38 39 40 41 42 44 45 46 47 48 49 50 51 52 53 54 55 56 57 58 59 60 61 62 63 64 65 66 67 68 69 70 71 72 73 74 75 76 77 78 79 80 81 82 83 84 85 86 87 88 89 90 91 92 93 94 95 96 97 98 99 100 101 102 103 104 105 
1 2 3 4 5 6 7 8 9 10 11 12 13 14 15 16 17 18 19 20 21 22 23 24 25 26 27 28 29 30 31 32 33 34 35 36 37 38 39 40 41 42 44 45 46 47 48 49 50 51 52 53 54 55 56 57 58 59 60 61 62 63 64 65 66 67 68 69 70 71 72 73 74 75 76 77 78 79 80 81 82 83 84 85 86 87 88 89 90 91 92 93 94 95 96 97 98 99 100 101 102 103 104 105 106 107 108 109 110 111 112 113 114 115 116 117 118 119 120 121 122 123 124 125 126 128 129 130 131 132 133 134 135 136 137 138 139 140 141 142 143 144 145 146 147 148 149 150 151 152 153 154 155 156 157 158 159 160 161 162 163 164 165 166 167 168 169 170 171 172 173 174 175 176 177 178 179 180 181 182 183 184 185 186 187 188 189 190 191 192 193 194 195 196 197 198 0 1 2 3 4 5 6 7 8 9 10 11 12 13 14 15 16 17 18 19 20 21 22 23 24 25 26 27 28 29 30 31 32 33 34 35 36 37 38 39 40 41 42 44 45 46 47 48 49 50 51 52 53 54 55 56 57 58 59 60 61 62 63 64 65 66 67 68 69 70 71 72 73 74 75 76 77 78 79 80 81 82 83 84 85 86 87 88 89 90 91 92 93 94 95 96 97 98 99 100 101 102 103 104 
1 2 3 4 5 6 7 8 9 10 11 12 13 14 15 16 17 18 19 20 21 22 23 24 25 26 27 28 29 30 31 32 33 34 35 36 37 38 39 40 41 42 44 45 46 47 48 49 50 51 52 53 54 55 56 57 58 59 60 61 62 63 64 65 66 67 68 69 70 71 72 73 74 75 76 77 78 79 80 81 82 83 84 85 86 87 88 89 90 91 92 93 94 95 96 97 98 99 100 101 102 103 104 105 106 107 108 109 110 111 112 113 114 115 116 117 118 119 120 121 122 123 124 125 126 128 129 130 131 132 133 134 135 136 137 138 139 140 141 142 143 144 145 146 147 148 149 150 151 152 153 154 155 156 157 158 159 160 161 162 163 164 165 166 167 168 169 170 171 172 173 174 175 176 177 178 179 180 181 182 183 184 185 186 187 188 189 190 191 192 193 194 195 196 197 198 199 0 1 2 3 4 5 6 7 8 9 10 11 12 13 14 15 16 17 18 19 20 21 22 23 24 25 26 27 28 29 30 31 32 33 34 35 36 37 38 39 40 41 42 44 45 46 47 48 49 50 51 52 53 54 55 56 57 58 59 60 61 62 63 64 65 66 67 68 69 70 71 72 73 74 75 76 77 78 79 80 81 82 83 84 85 86 87 88 89 90 91 92 93 94 95 96 97 98 99 100 101 102 103 
1 2 3 4 5 6 7 8 9 10 11 12 13 14 15 16 17 18 19 20 21 22 23 24 25 26 27 28 29 30 31 32 33 34 35 36 37 38 39 40 41 42 44 45 46 47 48 49 50 51 52 53 54 55 56 57 58 59 60 61 62 63 64 65 66 67 68 69 70 71 72 73 74 75 76 77 78 79 80 81 82 83 84 85 86 87 88 89 90 91 92 93 94 95 96 97 98 99 100 101 102 103 104 105 106 107 108 109 110 111 112 113 114 115 116 117 118 119 120 121 122 123 124 125 126 128 129 130 131 132 133 134 135 136 137 138 139 140 141 142 143 144 145 146 147 148 149 150 151 152 153 154 155 156 157 158 159 160 161 162 163 164 165 166 167 168 169 170 171 172 173 174 175 176 177 178 179 180 181 182 183 184 185 186 187 188 189 190 191 192 193 194 195 196 197 198 199 200 0 1 2 3 4 5 6 7 8 9 10 11 12 13 14 15 16 17 18 19 20 21 22 23 24 25 26 27 28 29 30 31 32 33 34 35 36 37 38 39 40 41 42 44 45 46 47 48 49 50 51 52 53 54 55 56 57 58 59 60 61 62 63 64 65 66 67 68 69 70 71 72 73 74 75 76 77 78 79 80 81 82 83 84 85 86 87 88 89 90 91 92 93 94 95 96 97 98 99 100 101 102 
1 2 3 4 5 6 7 8 9 10 11 12 13 14 15 16 17 18 19 20 21 22 23 24 25 26 27 28 29 30 31 32 33 34 35 36 37 38 39 40 41 42 44 45 46 47 48 49 50 51 52 53 54 55 56 57 58 59 60 61 62 63 64 65 66 67 68 69 70 71 72 73 74 75 76 77 78 79 80 81 82 83 84 85 86 87 88 89 90 91 92 93 94 95 96 97 98 99 100 101 102 103 104 105 106 107 108 109 110 111 112 113 114 115 116 117 118 119 120 121 122 123 124 125 126 128 129 130 131 132 133 134 135 136 137 138 139 140 141 142 143 144 145 146 147 148 149 150 151 152 153 154 155 156 157 158 159 160 161 162 163 164 165 166 167 168 169 170 171 172 173 174 175 176 177 178 179 180 181 182 183 184 185 186 187 188 189 190 191 192 193 194 195 196 197 198 199 200 201 0 1 2 3 4 5 6 7 8 9 10 11 12 13 14 15 16 17 18 19 20 21 22 23 24 25 26 27 28 29 30 31 32 33 34 35 36 37 38 39 40 41 42 44 45 46 47 48 49 50 51 52 53 54 55 56 57 58 59 60 61 62 63 64 65 66 67 68 69 70 71 72 73 74 75 76 77 78 79 80 81 82 83 84 85 86 87 88 89 90 91 92 93 94 95 96 97 98 99 100 101 
