P2
45 45
255
105 93 96 99 94 88 85 90 89 91 89 94 96 97 100 98 100 94 97 103 103 98 110 115 105 101 90 82 81 86 87 84 82 81 83 88 88 84 80 83 76 70 71 73 71 
108 97 90 97 93 83 83 93 97 110 100 95 99 105 112 116 110 110 127 142 124 121 129 126 122 130 126 109 99 94 87 84 82 85 84 84 91 90 81 78 77 78 74 74 76 
109 108 109 95 93 98 89 86 95 100 102 101 101 104 116 117 117 123 122 85 52 37 31 29 33 44 74 112 128 100 98 86 80 88 90 84 90 94 87 82 88 94 83 78 80 
113 109 115 107 102 110 96 106 110 109 111 101 99 111 121 125 135 72 14 5 14 9 11 11 14 11 8 18 74 137 127 105 101 102 102 102 122 110 97 104 97 94 96 97 87 
130 140 128 121 127 114 106 124 127 132 126 116 114 131 137 151 72 23 83 124 131 91 62 38 23 20 21 16 6 61 148 125 115 122 119 123 125 109 109 104 103 99 104 116 106 
145 145 132 132 149 146 141 137 135 140 138 136 134 133 155 88 24 144 236 251 254 230 181 96 42 29 23 17 20 6 79 151 107 116 134 140 137 119 118 117 111 115 115 123 115 
153 164 143 168 185 182 176 175 177 164 157 149 138 157 106 15 57 167 217 208 218 230 166 99 71 49 30 20 19 16 23 89 83 91 97 124 125 124 126 129 136 140 140 139 117 
104 95 101 112 148 169 131 135 183 187 195 185 207 193 39 13 85 161 187 205 208 179 147 137 108 67 37 22 18 17 15 35 55 62 64 77 84 107 145 145 142 140 143 125 95 
71 68 86 81 89 82 71 61 64 88 174 195 187 129 20 19 46 63 48 149 105 24 50 36 30 38 37 24 16 19 17 29 38 46 53 58 56 62 129 142 134 136 117 94 76 
73 80 84 84 75 69 56 49 55 60 119 99 85 92 22 19 89 102 75 129 59 79 114 82 105 93 37 21 18 18 17 24 34 32 37 41 36 38 100 135 108 103 95 88 72 
56 70 76 73 61 63 52 50 41 46 43 48 50 35 22 15 120 213 195 192 84 139 214 214 134 65 33 21 19 17 15 26 53 56 67 59 57 57 75 109 102 93 95 90 88 
32 55 67 58 55 61 59 53 48 48 43 47 42 22 21 13 57 154 150 145 57 107 173 125 68 38 32 24 17 17 18 19 34 44 51 46 48 57 68 80 80 64 54 67 71 
33 39 69 61 56 54 56 58 52 53 52 49 43 25 20 18 30 83 140 94 32 63 88 78 56 39 32 23 17 17 17 17 29 39 36 35 32 35 47 51 54 60 54 49 41 
34 41 63 62 56 56 53 47 48 48 46 47 47 29 21 20 16 51 123 126 72 66 84 74 50 39 27 20 20 19 16 17 29 44 48 50 45 47 53 57 52 44 41 50 45 
33 32 35 55 56 51 48 45 47 51 52 57 62 37 19 20 20 12 44 144 133 77 61 43 35 31 27 21 19 18 19 16 27 53 54 57 51 50 51 50 50 48 50 64 53 
26 28 26 34 57 57 51 49 53 58 61 67 76 56 18 20 20 19 11 15 35 31 28 32 29 28 34 24 17 18 21 18 23 41 38 39 39 37 35 37 36 31 39 52 51 
39 39 33 36 54 62 65 66 68 76 79 83 79 75 32 18 20 19 18 13 39 55 40 34 37 46 43 22 19 19 18 18 21 39 48 55 52 54 61 51 44 53 53 44 54 
66 67 66 69 71 60 51 50 46 59 61 63 62 53 33 20 21 18 17 18 37 71 69 54 57 71 69 35 19 21 21 20 17 23 28 30 37 46 38 61 78 63 49 51 41 
60 69 64 58 57 53 40 41 44 34 36 37 36 29 24 23 19 23 47 76 108 107 97 99 113 112 107 57 19 22 25 20 18 17 24 31 43 69 62 60 67 42 41 47 38 
49 51 45 48 47 45 51 56 46 39 43 38 41 28 22 23 23 84 135 154 166 165 147 153 165 146 108 58 24 23 23 19 19 17 18 24 33 90 100 69 54 49 51 51 47 
51 51 46 51 65 66 61 53 44 40 46 45 35 24 22 21 45 143 174 179 175 174 166 166 161 144 108 51 24 22 17 16 18 21 19 17 20 27 51 76 90 81 86 88 69 
46 45 43 40 43 59 71 65 51 48 43 28 23 20 33 68 117 169 175 177 170 174 172 166 159 139 102 43 22 21 29 40 40 36 27 18 14 16 18 27 46 58 62 85 74 
41 41 41 38 33 28 38 45 64 53 20 20 20 19 36 129 185 184 157 153 172 184 180 173 172 157 92 36 25 31 35 32 24 18 15 12 13 15 13 13 17 16 17 41 70 
41 37 39 41 40 40 40 45 35 19 17 20 16 27 29 41 85 109 86 148 182 187 196 185 162 102 37 22 19 15 10 7 10 11 12 12 11 12 11 12 19 25 25 22 27 
34 36 43 43 35 43 42 25 13 18 17 15 24 35 37 33 28 20 27 42 53 63 77 74 43 15 16 13 11 11 12 14 14 14 12 11 11 12 12 12 17 21 23 23 27 
27 30 32 36 37 39 44 24 15 16 15 17 27 32 31 29 30 36 39 31 27 21 13 11 16 17 14 11 13 13 17 18 14 19 18 15 14 15 15 10 13 17 25 25 23 
24 28 29 25 26 26 22 17 16 15 16 18 21 24 24 22 18 25 27 26 24 20 20 20 16 12 11 11 13 14 14 16 20 22 21 20 19 13 9 10 9 11 24 31 21 
36 57 55 50 53 50 22 14 16 17 17 17 17 20 21 19 19 18 17 19 17 17 18 16 12 12 12 10 12 10 11 17 21 21 17 13 11 9 6 9 12 10 14 30 30 
45 48 47 46 47 36 17 15 18 15 16 18 16 18 18 17 19 17 16 16 18 17 16 14 14 13 12 12 11 10 15 16 16 15 11 6 6 8 8 7 11 8 10 26 32 
26 25 26 25 18 15 17 17 17 16 16 17 18 15 16 16 15 14 13 12 15 17 14 12 13 11 9 10 9 11 16 10 6 7 7 6 4 3 5 5 7 6 9 17 19 
27 30 23 17 18 17 17 18 18 16 16 17 17 16 16 16 14 12 12 15 14 12 11 12 13 11 10 7 6 12 11 3 3 9 6 6 10 5 6 5 6 5 8 15 21 
30 24 15 16 18 17 16 15 17 16 17 18 16 17 17 15 15 15 15 13 13 12 13 12 11 9 11 7 9 10 6 3 2 7 6 4 4 5 4 2 3 4 8 12 21 
30 19 15 18 18 21 21 19 20 19 15 16 17 14 16 17 15 17 15 13 13 13 13 10 11 11 8 8 11 6 6 7 7 8 8 6 4 3 4 2 1 9 11 11 19 
22 18 16 18 24 27 28 25 23 26 23 17 14 19 20 17 13 12 13 11 10 11 12 12 13 12 10 8 8 7 8 9 11 12 9 9 9 8 5 3 5 9 9 9 14 
17 19 16 18 23 31 32 29 29 31 28 31 66 88 82 57 37 24 17 9 8 11 14 13 13 11 11 11 11 10 11 11 11 13 11 11 9 9 8 8 8 8 10 11 13 
16 17 16 16 18 24 22 24 23 22 18 49 83 86 87 87 80 67 64 44 19 11 7 9 12 10 10 10 12 11 10 12 12 14 14 13 10 11 9 9 10 10 12 10 12 
15 17 18 18 17 17 19 18 18 19 18 31 43 42 54 67 70 70 67 66 63 65 45 14 9 10 13 13 13 16 19 16 14 14 12 11 10 12 11 9 5 8 8 9 11 
14 15 16 16 14 16 17 18 18 17 15 17 21 26 38 51 57 59 55 61 48 44 68 50 25 25 33 31 26 24 27 26 21 20 15 7 10 13 11 9 8 10 10 9 9 
16 14 15 16 15 18 17 17 18 18 31 38 53 64 36 31 39 45 53 39 49 49 25 28 34 32 24 22 25 25 21 25 24 18 17 14 9 14 14 12 10 11 11 10 10 
15 15 18 17 16 19 17 16 17 22 33 44 53 70 61 31 26 31 37 54 45 39 43 27 19 24 21 18 21 23 26 23 22 17 17 16 12 15 16 15 13 12 12 12 12 
15 14 16 16 16 19 18 18 17 21 31 34 36 61 51 32 23 21 22 25 38 23 19 30 28 16 16 18 17 15 17 17 17 16 17 15 13 15 14 13 13 13 13 14 13 
14 14 15 17 17 18 16 17 18 18 20 26 43 35 19 17 16 16 18 17 14 18 18 16 18 15 16 16 17 17 17 17 17 18 17 14 13 16 14 13 11 11 14 14 13 
14 14 15 16 17 18 17 17 17 16 15 21 27 17 17 17 16 17 17 17 17 17 18 16 15 13 14 14 13 14 16 17 18 18 16 17 14 12 12 11 11 11 12 13 12 
14 16 17 17 16 17 15 15 15 13 14 18 17 16 16 16 17 16 16 16 16 15 16 15 15 14 13 13 13 13 14 14 16 18 16 16 14 13 10 8 10 10 6 9 10 
16 15 13 12 11 9 6 6 8 9 10 12 9 10 10 11 13 12 11 9 8 10 10 10 12 12 10 11 11 10 11 11 10 12 15 13 11 10 6 3 3 3 1 2 4 
