P2
45 45
255
200 206 205 205 205 205 205 205 205 205 205 205 205 205 205 205 205 205 205 205 205 205 205 205 205 205 205 205 205 205 205 205 205 205 205 205 205 205 205 205 205 205 205 205 205 
198 207 205 205 205 205 205 205 205 205 205 205 205 205 205 205 205 205 205 205 205 205 205 205 205 205 205 205 205 205 205 205 205 205 205 205 205 205 205 205 205 205 205 205 205 
199 206 205 205 205 205 205 205 205 205 205 205 205 205 205 205 205 205 205 205 205 205 205 205 205 205 205 205 205 205 205 205 205 205 205 205 205 205 205 205 205 205 205 205 205 
199 206 205 205 205 205 205 205 205 205 205 205 205 205 205 205 205 205 205 205 205 205 205 205 205 205 205 205 205 205 205 205 205 205 205 205 205 205 205 205 205 205 205 205 205 
199 206 205 205 205 205 205 205 205 205 205 205 205 205 205 205 205 205 205 205 205 205 205 205 205 205 205 205 205 205 205 205 205 205 205 205 205 205 205 205 205 205 205 205 205 
199 206 205 205 205 205 205 205 205 205 205 205 205 205 205 205 205 205 205 205 205 205 205 205 205 205 205 205 205 205 205 205 204 203 204 203 205 205 205 205 205 205 205 205 205 
199 206 205 205 205 205 205 205 205 205 205 205 205 205 205 205 205 205 205 205 205 205 205 205 205 205 205 205 205 205 204 206 212 213 211 214 206 204 205 205 205 205 205 205 205 
199 206 205 205 205 205 205 205 205 205 205 205 205 205 205 205 205 205 205 205 205 205 205 205 205 205 205 205 205 204 209 203 168 162 173 159 201 210 203 205 205 205 205 205 205 
199 206 205 205 205 205 204 204 204 205 205 205 205 205 205 205 205 205 205 205 205 205 205 205 205 205 205 205 204 209 194 138 135 96 145 134 102 195 211 206 205 205 206 205 205 
199 206 205 205 204 206 211 210 208 205 204 204 205 205 205 205 205 205 205 205 205 205 205 205 205 205 205 204 206 208 122 177 157 115 145 190 164 148 181 197 203 204 203 206 205 
198 206 205 205 208 201 172 178 189 204 210 207 206 204 204 204 205 205 205 204 205 205 205 204 204 205 206 207 209 160 153 197 173 170 179 179 194 189 174 185 195 191 184 202 203 
201 208 207 204 198 171 134 128 141 158 179 193 204 211 208 208 208 207 207 207 207 206 206 208 208 206 201 181 161 161 192 189 193 195 192 194 195 197 197 189 188 188 194 196 196 
190 194 192 195 189 178 155 142 145 142 131 138 132 162 188 189 191 192 191 191 197 198 198 190 182 187 184 164 156 176 188 189 177 181 175 183 173 181 181 174 183 184 193 198 195 
177 191 192 199 201 199 196 188 184 190 190 179 166 170 182 187 185 190 190 187 187 188 191 173 181 189 194 193 188 184 182 182 182 178 182 184 179 171 166 188 190 188 193 194 190 
192 205 201 202 201 202 203 205 206 204 204 205 209 207 204 202 200 200 202 204 204 198 188 198 189 189 188 178 185 170 124 66 145 204 198 186 194 195 195 189 181 190 197 193 192 
190 200 198 198 198 199 199 199 199 199 199 199 193 193 194 194 198 199 182 158 150 139 157 112 162 112 173 153 147 167 109 48 82 130 162 196 202 197 194 188 177 172 193 192 196 
188 200 197 198 199 199 197 197 191 194 154 156 197 193 195 192 182 155 138 115 58 99 104 47 95 54 128 184 121 173 107 100 86 63 88 114 177 196 202 204 206 200 194 193 195 
190 200 195 198 197 193 185 186 173 162 129 105 160 184 173 125 154 181 136 90 82 82 73 99 77 39 71 192 144 160 157 99 112 100 113 86 109 112 113 139 170 186 199 199 199 
187 198 194 193 186 182 183 182 170 156 107 87 149 194 163 162 171 165 144 144 118 68 99 168 126 77 48 187 151 63 116 125 146 113 94 65 57 84 78 76 86 130 157 175 188 
185 198 195 191 190 193 201 186 185 179 148 150 152 151 183 148 100 140 119 154 131 79 100 194 162 92 47 139 63 18 29 55 73 63 73 74 26 45 109 160 112 105 162 183 177 
187 200 197 196 196 193 171 173 179 182 177 163 137 96 95 115 112 146 84 147 159 87 71 187 139 96 71 124 77 29 45 43 35 37 73 99 67 35 44 136 179 142 120 190 198 
187 200 194 191 192 185 150 168 188 176 167 172 159 130 109 139 136 93 109 93 112 105 78 118 106 83 87 106 132 51 38 61 50 28 64 77 86 40 32 45 171 165 112 126 189 
184 195 181 187 189 191 192 171 185 179 188 175 160 127 123 118 119 104 149 94 99 125 92 92 132 82 96 93 133 93 20 51 60 29 79 112 97 80 55 35 69 164 167 132 151 
182 187 181 193 189 192 192 157 176 187 181 189 149 105 144 114 88 114 97 109 148 127 129 108 106 123 111 122 109 115 35 43 72 34 61 138 124 80 87 43 38 57 167 116 116 
178 181 178 159 185 188 178 147 174 196 185 191 177 96 166 126 71 74 70 95 128 137 131 114 106 180 180 176 112 119 74 34 60 37 52 107 133 100 105 54 54 26 102 155 122 
163 186 164 164 195 180 162 158 185 184 178 178 159 122 133 131 65 58 87 54 126 110 133 123 105 167 166 188 171 104 80 31 60 42 41 100 135 145 103 88 87 29 55 114 123 
150 188 180 196 185 170 138 151 171 176 179 161 155 87 89 132 70 106 72 64 89 122 171 129 88 138 130 182 178 128 75 33 59 52 30 104 125 141 155 151 109 30 41 76 83 
170 191 185 149 147 163 170 154 164 154 163 149 166 88 94 114 66 143 77 50 48 132 165 127 74 149 131 179 171 155 82 35 53 64 35 92 143 152 145 148 123 75 40 72 78 
169 174 178 164 162 187 190 145 127 142 182 181 188 170 91 117 126 95 66 60 88 110 136 99 76 155 137 182 173 163 105 36 46 75 46 58 131 158 140 143 108 93 57 81 73 
176 174 152 143 167 178 174 156 184 187 177 179 185 167 114 148 121 91 116 75 108 92 93 114 126 162 154 180 177 164 135 41 35 69 40 51 92 167 153 161 138 84 81 53 118 
149 135 149 182 187 190 191 174 193 172 181 176 164 123 86 113 61 157 182 121 101 78 59 55 132 177 155 178 167 164 139 51 50 98 80 98 79 115 149 155 172 142 102 116 116 
164 170 170 181 191 197 187 171 182 175 156 154 175 167 108 109 86 128 195 129 140 94 68 30 79 174 166 174 168 163 125 69 150 181 187 183 174 160 143 141 145 186 150 144 88 
181 164 164 187 191 190 175 147 176 166 172 196 197 195 144 65 136 118 193 174 150 158 77 41 60 71 147 167 157 152 75 72 186 186 186 191 190 193 192 172 133 147 184 162 157 
170 141 177 192 186 182 157 157 178 188 200 190 183 150 99 70 145 94 159 200 162 158 119 45 63 52 78 130 101 107 45 26 87 161 193 188 190 187 188 151 125 168 172 189 191 
155 173 167 185 185 169 141 154 189 196 186 177 178 179 105 47 105 130 151 196 186 152 159 87 47 52 44 71 103 54 75 47 45 81 159 189 187 188 185 180 131 174 170 167 194 
162 182 172 183 180 185 132 148 193 191 192 187 166 156 127 70 88 135 134 190 191 154 140 129 70 45 49 27 67 54 81 74 32 106 98 167 197 187 187 183 164 170 187 176 188 
167 178 174 190 184 172 139 185 197 192 177 144 118 148 202 147 59 68 127 182 188 177 162 149 90 76 41 37 56 65 41 92 48 41 166 136 128 187 187 187 191 166 175 186 183 
180 184 185 186 183 162 141 157 162 172 169 150 139 189 191 183 100 58 118 173 193 169 129 152 77 95 61 27 43 66 49 46 88 23 84 147 88 121 180 189 193 184 153 182 187 
178 170 189 185 160 141 107 153 179 143 156 145 180 193 192 197 133 71 64 150 188 175 148 149 93 92 85 42 37 58 64 39 64 64 15 96 179 147 91 176 189 196 171 147 176 
160 179 181 159 153 186 113 156 136 139 178 197 191 188 192 192 183 115 51 111 172 189 174 138 90 81 108 60 33 44 67 66 48 61 49 31 86 163 97 132 167 183 190 181 184 
149 176 170 188 189 161 96 59 125 199 187 174 185 186 193 191 190 116 48 93 141 193 176 165 135 92 95 70 52 31 33 57 69 52 50 60 33 51 139 106 118 137 182 192 195 
171 188 184 180 182 140 90 78 140 175 164 183 191 193 195 190 193 168 50 99 124 183 184 173 166 143 107 93 65 47 26 33 122 141 112 72 45 27 60 50 92 94 86 90 100 
171 187 175 178 185 176 118 67 129 172 176 194 191 188 194 192 187 188 81 86 123 160 190 183 172 157 118 126 88 68 69 23 61 136 155 101 64 51 92 44 40 92 134 100 73 
166 183 186 184 189 159 125 82 125 189 187 190 176 191 195 194 190 170 94 92 147 108 179 186 178 165 121 86 152 84 97 50 22 50 99 138 159 131 125 82 22 54 96 119 118 
174 186 192 189 181 144 123 64 140 189 187 179 177 195 192 194 192 120 71 114 172 89 160 186 173 164 144 71 104 117 69 54 27 34 39 74 129 168 143 103 57 101 101 77 65 
