P2
45 45
255
248 248 248 248 248 248 248 248 248 248 248 248 248 248 248 248 248 248 253 253 252 246 232 231 242 251 250 252 249 247 248 248 248 248 248 248 248 248 248 248 248 248 248 248 248 
248 248 248 248 248 248 248 248 248 248 248 248 248 248 248 247 249 251 223 207 189 212 222 216 208 241 211 214 244 250 247 248 248 248 248 248 248 248 248 248 248 248 248 248 248 
248 248 248 248 248 248 248 248 248 248 248 248 248 248 247 252 247 193 166 179 174 193 221 203 187 187 188 191 197 243 250 247 248 248 248 248 248 248 248 248 248 248 248 248 248 
248 248 248 248 248 248 248 248 248 248 248 248 247 249 253 233 188 171 181 182 185 182 193 190 198 182 193 201 188 199 248 250 247 248 248 248 248 248 248 248 248 248 248 248 248 
248 248 248 248 248 248 248 248 248 248 247 249 252 244 211 183 186 190 173 165 166 171 150 168 206 202 202 202 192 181 198 246 250 247 248 248 248 248 248 248 248 248 248 248 248 
248 248 248 248 248 248 248 248 248 247 251 246 220 196 186 189 182 172 157 148 150 138 130 164 195 208 201 203 202 193 178 193 249 248 248 248 248 248 248 248 248 248 248 248 248 
248 248 248 248 248 248 248 248 247 251 237 191 189 196 195 184 169 155 145 129 115 94 165 194 192 203 207 198 203 200 197 177 200 254 247 248 248 248 248 248 248 248 248 248 248 
248 248 248 248 248 248 248 248 249 245 186 180 194 189 181 173 162 140 109 180 139 117 198 209 198 199 203 200 200 203 198 196 170 222 254 247 248 248 248 248 248 248 248 248 248 
248 248 248 248 248 248 248 247 253 207 181 188 183 180 175 159 128 123 203 255 164 148 181 208 202 201 204 202 201 203 204 197 190 179 247 248 248 248 248 248 248 248 248 248 248 
248 248 248 248 248 248 247 253 220 184 189 184 180 176 155 121 147 221 243 234 168 164 192 205 205 203 209 204 202 201 206 200 197 182 213 255 246 248 248 248 248 248 248 248 248 
248 248 248 248 248 247 252 229 186 192 190 182 171 151 122 127 234 184 183 191 183 188 205 203 208 204 202 206 205 200 201 207 203 197 189 232 252 247 248 248 248 248 248 248 248 
248 248 248 248 247 251 238 191 193 197 195 186 181 185 158 205 208 166 189 190 185 189 205 205 211 209 204 200 205 202 197 202 206 208 199 187 242 250 248 248 248 248 248 248 248 
248 248 248 248 248 248 201 193 197 198 199 201 193 187 169 184 181 161 159 175 185 185 201 209 211 211 210 206 204 201 198 198 200 203 207 185 200 253 247 248 248 248 248 248 248 
248 248 248 247 252 217 192 200 199 196 199 202 202 203 201 198 201 195 180 159 178 187 189 200 207 211 211 211 208 203 198 199 200 199 204 203 181 233 251 247 248 248 248 248 248 
248 248 247 251 237 198 198 203 199 193 197 199 200 206 208 206 205 209 216 194 168 182 194 199 203 206 208 201 201 204 201 197 200 199 202 208 195 199 251 247 248 248 248 248 248 
248 248 248 249 210 201 201 204 197 193 194 197 197 199 202 202 199 200 201 202 179 166 191 197 202 201 199 201 198 198 205 200 198 198 201 207 205 186 227 252 247 248 248 248 248 
248 247 253 225 195 204 203 204 194 186 188 191 194 195 195 192 190 195 197 189 169 143 154 189 198 200 197 192 195 198 198 198 197 198 198 201 206 193 191 249 248 248 248 248 248 
247 250 242 193 195 201 198 200 192 183 181 182 185 185 182 177 178 183 182 168 148 134 122 145 182 195 197 187 182 195 199 197 197 197 198 198 201 201 174 225 253 247 248 248 248 
249 248 207 189 191 196 196 197 194 185 180 178 180 176 169 166 167 163 154 143 133 123 119 105 128 169 187 190 178 184 203 200 196 196 197 197 198 204 180 197 254 247 248 248 248 
249 213 198 192 187 191 197 197 190 184 183 175 173 168 164 157 147 136 134 133 132 114 92 80 73 173 171 170 182 173 194 202 195 196 196 197 197 201 186 176 246 249 248 248 248 
217 202 200 188 185 191 197 197 190 185 180 170 166 158 152 145 138 142 145 128 106 87 82 67 111 252 236 180 161 169 178 197 196 194 196 197 193 194 187 164 230 252 247 248 248 
208 205 197 186 184 190 197 193 186 182 179 170 158 150 146 150 158 162 145 120 112 108 93 75 213 254 249 255 209 159 167 190 197 195 197 194 190 193 192 164 209 255 247 248 248 
207 201 196 188 189 190 185 183 179 175 172 166 153 148 154 160 157 151 141 135 130 120 71 132 255 246 247 247 253 215 154 171 194 200 196 190 190 192 193 175 189 253 247 248 248 
206 200 193 188 188 184 171 166 166 162 159 153 146 149 156 150 144 140 142 144 146 113 82 222 252 246 248 248 247 255 220 157 176 196 192 185 187 191 193 186 176 246 249 248 248 
203 200 194 191 182 168 160 153 149 147 147 146 152 155 138 126 123 124 128 135 138 85 162 255 245 248 248 248 248 246 255 213 157 182 185 186 189 191 193 196 173 234 251 247 248 
201 200 192 186 173 160 152 142 139 140 143 141 138 127 118 122 131 135 127 124 110 78 223 253 247 248 248 248 248 248 248 248 172 169 185 193 195 195 196 198 176 219 254 247 248 
200 196 185 177 164 153 148 146 147 138 131 125 124 125 130 129 123 113 107 106 86 122 252 247 248 248 248 248 248 248 246 255 197 164 188 201 201 198 197 200 181 199 255 247 248 
198 192 178 163 145 134 141 138 134 132 134 138 135 126 112 106 107 101 106 110 100 204 254 246 248 248 248 248 248 248 247 254 216 164 190 203 203 201 199 201 189 185 251 247 248 
193 178 160 148 131 133 140 132 129 126 117 110 107 105 97 92 104 137 176 181 202 250 248 248 248 248 248 248 248 248 247 252 232 162 187 202 205 203 202 203 194 173 238 250 248 
175 160 145 133 125 129 125 113 106 105 105 99 89 81 92 151 224 252 255 255 255 248 248 248 248 248 248 248 248 248 248 249 243 164 180 202 204 205 203 202 196 169 220 253 247 
154 147 136 126 119 110 101 97 88 89 89 97 125 175 228 255 254 247 246 246 246 248 248 248 248 248 248 248 248 248 248 247 252 175 172 197 204 207 205 200 192 168 196 254 246 
151 144 132 118 107 103 100 100 154 201 219 234 254 255 253 246 247 248 248 248 248 248 248 248 248 248 248 248 248 248 248 246 255 188 163 195 205 205 203 202 191 169 176 251 247 
150 145 130 112 111 106 89 203 255 255 254 251 247 246 247 248 248 248 248 248 248 248 248 248 248 248 248 248 248 248 248 246 255 205 155 187 201 205 202 199 189 175 160 239 250 
149 142 126 111 117 94 184 255 244 246 247 247 248 248 248 248 248 248 248 248 248 248 248 248 248 248 248 248 248 248 248 247 254 224 149 178 195 203 199 196 187 175 153 220 254 
143 130 110 109 97 168 255 246 248 248 248 248 248 248 248 248 248 248 248 248 248 248 248 248 248 248 248 248 248 248 248 248 250 241 153 170 193 201 198 195 187 175 155 198 255 
134 112 102 95 134 252 247 247 248 248 248 248 248 248 248 248 248 248 248 248 248 248 248 248 248 248 248 248 248 248 248 248 247 252 168 155 187 199 198 193 186 174 164 178 250 
122 103 95 97 223 253 246 248 248 248 248 248 248 248 248 248 248 248 248 248 248 248 248 248 248 248 248 248 248 248 248 248 246 255 190 147 181 195 195 192 186 176 171 164 237 
113 100 86 186 255 246 248 248 248 248 248 248 248 248 248 248 248 248 248 248 248 248 248 248 248 248 248 248 248 248 248 248 246 255 213 145 178 192 196 191 186 177 177 159 213 
105 84 139 254 246 248 248 248 248 248 248 248 248 248 248 248 248 248 248 248 248 248 248 248 248 248 248 248 248 248 248 248 247 252 234 148 169 188 195 191 187 179 180 160 189 
93 101 234 251 247 248 248 248 248 248 248 248 248 248 248 248 248 248 248 248 248 248 248 248 248 248 248 248 248 248 248 248 248 248 248 158 158 185 193 193 186 182 180 164 163 
79 184 255 245 248 248 248 248 248 248 248 248 248 248 248 248 248 248 248 248 248 248 248 248 248 248 248 248 248 248 248 248 248 247 254 173 149 179 190 192 186 184 181 170 152 
127 250 248 248 248 248 248 248 248 248 248 248 248 248 248 248 248 248 248 248 248 248 248 248 248 248 248 248 248 248 248 248 248 246 255 192 143 175 188 191 186 184 183 171 158 
227 252 247 248 248 248 248 248 248 248 248 248 248 248 248 248 248 248 248 248 248 248 248 248 248 248 248 248 248 248 248 248 248 246 255 211 138 170 186 191 185 183 184 172 161 
251 247 248 248 248 248 248 248 248 248 248 248 248 248 248 248 248 248 248 248 248 248 248 248 248 248 248 248 248 248 248 248 248 247 252 230 138 162 180 188 185 184 185 174 162 
247 248 248 248 248 248 248 248 248 248 248 248 248 248 248 248 248 248 248 248 248 248 248 248 248 248 248 248 248 248 248 248 248 248 249 243 144 154 175 183 184 183 184 178 164 
