P2
45 45
255
255 255 255 255 255 255 255 255 255 255 255 255 255 255 255 255 255 255 255 255 255 255 255 255 255 255 255 255 255 255 255 255 255 255 255 255 255 255 255 255 255 255 255 255 255 
255 255 255 255 255 255 255 255 255 255 255 255 255 255 255 255 255 255 255 255 255 255 255 255 255 255 255 255 255 255 255 255 255 255 255 255 255 255 255 255 255 255 255 255 255 
255 255 255 255 255 255 255 255 255 255 255 255 255 255 255 255 255 255 255 255 255 255 255 255 255 255 255 255 255 255 255 255 255 255 255 255 255 255 255 255 255 255 255 255 255 
255 255 255 255 255 255 255 255 255 255 255 255 255 255 255 255 255 255 255 255 255 255 255 255 255 255 255 255 255 255 255 255 255 255 255 255 255 255 255 255 255 255 255 255 255 
255 255 255 255 255 255 255 255 255 255 255 255 255 255 255 255 255 255 255 255 255 255 255 255 255 255 255 255 255 255 255 255 255 255 255 255 255 255 255 255 255 255 255 255 255 
255 255 255 255 255 255 255 255 255 255 255 255 255 255 255 255 255 255 255 255 255 255 255 255 255 255 255 255 255 255 255 255 255 255 255 255 255 255 255 255 255 255 255 255 255 
255 255 255 255 255 255 255 255 255 255 255 255 255 255 255 255 255 255 255 255 255 255 255 255 255 255 255 255 255 255 255 255 255 255 255 255 255 255 255 255 255 255 255 255 255 
255 255 255 255 255 255 255 255 255 255 255 255 255 255 255 255 255 255 255 255 255 255 255 255 255 255 255 255 255 255 255 255 255 255 255 255 255 255 255 255 255 255 255 255 255 
255 255 255 255 255 255 255 255 255 255 255 255 255 255 255 255 255 255 255 255 254 253 254 254 255 255 254 253 255 255 255 255 255 255 255 255 255 255 255 255 255 255 255 255 255 
255 255 255 255 255 255 255 255 255 255 255 255 255 255 255 255 255 255 254 255 255 255 255 255 255 255 255 255 255 254 255 255 255 255 255 255 255 255 255 255 255 255 255 255 255 
255 255 255 255 255 255 255 255 255 255 255 255 255 254 253 253 253 255 255 251 226 203 181 172 164 163 172 212 255 255 254 255 255 255 255 255 255 255 255 255 255 255 255 255 255 
254 254 254 254 254 253 254 255 255 254 254 253 255 255 255 255 255 248 208 170 149 147 160 155 144 147 155 154 181 232 255 255 254 254 255 255 255 255 255 255 255 255 255 255 255 
255 255 255 255 255 255 255 255 254 255 255 255 255 231 204 185 184 162 149 148 145 145 145 140 156 165 171 166 146 130 202 253 255 255 254 254 254 254 254 253 254 255 255 255 255 
225 225 217 199 198 206 234 255 255 241 219 189 153 126 117 115 118 128 138 127 135 129 133 132 129 136 138 136 133 123 133 174 215 245 255 255 255 255 255 255 255 255 254 254 253 
173 168 166 181 148 120 146 161 147 133 134 120 120 123 119 122 130 121 118 127 139 127 124 127 128 127 127 116 121 116 118 127 149 143 178 226 242 244 224 215 242 255 255 255 255 
153 149 151 154 122 109 110 103 105 130 134 130 118 124 120 115 121 121 105 132 122 121 121 130 135 126 124 121 126 103 122 137 141 127 114 117 130 145 142 140 140 154 157 159 188 
135 124 101 99 107 111 118 122 120 108 111 103 105 124 101 106 132 121 122 126 108 119 122 146 148 133 126 122 139 133 132 129 139 132 127 120 125 129 136 130 117 110 107 114 127 
110 103 105 117 121 132 121 118 99 91 108 115 110 126 110 121 126 130 114 90 100 116 115 154 125 119 125 114 134 130 134 136 147 139 137 145 141 138 134 134 131 123 122 109 105 
125 129 119 112 114 106 88 91 96 112 120 125 143 130 126 138 124 102 99 97 101 107 110 147 146 121 130 109 116 118 131 140 144 143 147 153 129 117 114 119 118 124 126 103 104 
108 96 97 101 103 102 117 124 131 138 142 149 148 131 130 137 133 123 120 129 141 156 138 157 160 130 99 73 105 94 103 136 139 144 149 148 145 129 122 116 120 112 107 119 126 
115 118 131 138 144 152 153 145 141 133 140 144 139 142 137 127 126 120 117 129 135 148 157 139 97 98 89 77 74 91 87 124 130 140 144 141 151 156 147 146 134 110 111 122 117 
120 125 122 114 115 115 117 114 125 138 140 143 145 144 140 136 144 130 106 124 130 116 113 147 153 125 115 105 75 72 108 127 136 138 137 143 116 104 123 119 134 145 139 131 129 
99 97 96 99 107 119 133 138 140 139 144 151 156 159 161 162 163 155 147 160 157 161 152 163 179 170 137 128 117 102 114 128 131 127 140 148 124 75 95 86 75 98 128 120 117 
103 113 131 142 148 147 144 141 133 123 95 105 116 139 150 152 155 155 153 154 150 147 150 158 165 165 150 157 153 159 137 103 114 124 138 133 139 101 84 117 78 68 102 123 94 
141 146 150 149 145 146 159 157 137 139 134 142 152 158 166 169 169 166 160 144 145 133 134 134 140 156 167 158 153 153 146 126 103 98 112 129 128 133 83 92 80 76 93 106 113 
145 141 146 151 154 153 157 154 152 159 168 174 174 170 169 168 170 168 146 145 144 127 134 140 139 142 142 155 157 165 160 136 131 114 100 137 142 138 105 72 70 74 94 85 108 
142 149 156 159 159 159 159 162 164 168 170 169 172 167 170 166 165 167 148 140 139 125 124 134 149 149 124 157 168 168 168 154 151 143 140 141 158 161 161 138 124 118 112 127 125 
152 155 157 158 160 158 158 162 167 169 165 169 168 165 168 168 171 175 173 143 138 131 125 115 127 152 123 140 162 160 155 145 138 154 146 146 154 152 161 164 159 149 145 143 143 
155 155 154 153 155 155 158 160 160 154 165 171 167 167 170 174 174 174 165 139 150 149 128 143 127 137 136 153 150 148 148 149 143 145 150 158 159 154 152 146 146 146 150 144 131 
158 157 157 159 160 165 165 160 153 161 163 161 161 167 170 172 176 151 135 128 140 136 124 146 153 152 138 157 154 151 151 150 146 142 138 146 155 156 157 161 161 158 153 147 139 
161 160 161 162 160 163 166 160 159 160 159 160 164 170 168 162 127 120 156 148 135 136 140 120 137 147 133 152 157 158 150 153 152 136 148 150 157 150 152 154 159 160 158 155 156 
163 162 160 156 154 154 155 158 161 163 158 159 165 158 156 139 112 117 131 135 125 139 137 124 118 106 125 162 160 167 156 150 155 142 151 161 160 156 154 161 166 167 162 161 157 
159 159 154 156 157 151 153 155 157 151 154 162 156 147 144 121 135 166 167 154 130 120 118 122 120 120 138 166 166 162 155 153 147 161 169 162 159 161 141 151 159 160 162 165 162 
148 152 160 154 151 153 155 158 158 154 149 150 139 128 117 118 132 139 139 125 119 121 109 128 118 128 141 146 154 157 148 157 151 166 161 146 143 166 165 159 160 160 162 152 157 
139 148 158 151 153 156 159 159 157 149 132 120 114 121 126 141 150 153 143 124 133 116 118 133 121 121 117 145 157 142 132 159 143 146 164 159 138 148 164 160 159 142 159 156 146 
164 156 147 147 159 171 150 134 125 114 113 121 127 149 140 139 138 132 123 133 117 125 128 121 111 115 124 141 157 135 128 155 131 141 163 163 164 144 146 152 147 150 140 153 150 
155 150 154 140 157 155 129 99 108 108 109 113 122 151 118 98 112 118 125 122 118 121 111 111 111 107 103 115 142 136 143 149 144 164 166 166 163 149 150 158 166 164 159 162 144 
127 138 146 128 117 114 105 98 97 102 109 111 106 105 107 124 156 137 129 99 111 116 125 131 123 118 103 118 144 149 156 148 153 154 151 148 146 149 150 157 164 162 159 153 144 
137 117 102 103 101 97 103 92 91 98 97 96 91 102 111 121 130 118 109 77 80 120 131 144 128 123 148 158 155 153 147 139 147 153 155 158 157 157 155 150 147 162 171 161 162 
112 97 105 100 90 92 92 87 99 95 98 102 96 107 107 109 108 105 101 99 104 117 132 144 132 151 169 162 163 153 145 153 144 145 152 161 164 166 163 156 152 159 155 158 170 
101 101 99 97 100 92 85 92 96 85 102 101 98 109 98 101 107 88 90 104 115 123 128 144 151 161 151 148 144 144 145 133 142 143 139 143 145 155 159 153 153 157 157 157 157 
93 94 93 106 114 121 101 100 90 83 89 98 92 99 109 95 95 101 114 104 105 104 107 144 139 145 148 146 140 149 128 128 148 128 139 145 142 141 141 158 138 140 146 135 132 
101 93 102 102 107 115 104 94 102 107 115 97 90 98 99 87 94 100 91 98 102 110 110 131 126 143 149 141 128 134 126 149 145 133 143 142 142 142 151 145 134 144 138 139 137 
90 85 98 94 90 91 99 121 141 137 132 115 97 94 118 114 106 100 125 145 120 114 119 141 138 141 143 124 131 128 138 144 132 140 143 144 147 149 158 143 133 147 135 140 146 
104 104 76 69 79 102 100 127 132 117 107 114 101 99 135 138 130 133 156 142 112 141 155 161 152 144 124 131 140 120 133 138 129 144 141 145 142 144 156 118 136 151 137 141 144 
