P2
45 45
255
203 227 246 255 253 241 220 194 168 146 131 126 133 149 172 199 224 243 254 254 244 224 199 173 149 133 126 131 145 168 194 220 241 253 255 247 228 204 177 153 135 127 129 142 163 
201 224 243 252 250 238 217 192 165 143 128 124 130 146 169 196 221 241 252 252 241 221 196 170 146 130 124 128 142 165 191 217 238 250 252 244 225 201 174 150 132 124 126 140 161 
198 222 240 249 248 235 214 189 162 140 125 121 127 143 166 193 218 237 249 249 238 218 193 167 143 127 121 125 140 162 188 214 234 247 249 240 222 198 171 147 129 121 123 137 158 
195 219 238 246 244 232 211 186 159 137 122 117 124 140 164 190 215 235 245 245 235 215 190 164 141 124 117 122 137 159 185 211 232 244 246 238 219 195 168 144 126 118 120 134 155 
192 216 235 243 241 229 208 183 156 134 119 115 121 137 161 187 212 232 242 242 232 213 188 161 138 121 115 119 134 156 182 208 229 241 243 235 216 192 166 141 123 115 117 131 152 
189 213 232 240 239 226 205 180 153 131 116 112 118 134 158 184 209 229 240 240 229 210 185 158 135 118 112 116 131 153 180 205 226 239 241 232 214 189 163 139 121 112 115 128 149 
186 210 229 238 236 223 203 177 151 129 114 109 115 132 155 181 206 226 237 237 226 207 182 155 132 116 109 114 128 150 177 202 223 236 238 229 211 186 160 135 118 110 112 125 146 
183 207 226 235 233 220 200 174 148 125 111 107 113 129 152 178 204 223 234 234 223 204 179 152 129 113 107 111 125 147 174 200 220 233 235 226 208 183 157 133 115 107 109 122 143 
181 204 223 231 230 217 197 171 145 123 108 103 110 126 149 175 201 220 231 231 221 201 176 150 126 110 103 108 122 145 171 197 217 230 232 223 205 181 154 130 112 104 106 120 140 
178 201 220 229 227 215 194 168 142 120 105 100 107 123 146 173 198 217 228 228 218 198 173 147 123 107 100 105 120 142 168 194 215 227 229 220 202 177 151 127 109 101 103 117 137 
175 198 217 226 224 212 191 166 139 117 102 98 104 120 143 170 195 214 225 225 215 195 170 144 120 104 97 102 117 139 165 191 211 224 226 217 199 175 148 124 107 98 100 114 135 
172 196 214 223 221 209 188 163 136 114 99 95 101 117 140 167 192 212 223 222 212 192 167 141 117 101 95 99 114 136 162 188 209 221 224 214 196 172 145 121 104 96 98 111 132 
169 193 212 220 218 206 185 160 133 111 97 92 98 114 138 164 189 209 219 219 209 189 164 138 115 99 92 97 111 133 159 185 206 218 220 212 193 169 143 118 101 92 95 108 129 
166 190 209 217 215 203 182 157 130 108 94 88 95 111 135 161 186 206 216 216 206 187 161 135 112 95 88 93 108 130 157 182 203 215 217 209 190 166 140 115 98 89 92 105 126 
163 187 206 214 213 200 179 154 128 105 91 86 92 109 132 158 183 203 214 214 203 184 158 132 109 92 86 90 105 127 154 179 200 213 215 206 188 163 137 113 95 86 89 102 123 
160 184 203 212 210 198 177 151 125 102 88 83 89 106 129 155 180 200 211 211 200 181 156 129 106 90 83 88 102 125 151 176 197 210 212 203 185 160 134 110 92 84 86 99 120 
157 181 200 209 207 195 174 148 122 100 85 80 86 103 126 152 178 197 208 208 197 178 153 126 103 87 80 85 99 121 148 174 194 207 209 200 182 157 131 107 89 81 83 97 117 
154 178 197 206 204 191 171 145 119 97 82 77 83 100 123 150 175 194 205 205 194 175 150 123 100 84 77 82 97 119 145 171 191 204 206 197 179 154 128 104 86 77 80 94 114 
152 175 195 203 201 189 168 142 116 94 79 74 81 97 121 147 172 191 202 202 192 172 147 121 97 81 74 79 94 116 142 168 189 201 203 194 176 152 125 101 83 75 77 91 111 
149 172 192 200 198 186 165 140 113 91 76 71 78 94 117 144 169 188 199 199 189 169 144 118 94 78 71 76 91 113 139 165 186 198 200 192 173 149 122 98 80 72 74 88 109 
146 170 188 197 195 183 162 137 110 88 73 69 75 91 114 141 166 186 196 197 186 166 141 115 92 75 69 73 88 110 136 162 183 195 197 188 170 146 119 95 77 69 72 85 106 
143 167 186 194 192 180 159 134 108 85 70 66 72 88 112 138 163 183 194 194 183 164 138 112 89 72 66 70 85 107 133 159 180 192 195 185 168 143 116 92 74 66 69 82 103 
140 164 183 191 190 177 156 131 105 82 68 63 69 85 109 135 160 180 191 191 180 161 136 109 86 69 63 68 82 104 130 156 177 189 191 182 165 140 114 90 71 64 66 79 100 
137 161 180 188 187 174 154 128 102 79 65 60 66 82 106 132 157 177 188 188 177 158 133 106 83 67 60 65 79 101 127 153 174 186 188 180 162 137 111 86 69 60 63 76 97 
134 158 177 186 184 172 151 125 99 76 62 57 64 80 103 129 154 174 185 185 175 155 130 103 80 64 57 62 76 99 125 150 171 184 186 177 159 134 108 84 66 57 60 73 94 
131 155 174 183 181 169 148 122 96 74 59 54 61 77 100 126 152 171 182 182 172 152 127 100 77 61 54 59 73 95 122 147 168 181 183 174 156 131 105 81 63 55 57 70 91 
128 152 171 180 178 166 145 119 93 71 56 52 58 74 97 123 149 168 179 179 168 149 124 97 74 58 52 56 70 93 119 144 165 178 180 171 153 128 102 78 60 52 54 67 88 
125 149 168 177 175 163 142 117 90 68 53 48 55 71 94 121 146 166 177 176 166 146 121 95 71 55 48 53 68 90 116 142 163 175 177 168 150 126 99 75 57 49 51 65 86 
122 147 166 174 172 160 139 114 87 65 50 45 52 68 91 118 143 163 173 173 163 143 118 92 68 52 45 50 65 87 113 139 160 172 174 165 147 123 96 72 54 46 48 62 83 
120 144 163 171 170 157 136 111 85 62 47 43 49 65 88 115 140 160 170 171 160 140 116 89 66 49 43 47 62 84 110 136 157 169 171 163 144 120 94 69 51 43 45 59 80 
117 141 160 169 167 154 133 108 81 59 44 40 46 63 86 112 137 157 168 168 157 138 113 86 63 46 40 44 59 81 107 133 154 166 169 160 141 117 91 66 49 40 42 56 77 
114 138 157 166 164 151 131 105 79 56 41 37 43 59 83 109 134 154 165 165 154 135 110 83 60 44 38 41 56 78 104 130 151 164 166 156 139 114 88 64 45 38 40 53 74 
111 135 154 162 161 148 128 102 76 54 39 34 40 57 80 106 131 151 162 162 151 132 107 80 57 41 34 39 53 75 102 127 148 161 162 154 136 111 85 61 43 35 37 50 71 
108 132 151 160 158 145 125 99 73 50 36 31 38 54 77 103 128 148 159 159 148 129 104 77 54 38 31 36 50 72 99 125 145 158 160 151 133 109 82 58 40 31 34 47 68 
105 129 148 157 155 142 122 96 70 48 33 28 35 51 74 100 126 145 156 156 145 126 101 74 51 35 28 33 47 69 96 122 142 155 157 148 130 106 79 55 37 29 31 45 65 
103 126 145 154 152 140 119 94 67 45 30 26 32 48 71 98 123 142 153 153 142 123 98 71 48 32 26 30 45 67 93 119 139 152 154 145 127 103 76 52 34 26 28 42 62 
100 124 142 151 149 137 116 90 64 42 27 23 29 45 68 95 120 140 150 150 140 120 95 69 45 29 23 27 42 64 90 116 137 149 151 142 124 100 73 49 31 23 25 39 60 
97 121 139 148 146 134 113 88 62 39 24 19 26 42 65 92 117 137 147 147 137 117 92 66 42 26 20 24 39 61 87 113 134 146 148 139 122 97 71 46 29 20 22 36 57 
94 118 137 145 143 131 110 85 59 36 22 17 23 39 62 89 114 134 144 144 134 114 90 63 40 23 17 21 36 58 84 110 131 143 145 137 118 94 68 43 25 17 19 33 54 
91 115 134 143 141 128 108 82 56 33 18 14 20 37 60 86 111 131 142 142 131 112 87 60 37 20 14 18 33 55 82 107 128 140 143 134 115 91 65 41 23 14 17 30 51 
88 112 131 140 138 125 105 79 53 31 15 11 18 34 57 83 108 128 139 139 128 109 84 57 34 17 11 15 30 52 79 104 125 138 140 131 113 88 62 38 20 12 14 27 48 
85 109 128 137 135 122 102 76 50 28 13 8 15 31 54 80 105 125 136 136 125 106 81 54 31 15 8 13 27 50 76 101 122 135 137 128 110 85 59 35 17 9 11 24 45 
82 106 125 134 132 119 99 73 47 25 10 5 12 28 51 77 103 122 133 133 123 103 78 52 28 12 5 10 24 46 73 99 119 132 134 125 107 83 56 32 14 6 8 22 42 
79 103 122 131 129 116 96 70 44 22 7 2 9 25 48 74 100 119 130 130 120 100 75 48 25 9 2 7 21 44 70 96 116 129 131 122 104 79 53 29 11 3 5 19 40 
76 100 119 128 126 114 93 67 41 19 4 0 6 22 45 72 97 116 127 127 117 97 72 46 22 6 0 4 19 41 67 93 113 126 128 119 101 77 50 26 8 0 2 15 36 
