P2
45 45
255
205 207 208 211 214 217 220 222 225 227 229 230 232 233 235 236 236 236 235 233 231 228 224 220 218 218 216 212 206 202 206 211 213 216 217 219 218 219 219 218 217 216 216 214 213 
204 205 206 209 211 214 216 219 222 224 226 228 229 231 232 233 233 233 231 229 226 225 223 222 210 189 172 159 144 147 159 171 187 207 216 215 219 202 192 170 172 175 169 183 203 
202 204 205 207 210 212 215 217 219 221 223 224 226 227 228 229 229 229 227 226 224 213 195 176 164 135 126 128 133 140 136 134 142 147 175 198 171 132 117 116 119 122 122 126 135 
200 202 203 205 208 210 212 214 216 217 219 219 220 220 219 218 218 219 218 203 158 130 120 112 113 120 119 121 121 128 126 126 124 118 117 119 110 108 110 114 118 119 127 125 125 
199 200 202 204 206 208 210 212 213 215 215 215 214 212 210 211 202 183 170 130 108 106 108 111 109 114 120 120 122 121 118 123 125 120 115 113 113 115 118 114 127 127 129 121 124 
198 199 200 202 204 206 208 209 211 211 211 210 207 205 201 173 127 114 107 102 103 99 99 102 103 105 108 116 119 117 117 117 117 120 120 118 119 126 117 124 130 137 140 131 127 
198 199 200 202 203 205 206 207 208 208 207 204 202 192 161 113 104 106 105 102 98 98 100 102 103 107 112 118 122 118 120 123 124 120 120 122 129 145 141 149 139 133 149 149 143 
197 198 199 201 202 202 203 203 203 202 200 197 189 136 109 108 103 100 100 99 98 99 100 101 103 106 110 117 121 119 123 128 136 136 144 148 138 143 151 158 146 155 170 160 173 
197 197 198 199 200 199 198 196 197 197 194 193 168 111 106 100 97 97 96 96 97 98 99 101 103 104 108 113 117 120 126 132 134 137 146 151 149 142 143 159 148 163 170 186 188 
196 196 197 197 197 196 195 192 176 157 139 137 120 104 99 97 96 95 96 97 99 101 104 105 106 110 115 115 120 127 134 138 149 160 157 151 144 146 146 140 138 163 184 190 196 
194 195 195 194 192 192 183 152 121 107 105 100 94 94 93 93 94 96 99 102 106 109 113 115 111 117 118 120 129 141 148 157 160 172 174 167 165 157 151 153 152 169 174 187 199 
192 193 192 191 190 177 132 111 110 100 96 94 95 94 94 95 96 99 103 109 111 111 111 111 113 126 127 126 134 143 146 151 153 163 170 167 161 159 157 146 154 165 179 168 163 
188 190 189 187 187 176 132 127 110 123 111 106 105 93 92 96 98 102 108 113 116 118 122 121 113 142 137 125 144 158 165 182 181 187 193 191 178 178 166 139 150 147 142 120 120 
185 186 185 184 181 182 157 145 143 143 110 102 98 95 95 97 101 107 112 116 119 119 122 127 118 136 141 126 166 169 189 195 193 198 206 205 202 200 163 134 137 122 121 116 117 
181 183 181 182 178 176 147 121 118 106 95 94 94 96 97 100 104 109 115 120 125 130 124 119 117 117 119 144 170 171 194 201 202 205 207 206 201 200 158 124 124 113 112 114 118 
174 176 173 174 174 174 138 120 108 100 98 95 96 98 100 103 107 113 119 125 126 129 126 131 142 123 111 146 168 167 173 171 181 194 203 199 196 155 122 112 109 108 108 107 105 
167 168 167 163 163 166 137 107 101 99 98 99 101 103 106 109 113 117 122 125 128 129 129 124 129 120 113 120 140 148 145 151 163 166 166 166 172 139 113 117 119 109 104 102 101 
157 158 159 155 150 127 110 105 101 99 99 101 103 108 112 116 120 121 124 124 130 133 131 129 121 119 114 118 116 121 128 134 146 154 155 152 137 136 115 108 106 102 101 101 100 
148 150 144 144 132 113 103 102 100 101 104 104 108 112 115 117 119 121 121 123 124 127 127 125 129 117 111 114 114 115 118 121 126 134 135 125 117 114 108 107 108 103 101 101 101 
135 129 126 114 107 104 102 100 101 106 109 109 110 114 117 119 123 124 123 125 122 123 123 122 118 111 110 112 112 112 114 117 119 124 126 124 122 121 112 111 112 108 107 105 105 
136 118 119 120 108 101 101 101 104 110 117 119 121 122 123 126 128 128 126 125 122 118 116 115 114 110 108 110 110 111 113 114 116 121 123 123 124 120 112 116 116 113 112 110 108 
130 125 123 109 103 101 102 108 112 120 125 134 138 129 125 128 129 128 126 127 125 119 117 114 112 110 109 111 111 112 115 117 118 121 125 126 127 126 115 126 129 120 125 123 115 
135 135 125 112 107 107 110 114 116 124 125 127 140 133 126 129 131 127 127 129 126 119 117 113 112 109 110 112 114 115 118 121 123 127 128 128 133 135 123 134 147 134 138 133 124 
127 127 129 127 116 112 121 118 130 134 130 128 131 132 131 132 131 129 126 130 131 121 124 116 114 111 113 117 117 119 121 125 127 130 132 135 137 142 129 143 157 143 144 141 130 
127 126 124 122 111 109 127 125 137 147 137 126 127 134 134 135 139 138 138 146 147 127 127 123 116 114 118 123 121 123 127 132 136 138 146 148 149 154 132 150 172 170 170 158 145 
123 121 121 121 123 117 129 142 142 145 130 122 127 126 133 139 136 137 144 150 149 132 138 131 127 116 121 131 126 129 128 133 137 145 154 156 160 159 130 152 172 171 177 159 150 
117 118 115 114 118 123 131 134 132 135 129 132 138 141 143 150 152 150 149 148 150 138 142 142 138 125 125 139 132 132 130 126 127 137 156 154 159 159 129 149 156 155 147 124 112 
121 113 113 116 114 108 122 130 123 121 124 125 127 131 135 139 150 153 155 158 162 147 147 171 154 130 130 146 130 129 131 134 129 141 153 151 152 152 123 142 141 121 106 96 94 
125 124 113 118 117 112 114 121 121 120 114 114 120 119 122 129 131 136 140 145 152 145 145 177 170 134 131 142 121 121 123 130 137 150 150 148 145 134 115 122 106 96 93 90 88 
127 130 130 125 122 126 122 115 123 125 118 117 124 126 116 114 128 124 126 131 136 140 142 171 171 153 129 136 115 115 115 118 119 112 118 119 118 111 102 93 88 83 83 86 86 
153 151 148 145 126 129 132 124 120 118 121 126 120 120 122 108 114 111 114 120 126 133 137 159 156 141 130 148 116 107 105 110 107 101 101 94 92 94 89 82 82 82 80 81 80 
160 166 162 170 163 127 113 126 123 114 117 114 109 94 92 94 94 99 103 109 121 127 132 160 162 147 128 152 119 104 106 106 102 101 100 93 89 84 80 78 79 78 76 76 74 
161 157 160 161 170 159 127 119 129 124 117 105 86 79 78 85 89 97 102 104 117 122 128 157 147 134 128 151 108 102 100 91 88 83 85 85 80 75 74 73 73 73 73 73 72 
156 149 147 155 156 166 172 154 147 135 131 130 96 96 89 79 85 96 104 111 124 127 128 159 145 139 129 153 115 102 94 82 75 73 82 78 73 70 69 70 70 70 70 70 69 
143 144 141 149 155 164 172 179 169 153 144 139 127 93 85 78 79 89 102 107 119 128 131 160 166 157 130 155 153 134 126 115 107 90 78 70 67 65 64 65 66 66 66 65 64 
112 120 128 133 155 166 171 173 171 171 163 160 139 105 100 102 106 112 122 132 143 148 133 158 172 157 130 146 175 175 175 173 136 84 71 68 66 63 62 63 66 65 63 63 63 
115 109 121 122 142 149 171 178 177 171 181 175 166 167 171 175 178 178 182 182 181 170 151 160 172 170 164 164 174 180 186 157 98 84 74 69 66 64 63 62 65 63 60 60 59 
98 98 118 131 139 148 159 169 170 179 183 170 178 188 189 192 195 196 196 194 192 189 188 182 178 176 174 170 164 159 154 114 90 86 77 69 66 64 64 62 59 60 60 58 57 
85 99 111 124 144 148 155 164 163 170 176 163 157 175 190 190 190 187 187 183 178 173 168 164 160 155 151 147 142 135 127 114 99 91 81 74 70 66 66 65 63 62 62 61 61 
83 88 91 98 128 146 142 149 153 158 163 167 167 168 180 179 183 183 184 183 175 169 166 161 156 153 150 148 146 143 138 132 125 118 112 106 101 99 97 96 94 94 93 93 92 
79 86 97 96 116 134 134 137 147 160 166 174 178 179 180 179 184 188 185 186 185 181 177 177 173 170 166 160 155 152 149 145 141 138 135 132 128 125 123 121 120 119 117 116 115 
78 88 102 125 127 124 126 132 142 137 136 144 163 168 164 164 173 171 171 174 172 171 169 172 173 171 172 167 163 165 162 156 152 149 148 146 144 142 140 139 138 137 136 135 134 
113 110 110 107 104 105 106 107 113 119 114 116 138 147 156 150 151 155 164 166 162 163 161 167 165 160 166 165 167 169 172 169 167 167 160 158 154 154 153 152 150 148 147 146 145 
114 98 87 88 84 89 91 85 87 96 94 98 113 116 124 135 144 147 160 158 153 153 157 159 155 159 164 167 169 169 172 173 171 171 172 169 165 166 164 163 161 160 159 159 158 
88 86 88 90 88 88 94 96 99 99 105 106 112 120 118 111 126 139 152 147 149 156 154 156 154 151 154 155 163 167 172 176 174 173 175 179 179 180 179 178 176 174 171 169 168 
