P2
45 45
255
203 204 204 204 204 205 205 205 205 205 205 205 205 205 205 205 205 205 205 205 205 205 205 205 205 205 205 205 205 205 205 205 205 205 205 205 205 205 205 205 205 205 205 205 205 
203 204 204 204 204 205 205 205 205 205 205 205 205 205 205 205 205 205 205 205 205 205 205 205 205 205 205 205 204 204 204 204 204 204 204 204 204 204 204 204 205 205 205 205 205 
203 204 204 204 204 205 205 205 205 205 205 205 205 205 205 205 205 205 205 205 205 205 205 205 205 205 204 204 205 205 205 205 205 205 205 205 205 205 205 205 204 204 205 205 205 
203 204 204 204 204 205 205 205 205 205 205 205 205 205 205 205 205 205 205 205 205 205 205 205 205 204 204 205 204 204 204 204 204 204 204 204 204 204 204 204 204 204 204 205 205 
203 204 204 204 204 205 204 204 204 204 204 204 204 205 205 205 205 205 205 205 205 205 205 205 204 204 204 204 204 204 203 202 202 201 201 202 202 203 204 204 204 205 205 205 205 
203 204 204 204 204 205 205 205 205 205 205 204 204 204 204 204 205 205 205 205 205 205 205 204 204 205 204 204 203 202 201 199 198 197 197 198 199 201 202 203 204 204 204 204 204 
203 204 204 204 204 204 204 204 204 204 204 204 204 204 204 204 204 204 204 204 204 204 204 204 204 204 204 203 202 200 198 196 195 194 194 195 196 198 200 201 203 204 204 204 204 
203 204 203 203 203 203 202 202 202 203 203 204 204 204 205 205 205 205 205 205 205 205 205 204 204 204 203 202 200 197 195 190 180 176 180 178 190 195 197 199 201 202 203 203 203 
203 203 203 202 201 200 199 199 199 199 200 201 202 203 203 204 204 204 204 204 204 204 204 204 204 203 202 200 197 194 187 171 165 152 166 166 163 189 194 197 199 200 201 202 202 
202 202 201 201 199 197 196 195 195 195 196 198 199 200 201 202 203 203 203 203 203 203 203 203 202 201 199 197 194 191 170 177 170 157 166 178 176 178 188 193 196 198 199 200 200 
201 201 200 199 197 194 187 186 188 191 193 195 196 198 199 200 201 202 202 202 202 202 201 201 200 199 196 194 191 179 173 180 173 172 175 177 182 184 185 189 192 194 196 197 198 
199 199 199 197 194 187 176 171 173 178 184 189 193 196 197 198 199 200 200 199 199 199 198 197 196 194 192 186 179 175 178 176 176 177 178 180 182 184 186 188 190 192 194 195 195 
197 197 197 195 192 187 180 174 173 172 171 175 177 186 192 194 195 195 195 194 194 193 192 190 187 187 184 178 173 174 174 174 171 173 174 178 180 183 185 186 188 190 192 193 194 
196 196 196 195 194 191 188 185 182 183 183 182 182 185 188 190 190 190 189 187 185 184 184 178 179 180 180 178 174 171 168 168 169 170 173 177 179 180 182 186 187 189 191 192 193 
196 196 196 195 194 192 190 188 187 186 185 186 188 189 189 189 188 187 185 184 182 178 174 177 173 173 172 168 168 161 143 118 149 173 173 173 179 181 183 183 184 187 189 190 191 
195 195 195 195 194 193 191 188 186 184 182 182 182 183 184 183 183 180 172 161 154 146 150 132 153 134 159 152 147 152 127 99 113 135 152 169 176 177 178 179 179 181 187 188 189 
194 195 195 195 194 193 191 187 183 181 169 168 178 178 178 177 172 161 150 135 107 118 117 90 113 95 131 157 129 148 118 111 104 96 110 125 157 169 175 179 182 182 184 185 187 
194 195 194 194 193 192 188 184 178 171 159 150 164 170 167 155 158 160 141 119 110 105 98 108 99 81 97 155 131 135 130 103 106 101 108 100 114 121 127 145 163 173 180 182 184 
194 194 193 193 191 189 186 181 175 167 150 141 156 166 157 155 154 148 137 132 120 99 106 134 117 95 82 146 126 84 104 104 109 96 91 82 81 95 99 106 120 147 163 171 176 
192 193 192 191 190 188 185 180 176 170 160 155 153 150 154 143 130 135 124 130 121 102 106 140 128 100 80 118 81 58 61 70 75 72 77 79 63 72 104 135 123 130 158 167 168 
191 191 191 190 188 186 182 178 175 171 165 158 147 132 128 129 125 129 112 124 126 105 98 136 119 102 91 109 85 60 63 61 59 60 72 82 74 65 72 118 145 137 137 165 169 
189 189 189 187 186 184 179 177 176 171 165 161 152 138 128 129 125 113 114 109 113 111 103 115 111 101 99 103 107 69 59 64 60 56 67 74 79 66 65 73 136 140 126 136 160 
186 187 186 185 184 183 180 177 177 173 170 163 153 136 128 121 116 111 118 107 109 116 109 110 120 105 106 101 109 86 53 60 61 55 71 85 84 81 74 67 86 134 141 130 140 
183 184 183 183 182 181 179 175 176 174 170 166 150 129 130 116 105 108 104 107 118 116 118 116 117 121 116 117 106 97 60 58 64 56 67 96 97 85 88 71 70 81 134 115 118 
180 180 180 178 178 177 175 171 173 174 170 167 156 125 135 116 97 95 94 100 111 117 119 119 120 141 144 142 114 106 76 57 62 57 66 90 105 96 98 78 77 64 100 122 111 
176 178 176 175 176 174 171 170 172 171 168 164 152 132 126 117 93 88 94 88 108 110 120 122 122 142 144 152 142 106 82 57 64 59 63 90 109 116 102 95 92 65 77 99 103 
172 175 174 175 173 171 167 167 170 169 167 159 151 121 113 117 93 99 90 88 98 112 129 123 118 137 137 154 149 121 85 59 65 63 61 93 110 120 125 122 103 68 71 82 84 
171 173 173 169 169 169 169 167 168 165 164 156 154 122 114 113 93 110 91 83 85 113 127 121 113 141 140 155 150 136 92 62 65 69 63 92 120 128 127 126 113 89 73 82 82 
169 170 171 170 170 172 172 166 165 165 168 164 161 148 115 116 113 101 90 87 97 106 117 110 110 143 143 158 153 143 106 65 65 77 69 82 120 135 130 130 114 102 84 89 85 
168 169 168 168 171 172 172 169 172 172 168 165 162 149 124 129 116 104 111 96 105 101 102 112 123 143 146 157 155 145 123 70 64 80 70 84 111 144 140 141 130 107 99 88 105 
165 165 168 172 174 175 175 173 174 172 171 167 159 138 116 120 99 130 140 117 107 97 88 86 121 146 143 154 149 144 126 77 75 100 96 111 113 133 145 146 147 134 117 119 116 
167 169 170 173 176 177 176 174 175 174 169 165 163 153 125 120 110 125 151 126 127 106 91 72 96 141 142 148 145 141 120 88 130 150 157 159 158 155 151 149 147 155 143 139 121 
169 170 171 174 176 176 175 172 175 174 173 174 171 163 138 103 130 125 155 149 137 136 97 75 83 91 126 136 132 129 92 88 150 156 162 168 170 170 169 162 152 153 160 155 153 
170 170 173 175 175 175 172 172 175 177 177 174 167 149 122 104 134 118 145 163 147 141 118 78 82 76 88 108 97 99 72 63 96 141 165 168 172 172 171 163 157 164 164 168 169 
171 173 173 175 175 172 168 170 175 176 175 171 166 160 125 94 118 131 144 164 160 143 138 99 74 72 68 76 86 70 78 69 72 98 146 167 170 173 172 171 162 169 169 169 173 
173 175 174 174 173 172 163 166 173 174 174 173 164 154 136 106 112 134 138 162 163 147 134 119 85 69 66 57 67 64 73 74 63 103 112 154 171 171 173 172 170 172 174 174 176 
174 175 174 174 172 168 160 169 172 172 171 164 153 155 168 142 99 104 134 159 163 156 145 130 95 80 63 58 61 62 57 73 65 68 133 132 138 167 170 172 174 172 175 176 177 
176 176 175 173 170 163 156 159 162 166 168 165 162 171 168 162 121 98 128 155 164 154 136 134 95 89 70 56 57 59 56 58 73 57 89 127 110 134 162 169 172 172 169 174 176 
176 175 175 172 164 156 142 154 162 157 164 166 173 176 174 172 140 105 101 145 161 156 144 137 106 93 80 61 56 57 58 55 64 69 55 97 142 135 120 159 167 172 167 164 171 
175 176 174 168 161 164 139 151 148 154 169 177 178 179 178 174 165 128 94 127 154 161 154 138 111 96 93 69 58 57 60 61 60 67 67 63 93 134 111 133 152 162 167 166 168 
175 176 173 172 168 156 129 114 142 169 171 175 180 182 181 177 170 131 92 117 141 162 156 150 132 107 96 78 65 56 54 60 66 64 66 73 65 77 121 112 122 135 155 161 163 
177 177 175 171 166 149 124 117 145 162 167 178 183 185 184 179 174 156 94 119 134 158 160 155 148 131 108 91 74 63 54 55 85 97 91 79 69 63 80 79 100 105 106 109 115 
178 178 175 171 167 159 133 110 140 162 171 180 184 186 185 181 173 165 110 113 133 150 163 161 154 141 118 108 87 73 69 53 66 98 111 92 79 74 92 73 73 97 114 104 97 
178 179 177 173 169 154 136 115 139 167 174 180 184 187 186 182 174 158 117 116 142 133 160 163 157 146 123 99 109 81 80 62 53 65 89 108 119 107 104 87 65 80 97 105 107 
180 180 178 174 167 150 135 108 144 167 174 179 184 187 185 182 175 139 107 125 150 127 155 164 158 148 132 98 97 93 72 64 55 59 65 83 108 123 111 93 76 92 95 89 88 
