P2
45 45
255
93 94 94 95 96 97 97 98 98 98 98 98 98 98 98 98 98 98 98 98 98 98 98 98 98 97 98 97 97 97 97 97 98 98 98 97 97 97 97 97 97 97 97 98 98 
105 105 107 105 107 107 107 107 107 107 107 107 107 107 107 107 107 107 107 107 107 107 107 107 107 107 107 107 107 107 107 107 107 107 107 107 107 107 107 107 107 107 108 108 109 
102 112 105 112 106 112 109 109 110 109 109 109 109 109 109 110 109 110 109 109 110 108 111 108 111 107 112 107 111 108 111 108 110 109 109 110 109 110 110 109 110 109 111 110 113 
86 132 100 113 121 106 116 115 110 113 114 112 112 113 113 113 113 113 113 113 113 113 113 112 114 112 114 112 115 111 115 111 115 112 113 114 110 117 109 116 112 111 118 110 116 
77 120 141 83 122 132 103 112 124 115 111 116 117 115 114 115 116 115 115 115 115 115 115 115 115 115 115 115 115 115 115 115 115 115 115 115 115 115 115 116 115 116 117 115 118 
71 103 149 124 77 126 145 108 98 127 127 113 111 118 121 117 115 116 118 118 117 116 117 117 117 117 117 117 117 117 117 117 117 117 117 117 117 117 117 117 117 117 118 117 118 
64 94 124 163 94 81 121 151 124 84 109 136 128 108 105 118 124 119 114 114 117 118 118 116 116 116 117 117 117 116 116 117 117 117 117 117 117 116 117 117 117 117 117 117 117 
58 85 111 147 156 70 90 115 149 144 88 84 123 140 130 105 98 115 128 124 115 109 112 118 120 118 115 114 116 117 117 116 116 116 116 117 117 116 116 116 116 116 117 117 117 
55 78 103 130 168 129 61 95 113 144 158 106 73 100 129 145 132 102 91 109 130 131 120 109 106 113 120 122 118 114 113 114 116 118 117 116 115 115 116 116 117 116 116 115 115 
52 72 93 119 144 174 88 64 95 111 135 163 125 70 83 109 132 149 132 97 82 100 126 137 129 111 99 101 113 124 125 118 111 109 111 115 118 118 115 114 113 114 116 116 117 
49 67 87 112 136 163 166 63 73 95 113 131 162 153 84 69 96 113 137 154 139 100 78 91 118 137 141 129 107 93 98 114 128 131 124 113 106 106 112 118 121 120 116 113 112 
46 62 80 103 126 145 176 125 50 79 94 112 128 155 164 100 61 85 103 117 139 155 135 94 75 86 110 130 142 139 117 95 86 95 115 131 135 125 111 102 100 106 116 124 126 
44 57 73 94 115 135 151 175 85 52 78 91 108 123 142 167 127 61 68 91 102 116 138 154 137 94 69 78 99 117 133 143 135 111 86 79 90 111 127 133 130 117 101 90 91 
42 55 70 92 114 135 153 175 170 57 63 82 97 114 131 146 174 159 80 61 86 100 113 128 150 165 145 98 71 81 100 115 133 150 154 135 106 83 82 97 116 135 146 145 133 
40 50 62 81 101 119 135 146 169 118 43 65 76 90 104 118 130 151 156 94 53 70 85 95 106 119 138 149 127 89 65 73 90 101 113 130 142 133 111 89 74 76 91 110 125 
38 47 58 76 95 113 129 142 153 170 79 45 65 77 90 103 116 129 144 164 123 54 58 78 87 98 108 120 138 150 133 89 59 67 86 96 104 119 133 141 132 106 79 68 74 
36 45 56 73 92 110 127 143 155 171 161 50 54 68 80 93 106 121 135 147 170 153 72 49 73 84 94 106 116 129 149 163 142 90 59 67 87 97 105 116 132 148 151 132 101 
34 43 53 69 87 106 124 140 154 165 190 128 38 60 70 82 95 110 125 140 152 172 178 101 46 66 80 90 101 113 126 139 160 174 148 93 59 67 86 97 105 115 129 148 160 
32 40 50 65 82 101 119 135 151 165 178 195 84 42 62 72 84 97 112 128 142 155 171 189 134 56 59 76 85 95 108 122 134 146 166 178 149 93 62 69 85 95 105 115 126 
30 36 44 57 72 87 103 116 128 138 144 154 138 46 47 56 65 75 86 98 110 120 129 136 152 129 65 48 62 69 78 86 96 105 112 121 136 142 118 81 57 60 73 81 87 
28 34 41 53 67 81 96 109 121 131 139 143 155 107 37 49 54 63 73 84 95 107 116 124 129 141 143 86 43 54 63 69 77 86 95 103 109 117 130 138 121 81 53 56 69 
27 33 39 51 64 78 92 106 119 131 140 147 151 160 73 37 50 56 65 74 86 98 109 119 128 135 143 155 114 49 47 60 66 75 83 91 100 108 116 124 137 145 128 85 57 
26 32 38 49 62 76 90 103 117 129 140 148 154 164 149 44 42 50 57 66 76 88 100 112 122 131 139 146 162 142 65 40 57 63 71 80 89 97 105 114 123 131 145 152 134 
26 31 37 49 61 75 88 102 115 128 140 150 158 163 179 118 34 46 52 60 69 80 91 104 116 126 136 145 152 165 165 93 39 51 62 68 77 86 95 104 113 122 131 138 150 
25 31 37 48 61 74 88 101 114 128 140 151 160 169 174 186 77 34 48 54 62 72 83 95 108 120 131 141 151 158 168 181 128 46 45 60 66 74 83 92 101 111 121 128 134 
25 30 36 47 59 72 85 99 112 125 138 150 160 169 177 189 170 42 41 49 56 64 74 86 99 112 124 135 145 155 164 171 190 162 65 37 56 63 70 80 89 98 107 115 122 
23 28 34 45 56 69 82 95 107 120 134 146 157 167 176 182 202 125 32 45 50 57 65 75 88 101 113 125 136 147 157 166 173 189 187 95 36 49 60 66 75 83 92 99 106 
22 27 32 42 53 65 77 90 102 115 128 141 154 165 176 187 194 205 81 33 46 51 57 66 77 89 101 114 127 138 150 161 171 179 191 203 135 49 46 57 63 69 77 83 88 
19 23 28 37 46 56 67 77 87 98 108 119 129 137 144 151 155 162 136 38 38 42 46 52 59 69 79 89 100 109 118 127 134 140 145 148 160 124 53 42 51 54 58 62 66 
17 20 24 31 38 47 55 63 71 78 86 92 100 106 111 114 115 111 114 79 33 35 36 39 44 49 56 64 71 78 85 91 96 100 103 105 103 108 105 66 39 41 42 44 45 
15 18 22 28 35 43 51 58 66 73 80 87 94 101 108 113 116 117 114 113 56 31 34 34 37 42 48 55 62 69 76 83 89 95 101 104 107 107 106 109 82 42 37 42 42 
14 17 20 26 33 40 47 54 61 68 75 82 89 96 102 108 113 115 115 115 101 38 32 31 33 36 40 46 53 60 67 74 80 87 93 98 102 105 107 107 111 97 53 36 42 
13 16 19 25 31 38 45 52 59 65 72 79 86 93 99 106 111 115 117 116 119 81 31 31 30 32 35 40 46 53 60 67 74 80 87 93 98 103 106 109 110 114 111 73 44 
13 16 19 24 30 37 44 51 58 64 71 78 84 91 98 104 110 115 119 121 120 120 57 29 31 30 32 36 42 48 55 61 68 75 82 88 94 100 105 109 112 114 118 123 100 
13 16 19 24 30 37 44 51 58 65 71 78 85 91 98 105 111 117 121 124 125 126 111 38 30 30 31 34 38 44 50 57 64 71 77 84 91 97 103 108 112 116 119 122 127 
13 16 19 24 30 37 44 51 58 64 71 78 85 91 98 105 111 118 123 127 129 129 133 88 31 31 30 32 35 40 46 52 59 66 73 79 86 93 99 105 111 115 119 122 125 
13 16 19 24 30 37 44 51 58 64 71 78 85 91 98 105 111 118 124 129 132 134 133 135 60 28 31 30 33 36 42 48 55 62 68 75 82 88 95 102 108 113 118 121 124 
13 16 19 24 30 37 44 51 58 64 71 78 85 91 98 105 111 118 125 131 135 138 138 141 123 38 30 30 31 34 38 44 50 57 64 70 77 84 91 97 104 110 115 118 121 
13 16 19 24 30 37 44 51 58 64 71 78 85 91 98 105 111 118 125 131 137 140 143 142 148 96 30 31 30 32 35 40 46 52 59 66 73 79 86 93 99 106 111 114 117 
13 16 19 24 30 37 44 51 58 64 71 78 85 91 98 105 111 118 125 132 138 143 146 148 147 149 64 27 31 30 33 36 42 48 55 61 68 75 82 88 95 101 107 110 112 
13 16 19 24 30 37 44 51 58 64 71 78 85 91 98 105 111 118 125 132 138 144 148 151 152 154 135 38 30 30 31 34 38 44 50 57 64 70 77 84 91 97 102 105 108 
13 16 19 24 30 37 44 51 58 64 71 78 85 91 98 105 111 118 125 132 139 145 150 154 156 155 162 103 28 30 30 32 35 40 46 53 60 66 73 80 87 93 98 101 104 
13 16 19 24 30 37 44 51 58 64 71 78 85 91 98 105 111 118 125 132 139 145 151 156 159 160 159 162 63 25 29 30 32 36 42 49 56 63 70 76 83 89 95 98 100 
13 16 19 24 30 37 44 51 58 64 71 78 85 91 98 105 111 118 125 132 139 145 152 157 160 162 162 165 139 32 26 28 31 35 40 47 54 61 68 74 81 87 93 96 98 
13 16 19 24 30 37 44 51 58 64 71 78 85 91 98 105 111 118 125 132 139 145 152 158 161 164 165 162 167 90 22 27 29 33 39 45 52 59 66 73 79 85 91 94 96 
