P2
45 45
255
224 230 233 236 234 226 211 190 168 151 141 138 142 153 171 194 214 228 234 234 228 215 194 172 153 142 138 141 150 168 190 211 226 234 235 230 217 198 175 156 143 137 136 136 139 
223 229 232 234 232 225 210 189 166 149 140 137 141 151 170 192 213 227 233 233 227 213 193 170 152 141 137 140 149 166 188 210 225 232 233 228 216 197 174 154 142 136 134 135 138 
221 227 231 233 231 223 208 187 165 148 138 136 139 150 168 191 211 225 232 232 225 211 191 168 150 139 136 138 147 164 187 208 223 231 232 227 214 195 172 153 141 135 133 134 136 
219 225 228 231 228 221 206 185 162 145 136 133 137 147 166 188 209 223 229 229 223 209 188 166 148 137 133 136 145 162 184 206 221 228 229 225 212 192 170 150 138 132 131 131 134 
216 222 226 228 226 218 203 182 159 142 133 131 134 145 163 185 206 220 226 226 220 207 186 163 145 134 131 133 142 159 181 203 218 226 227 222 209 190 167 148 136 130 128 129 131 
213 219 223 225 223 215 200 179 156 140 130 128 131 142 160 183 203 217 223 224 217 204 183 160 142 131 128 130 139 156 179 200 215 223 224 219 207 187 164 145 133 127 125 126 128 
210 217 220 222 220 212 197 176 154 137 128 125 128 139 157 180 200 214 221 221 214 201 180 157 139 129 125 127 137 153 176 197 212 220 221 216 204 184 161 142 130 124 122 123 125 
208 214 217 219 217 209 195 173 151 134 125 122 126 136 154 177 198 211 218 218 211 198 177 155 136 126 122 125 134 151 173 194 209 217 218 213 201 181 158 139 127 121 120 120 123 
205 211 214 216 214 207 192 170 148 131 122 119 123 133 151 174 195 208 215 215 209 195 174 152 133 123 119 122 131 148 170 192 207 214 215 210 198 178 156 136 124 118 117 117 120 
202 208 211 214 211 204 189 167 145 128 119 116 120 130 148 171 192 205 212 212 206 192 171 149 131 120 116 119 128 145 167 189 204 211 212 207 195 175 153 133 121 115 114 114 117 
199 205 208 211 208 201 186 165 142 125 116 114 117 128 146 168 189 203 209 209 203 189 168 146 128 117 113 116 125 142 164 186 201 208 209 204 192 172 150 130 119 112 111 111 114 
196 202 205 208 205 198 183 162 139 122 113 111 114 125 143 165 186 200 206 206 200 186 165 143 125 114 111 113 122 139 161 183 198 205 207 201 189 170 147 128 116 110 108 109 111 
193 199 203 205 203 195 180 159 136 119 110 108 111 122 140 162 183 197 203 203 197 183 163 140 122 111 108 110 119 136 158 180 195 203 204 199 186 167 144 125 113 107 105 106 108 
190 196 200 202 200 192 177 156 133 117 107 105 108 119 137 159 180 194 200 200 194 180 160 137 119 108 105 107 116 133 156 177 192 200 201 196 183 164 141 122 110 104 102 103 105 
187 193 197 199 197 189 174 153 131 114 104 102 105 116 134 157 177 191 197 197 191 178 157 134 116 105 102 104 114 130 153 174 189 197 198 193 181 161 138 119 107 101 100 100 102 
184 191 194 196 194 187 172 150 128 111 102 99 102 113 131 154 174 188 195 195 188 175 154 131 113 103 99 102 111 128 150 171 186 194 195 190 178 158 135 116 104 98 97 97 100 
182 188 191 193 191 184 169 147 125 108 99 96 99 110 128 151 172 185 192 192 185 172 151 128 110 100 96 99 108 125 147 168 184 191 192 187 175 155 132 113 101 95 94 94 97 
179 185 188 191 188 181 166 144 122 105 96 93 97 107 125 148 169 182 189 189 182 169 148 126 107 97 93 96 105 122 144 166 181 188 189 184 172 152 130 110 98 92 91 91 94 
176 182 185 188 185 178 163 141 119 102 93 90 94 104 123 145 166 180 186 186 180 166 145 123 105 94 90 93 102 119 141 163 178 185 186 181 169 149 127 107 95 89 88 88 91 
173 179 182 185 182 175 160 139 116 99 90 87 91 101 120 142 163 177 183 183 177 163 142 120 102 91 87 90 99 116 138 160 175 182 183 179 166 146 124 104 92 86 85 85 88 
170 176 179 182 180 172 157 136 113 96 87 85 88 99 117 139 160 174 180 180 174 160 140 117 99 88 85 87 96 113 135 157 172 179 181 175 163 144 121 101 89 83 82 83 85 
167 173 177 179 177 169 154 133 111 93 84 82 85 96 114 136 157 171 177 177 171 158 137 114 96 85 82 84 93 110 132 154 169 177 178 173 160 141 118 99 87 81 79 80 82 
164 170 174 176 174 166 151 130 108 91 81 79 82 93 111 133 154 168 175 175 168 155 134 111 93 82 79 81 90 107 129 151 166 174 175 170 158 138 115 96 84 78 76 77 79 
161 168 171 173 171 163 148 127 105 88 79 76 79 90 108 131 151 165 172 172 165 152 131 108 90 80 76 78 88 104 126 148 163 171 172 167 155 135 112 93 81 75 73 74 76 
158 165 168 170 168 161 146 124 102 85 76 73 77 87 105 128 148 162 169 169 163 149 128 105 87 77 73 76 85 102 124 145 160 168 169 164 152 132 109 90 78 72 71 71 73 
155 162 165 167 165 158 143 121 99 82 73 70 74 84 102 125 146 159 166 166 160 146 125 103 84 74 70 73 82 99 121 142 157 165 166 161 149 129 106 87 75 69 68 68 71 
153 159 162 165 162 155 140 118 96 79 70 67 71 81 99 122 143 156 163 163 157 143 122 100 81 71 67 70 79 96 118 139 155 162 163 158 146 126 104 84 72 66 65 65 68 
150 156 159 162 159 152 137 116 93 76 67 64 68 78 96 119 140 154 160 160 154 140 119 97 79 68 64 67 76 93 115 137 152 159 160 155 143 123 101 81 69 63 62 62 65 
147 153 157 159 157 149 134 113 90 73 64 61 65 76 94 116 137 151 157 157 151 137 117 94 76 65 61 64 73 90 112 134 149 156 158 152 140 121 98 78 66 60 59 59 62 
144 150 154 156 154 146 131 110 88 70 61 59 62 73 91 113 134 148 154 154 148 134 114 91 73 62 59 61 70 87 109 131 146 154 155 150 137 118 95 76 63 57 56 56 59 
141 147 151 153 151 143 128 107 84 68 58 56 59 70 88 110 131 145 151 151 145 132 111 88 70 59 56 58 67 84 106 128 143 151 152 147 134 115 92 73 61 55 53 54 56 
138 145 148 150 148 140 125 104 82 65 55 53 56 67 85 108 128 142 149 149 142 129 108 85 67 57 53 55 64 81 103 125 140 148 149 144 132 112 89 70 58 52 50 51 53 
135 142 145 147 145 137 123 101 79 62 53 50 53 64 82 105 125 139 146 146 139 126 105 82 64 54 50 52 62 78 101 122 137 145 146 141 129 109 86 67 55 49 47 48 50 
133 139 142 144 142 135 120 98 76 59 50 47 51 61 79 102 122 136 143 143 136 123 102 80 61 51 47 50 59 75 98 119 134 142 143 138 126 106 84 64 52 46 45 45 48 
130 136 139 141 139 132 117 95 73 56 47 44 48 58 76 99 120 133 140 140 133 120 99 77 58 48 44 47 56 73 95 116 132 139 140 135 123 103 81 61 49 43 42 42 45 
127 133 136 139 136 129 114 93 70 53 44 41 45 55 73 96 117 130 137 137 131 117 96 74 56 45 41 44 53 70 92 114 129 136 137 132 120 100 78 58 46 40 39 39 42 
124 130 133 136 133 126 111 89 67 50 41 39 42 52 71 93 114 128 134 134 128 114 93 71 53 42 39 41 50 67 89 111 126 133 134 129 117 98 75 55 43 37 36 36 39 
121 127 130 133 131 123 108 87 65 47 38 35 39 50 68 90 111 125 131 131 125 111 91 68 50 39 36 38 47 64 86 108 123 130 132 127 114 95 72 53 41 34 33 33 36 
118 124 128 130 128 120 105 84 62 45 35 33 36 47 65 87 108 122 128 128 122 108 88 65 47 36 33 35 44 61 83 105 120 128 129 124 111 92 69 50 38 32 30 31 33 
115 121 125 127 125 117 102 81 59 42 32 30 33 44 62 84 105 119 125 125 119 106 85 62 44 33 30 32 41 58 81 102 117 125 126 121 108 89 66 47 35 29 27 28 30 
112 119 122 124 122 114 99 78 56 39 29 27 31 41 59 82 102 116 123 123 116 103 82 59 41 30 27 29 39 55 78 99 114 122 123 118 106 86 63 44 32 26 24 25 27 
110 116 119 122 119 112 97 75 53 36 27 24 28 38 56 79 99 113 120 120 114 100 79 57 39 28 24 27 36 53 75 96 112 119 120 115 103 83 61 41 29 23 22 22 25 
107 113 117 119 117 109 94 73 51 34 25 22 26 36 54 76 97 111 117 118 111 98 77 54 36 26 22 24 33 50 73 94 109 117 118 113 101 81 58 39 27 21 20 20 22 
106 112 115 118 115 108 93 71 49 32 23 21 24 34 52 75 96 110 116 116 110 96 75 53 35 24 20 23 32 49 71 93 108 115 117 111 99 79 57 37 25 20 18 19 21 
104 111 114 116 114 106 91 70 48 31 22 19 23 33 51 73 94 108 115 115 108 94 74 51 33 23 19 22 31 47 69 91 106 114 115 110 97 78 55 36 24 18 17 17 20 
