P2
45 45
255
255 255 255 255 255 255 255 255 255 255 255 255 255 255 255 255 255 255 255 255 255 255 255 255 255 255 255 255 255 255 255 255 255 255 255 255 255 255 255 255 255 255 255 255 255 
255 255 255 255 255 255 255 255 255 255 255 255 255 255 255 255 255 255 255 255 255 255 255 255 255 255 255 255 255 255 255 255 255 255 255 255 255 255 255 255 255 255 255 255 255 
255 255 255 255 255 255 255 255 255 255 255 255 255 255 255 255 255 255 255 255 255 255 255 255 255 255 255 255 255 255 255 255 255 255 255 255 255 255 255 255 255 255 255 255 255 
255 255 255 255 255 255 255 255 255 255 255 255 255 255 255 255 255 255 255 255 255 255 255 255 255 255 255 255 255 255 255 255 255 255 255 255 255 255 255 255 255 255 255 255 255 
255 255 255 255 255 255 255 255 255 255 255 255 255 255 255 255 254 254 254 254 254 254 254 254 254 254 254 254 254 254 254 254 255 255 255 255 255 255 255 255 255 255 255 255 255 
255 255 255 255 255 255 255 255 255 255 255 255 255 255 254 254 254 254 254 254 254 254 254 254 254 254 254 254 254 254 254 254 254 254 255 255 255 255 255 255 255 255 255 255 255 
255 255 255 255 255 255 255 255 255 254 254 254 254 254 254 254 254 254 254 254 253 253 253 252 252 252 253 253 254 254 254 254 254 254 254 255 255 255 255 255 255 255 255 255 255 
254 254 254 254 254 254 254 254 254 254 254 254 254 254 254 254 254 253 252 251 250 249 249 248 248 249 249 250 251 252 253 254 254 254 254 254 254 254 255 255 255 255 255 255 255 
254 254 254 254 254 254 254 254 254 254 254 254 254 253 253 252 251 250 249 247 245 244 243 242 242 243 244 245 247 249 251 252 253 254 254 254 254 254 254 254 254 254 254 254 254 
253 253 253 253 253 253 253 254 254 253 253 252 251 250 249 248 247 245 243 241 238 236 235 233 233 234 236 238 241 244 247 250 252 253 254 254 254 254 254 254 254 254 254 254 254 
250 249 249 249 250 250 250 250 250 250 249 248 247 245 244 242 240 238 234 229 216 203 192 187 183 184 191 211 232 237 241 245 248 250 251 252 253 253 254 254 254 254 254 254 254 
244 244 244 244 244 245 245 246 246 245 244 242 241 239 236 234 230 223 202 182 170 165 167 165 161 163 169 173 190 217 233 238 242 245 247 249 250 250 250 251 251 251 252 252 252 
237 237 237 237 237 238 239 239 239 238 236 233 230 216 200 187 183 170 161 158 154 152 151 150 154 157 161 163 161 160 198 227 233 238 241 243 244 245 245 246 246 247 247 248 248 
214 213 210 203 202 205 218 227 227 219 206 187 166 149 142 139 139 141 143 139 141 139 140 140 140 141 143 143 145 145 154 178 203 222 231 235 237 238 239 239 240 241 241 241 241 
176 173 171 175 160 147 157 163 156 148 147 139 136 136 132 132 134 131 129 131 133 132 132 134 134 134 134 133 134 135 138 146 160 163 183 208 218 221 214 211 223 230 231 232 233 
153 150 149 148 135 129 128 125 126 135 136 133 129 129 127 125 126 125 122 126 126 127 128 131 131 130 130 129 130 127 134 141 147 145 143 146 152 159 158 157 158 164 166 168 181 
134 131 124 122 123 123 124 125 125 122 123 122 122 125 121 122 123 121 121 122 122 124 127 130 130 128 126 124 127 128 131 134 140 141 142 141 142 143 144 141 136 132 130 133 137 
122 120 120 121 121 122 120 120 117 117 121 123 123 125 123 122 121 120 119 118 120 123 125 130 127 124 122 120 121 123 127 131 137 139 140 142 141 139 137 136 133 130 129 124 123 
119 119 118 117 117 116 115 116 118 121 124 126 128 128 127 126 124 121 119 119 121 124 126 131 130 124 121 116 116 118 123 129 133 136 138 139 135 131 129 127 125 125 124 120 120 
114 113 114 115 116 117 120 122 124 127 129 131 133 132 131 130 128 126 125 126 129 133 133 136 135 126 116 108 112 112 118 127 131 134 136 136 134 129 126 123 121 119 118 119 119 
115 116 118 120 123 125 127 128 129 130 132 134 136 137 136 134 133 130 129 131 133 136 138 136 126 121 114 108 106 110 114 124 129 133 135 134 133 130 126 123 120 116 116 117 116 
118 119 120 121 123 125 127 128 131 134 136 138 140 141 141 140 140 137 133 135 136 135 135 140 139 130 123 117 109 109 118 124 128 131 132 132 126 120 119 116 116 117 116 116 116 
119 119 121 123 126 130 133 135 137 138 140 142 145 147 148 148 148 145 143 143 143 143 143 145 147 143 134 129 124 120 122 126 128 129 130 130 125 112 111 106 103 107 112 112 112 
125 127 130 134 137 139 140 141 140 140 138 140 144 149 152 152 152 150 148 146 144 143 143 145 146 145 141 141 138 137 131 126 127 128 130 128 127 116 108 111 101 99 107 111 108 
136 137 139 141 142 144 146 147 145 146 147 149 153 155 158 158 157 155 151 147 144 141 141 141 143 145 147 145 143 141 138 133 128 127 128 129 127 124 109 107 102 101 106 109 111 
142 142 144 146 148 149 150 151 151 153 155 157 159 161 162 162 160 158 152 148 144 140 140 141 142 144 146 148 148 147 144 139 136 132 130 133 132 129 119 107 104 104 109 108 113 
147 148 149 151 152 154 155 156 156 158 159 160 162 163 164 163 162 158 153 147 143 139 138 139 141 144 145 149 151 150 148 144 141 139 138 138 140 140 138 131 125 121 120 122 122 
152 153 153 154 155 156 157 158 159 160 161 162 164 164 164 163 161 158 153 146 141 138 136 136 138 142 143 148 151 151 149 146 144 143 143 143 145 144 145 143 140 137 134 133 133 
155 155 155 156 157 157 158 159 160 161 162 163 164 164 164 162 160 156 151 144 141 138 135 135 136 140 143 148 150 150 150 149 147 146 146 148 149 149 148 147 145 143 142 141 139 
156 156 156 157 157 158 159 159 160 160 161 162 162 162 161 159 156 150 145 141 138 136 133 134 137 140 142 147 150 151 151 150 149 148 149 150 151 152 153 153 152 150 149 148 147 
157 157 157 157 157 158 158 158 158 159 159 159 158 157 156 153 147 143 144 140 136 134 132 131 134 138 140 146 150 151 151 151 151 150 151 152 153 154 155 155 155 154 154 153 153 
156 156 156 156 156 157 157 156 156 156 155 154 153 151 150 146 140 139 139 136 133 132 130 129 130 133 138 146 149 151 151 151 151 151 152 153 154 155 155 156 156 156 156 156 155 
156 156 156 155 155 155 154 153 152 151 150 149 147 145 143 139 139 141 139 135 131 128 127 127 128 131 137 144 148 150 151 152 151 152 154 154 154 155 155 156 156 156 156 156 156 
154 154 154 153 153 152 151 149 148 146 143 142 139 137 135 134 135 135 133 130 128 126 124 124 125 129 135 140 145 148 149 151 151 153 154 154 154 155 156 156 156 156 156 156 156 
150 150 151 149 149 148 146 144 141 138 134 131 130 131 131 133 134 133 131 128 126 123 122 123 124 127 130 138 143 145 147 150 151 152 154 154 154 155 155 155 156 155 156 156 155 
147 146 145 144 144 143 138 133 129 125 124 124 125 128 128 129 129 128 126 125 122 122 121 121 123 125 130 136 142 143 145 149 149 151 154 155 155 154 155 155 155 155 155 155 155 
141 140 140 136 136 133 126 119 117 116 116 116 118 123 121 121 122 122 122 121 120 120 120 121 123 125 128 134 140 142 145 148 149 152 153 154 155 154 155 155 156 156 156 156 155 
130 130 130 126 122 119 114 110 108 108 109 110 111 114 116 118 122 120 118 115 117 118 121 124 126 129 130 135 141 143 146 147 149 150 151 153 153 154 154 155 155 155 155 155 155 
122 119 116 114 112 109 107 104 102 102 103 104 106 109 111 113 114 113 112 109 111 118 122 127 130 133 138 141 143 144 145 146 147 148 150 152 152 153 153 154 154 155 155 155 155 
111 109 109 108 105 103 102 100 100 100 101 102 103 106 107 108 108 108 108 109 112 117 123 129 133 138 142 143 144 144 144 145 145 146 148 150 151 152 153 153 153 153 153 153 154 
104 104 103 102 102 101 99 99 99 99 100 101 102 104 104 105 106 105 106 109 113 118 124 131 136 140 142 143 143 143 142 142 143 144 146 147 149 150 151 151 150 151 151 150 151 
99 99 99 100 101 101 101 101 101 100 101 101 101 102 104 104 105 106 109 110 113 118 124 132 136 140 142 142 141 141 140 140 141 142 143 145 146 147 148 148 147 147 147 146 146 
97 96 97 98 99 101 102 103 104 105 105 103 102 103 104 104 106 107 108 111 115 120 125 132 135 139 140 140 139 138 138 139 139 140 142 144 145 146 146 145 144 145 144 144 144 
95 95 96 96 98 100 103 107 110 109 108 106 104 103 106 107 108 109 113 118 118 122 127 133 136 138 139 138 137 137 137 138 138 140 142 143 144 145 145 144 143 143 142 142 142 
94 95 94 94 97 101 104 109 111 109 108 107 105 105 109 111 112 114 120 120 119 126 131 135 137 138 137 137 136 135 135 136 137 139 141 142 143 144 144 142 142 142 141 141 141 
